; pcb2gcode 2.0.0 
; Software-independent Gcode 

G94 ; Millimeters per minute feed rate. 
G21 ; Units == Millimeters. 

G90 ; Absolute coordinates. 
;G1 F3000 S10000 ; RPM spindle speed. 
G1 F300 F600.00000 ; Feedrate. 


G1 F3000 Z3.00000 ;Retract to tool change height
;T0
;M5      ;Spindle stop.
;G04 P1.00000 ;Wait for spindle to stop
;MSG, Change tool bit to mill diameter 0.12000mm
;M6      ;Tool change.
;M0      ;Temporary machine stop.
;M3 ; Spindle on clockwise. 
;G04 P1.00000 ;Wait for spindle to get up to speed
;G04 P0 ; dwell for no time -- G64 should not smooth over this point 
G1 F3000 Z3.00000 ; retract 

G1 F3000 X18.36401 Y26.13006 ; rapid move to begin. 
G1 F300 F300.00000
G1 F300 Z-0.07000
;G04 P0 ; dwell for no time -- G64 should not smooth over this point 
G1 F300 F600.00000
G1 F300 X18.36401 Y26.13006
G1 F300 X18.42134 Y26.25483
G1 F300 X18.61077 Y26.35607
G1 F300 X18.94931 Y26.46786
G1 F300 X19.30082 Y26.51119
G1 F300 X19.65405 Y26.48510
G1 F300 X19.99535 Y26.39062
G1 F300 X20.26967 Y26.25249
G1 F300 X20.32594 Y26.13006
G1 F300 X19.34496 Y25.14909
G1 F300 X18.36401 Y26.13006
;G04 P0 ; dwell for no time -- G64 should not smooth over this point 
G1 F3000 Z3.00000 ; retract 

G1 F3000 X19.78903 Y24.70502 ; rapid move to begin. 
G1 F300 F300.00000
G1 F300 Z-0.07000
;G04 P0 ; dwell for no time -- G64 should not smooth over this point 
G1 F300 F600.00000
G1 F300 X19.78903 Y24.70502
G1 F300 X20.77000 Y23.72407
G1 F300 X20.89243 Y23.78034
G1 F300 X21.03056 Y24.05463
G1 F300 X21.12504 Y24.39598
G1 F300 X21.15113 Y24.74917
G1 F300 X21.10780 Y25.10070
G1 F300 X20.99604 Y25.43918
G1 F300 X20.89474 Y25.62864
G1 F300 X20.77000 Y25.68600
G1 F300 X19.78903 Y24.70502
;G04 P0 ; dwell for no time -- G64 should not smooth over this point 
G1 F3000 Z3.00000 ; retract 

G1 F3000 X18.36401 Y23.27998 ; rapid move to begin. 
G1 F300 F300.00000
G1 F300 Z-0.07000
;G04 P0 ; dwell for no time -- G64 should not smooth over this point 
G1 F300 F600.00000
G1 F300 X18.36401 Y23.27998
G1 F300 X18.42027 Y23.15755
G1 F300 X18.69457 Y23.01945
G1 F300 X19.03592 Y22.92494
G1 F300 X19.38913 Y22.89885
G1 F300 X19.74064 Y22.94219
G1 F300 X20.07917 Y23.05400
G1 F300 X20.26861 Y23.15524
G1 F300 X20.32594 Y23.27998
G1 F300 X19.34496 Y24.26098
G1 F300 X18.36401 Y23.27998
;G04 P0 ; dwell for no time -- G64 should not smooth over this point 
G1 F3000 Z3.00000 ; retract 

G1 F3000 X17.53882 Y24.66088 ; rapid move to begin. 
G1 F300 F300.00000
G1 F300 Z-0.07000
;G04 P0 ; dwell for no time -- G64 should not smooth over this point 
G1 F300 F600.00000
G1 F300 X17.53882 Y24.66088
G1 F300 X17.56490 Y25.01409
G1 F300 X17.65939 Y25.35541
G1 F300 X17.79752 Y25.62971
G1 F300 X17.91995 Y25.68600
G1 F300 X18.90092 Y24.70505
G1 F300 X17.91995 Y23.72407
G1 F300 X17.79521 Y23.78140
G1 F300 X17.69391 Y23.97086
G1 F300 X17.58215 Y24.30934
G1 F300 X17.53882 Y24.66088
;G04 P0 ; dwell for no time -- G64 should not smooth over this point 
G1 F3000 Z3.00000 ; retract 

G1 F3000 X11.25399 Y25.12501 ; rapid move to begin. 
G1 F300 F300.00000
G1 F300 Z-0.07000
;G04 P0 ; dwell for no time -- G64 should not smooth over this point 
G1 F300 F600.00000
G1 F300 X11.25399 Y25.12501
G1 F300 X11.40213 Y25.12473
G1 F300 X11.51780 Y25.09938
G1 F300 X11.61498 Y25.03169
G1 F300 X11.65183 Y24.98496
G1 F300 X11.69110 Y24.89153
G1 F300 X12.03878 Y24.89153
G1 F300 X12.08917 Y24.94190
G1 F300 X12.08150 Y25.15285
G1 F300 X12.01427 Y25.31513
G1 F300 X11.89006 Y25.43934
G1 F300 X11.72778 Y25.50654
G1 F300 X11.30378 Y25.51361
G1 F300 X11.25399 Y25.46382
G1 F300 X11.25399 Y25.12501
;G04 P0 ; dwell for no time -- G64 should not smooth over this point 
G1 F3000 Z3.00000 ; retract 

G1 F3000 X9.34899 Y25.12501 ; rapid move to begin. 
G1 F300 F300.00000
G1 F300 Z-0.07000
;G04 P0 ; dwell for no time -- G64 should not smooth over this point 
G1 F300 F600.00000
G1 F300 X9.34899 Y25.12501
G1 F300 X9.49713 Y25.12473
G1 F300 X9.61280 Y25.09938
G1 F300 X9.70998 Y25.03169
G1 F300 X9.74683 Y24.98496
G1 F300 X9.78610 Y24.89153
G1 F300 X10.18887 Y24.89153
G1 F300 X10.22814 Y24.98496
G1 F300 X10.26499 Y25.03169
G1 F300 X10.36218 Y25.09938
G1 F300 X10.47785 Y25.12473
G1 F300 X10.62598 Y25.12501
G1 F300 X10.62598 Y25.46382
G1 F300 X10.57620 Y25.51361
G1 F300 X10.24846 Y25.51604
G1 F300 X9.96939 Y25.46397
G1 F300 X9.82291 Y25.50652
G1 F300 X9.72649 Y25.51604
G1 F300 X9.39878 Y25.51361
G1 F300 X9.34899 Y25.46382
G1 F300 X9.34899 Y25.12501
;G04 P0 ; dwell for no time -- G64 should not smooth over this point 
G1 F3000 Z3.00000 ; retract 

G1 F3000 X7.88405 Y25.05727 ; rapid move to begin. 
G1 F300 F300.00000
G1 F300 Z-0.07000
;G04 P0 ; dwell for no time -- G64 should not smooth over this point 
G1 F300 F600.00000
G1 F300 X7.88405 Y25.05727
G1 F300 X7.89345 Y25.15287
G1 F300 X7.96068 Y25.31513
G1 F300 X8.08489 Y25.43934
G1 F300 X8.16269 Y25.48094
G1 F300 X8.34346 Y25.51604
G1 F300 X8.67120 Y25.51361
G1 F300 X8.72098 Y25.46382
G1 F300 X8.72098 Y25.12501
G1 F300 X8.57285 Y25.12473
G1 F300 X8.45718 Y25.09938
G1 F300 X8.35999 Y25.03169
G1 F300 X8.32314 Y24.98496
G1 F300 X8.28387 Y24.89153
G1 F300 X7.93617 Y24.89153
G1 F300 X7.88580 Y24.94190
G1 F300 X7.88405 Y25.05727
;G04 P0 ; dwell for no time -- G64 should not smooth over this point 
G1 F3000 Z3.00000 ; retract 

G1 F3000 X8.27498 Y22.45877 ; rapid move to begin. 
G1 F300 F300.00000
G1 F300 Z-0.07000
;G04 P0 ; dwell for no time -- G64 should not smooth over this point 
G1 F300 F600.00000
G1 F300 X8.27498 Y22.45877
G1 F300 X8.28225 Y22.39380
G1 F300 X8.32314 Y22.29507
G1 F300 X8.36833 Y22.24003
G1 F300 X8.45718 Y22.18064
G1 F300 X8.57874 Y22.15501
G1 F300 X9.21478 Y22.15501
G1 F300 X9.42497 Y21.94483
G1 F300 X9.42497 Y19.76853
G1 F300 X9.40000 Y19.72002
G1 F300 X9.40114 Y18.65830
G1 F300 X9.42664 Y18.62012
G1 F300 X9.45999 Y18.61001
G1 F300 X9.93294 Y18.61458
G1 F300 X9.95986 Y18.63668
G1 F300 X9.97000 Y18.67001
G1 F300 X9.97000 Y19.72002
G1 F300 X9.94498 Y19.76856
G1 F300 X9.94498 Y22.05250
G1 F300 X9.90419 Y22.19190
G1 F300 X9.76888 Y22.33632
G1 F300 X9.79499 Y22.45877
G1 F300 X9.79499 Y22.94628
G1 F300 X9.76934 Y23.06781
G1 F300 X9.70998 Y23.15669
G1 F300 X9.66472 Y23.19532
G1 F300 X9.54468 Y23.24503
G1 F300 X8.57874 Y23.25001
G1 F300 X8.46805 Y23.22888
G1 F300 X8.35999 Y23.15669
G1 F300 X8.32314 Y23.10998
G1 F300 X8.28225 Y23.01122
G1 F300 X8.27498 Y22.45877
;G04 P0 ; dwell for no time -- G64 should not smooth over this point 
G1 F3000 Z3.00000 ; retract 

G1 F3000 X10.17998 Y22.45877 ; rapid move to begin. 
G1 F300 F300.00000
G1 F300 Z-0.07000
;G04 P0 ; dwell for no time -- G64 should not smooth over this point 
G1 F300 F600.00000
G1 F300 X10.17998 Y22.45877
G1 F300 X10.18725 Y22.39380
G1 F300 X10.22814 Y22.29507
G1 F300 X10.32004 Y22.20317
G1 F300 X10.43030 Y22.15999
G1 F300 X10.72496 Y22.15501
G1 F300 X10.72496 Y19.76853
G1 F300 X10.70000 Y19.72002
G1 F300 X10.70114 Y18.65830
G1 F300 X10.72667 Y18.62012
G1 F300 X10.75999 Y18.61001
G1 F300 X11.22169 Y18.61116
G1 F300 X11.25989 Y18.63668
G1 F300 X11.27000 Y18.67001
G1 F300 X11.27000 Y19.72002
G1 F300 X11.24498 Y19.76856
G1 F300 X11.24498 Y22.15501
G1 F300 X11.40213 Y22.15529
G1 F300 X11.51780 Y22.18064
G1 F300 X11.61498 Y22.24833
G1 F300 X11.67434 Y22.33721
G1 F300 X11.69999 Y22.45877
G1 F300 X11.69999 Y22.94628
G1 F300 X11.67886 Y23.05697
G1 F300 X11.64528 Y23.11976
G1 F300 X11.56972 Y23.19532
G1 F300 X11.44968 Y23.24503
G1 F300 X10.48374 Y23.25001
G1 F300 X10.37305 Y23.22888
G1 F300 X10.26499 Y23.15669
G1 F300 X10.22814 Y23.10998
G1 F300 X10.18725 Y23.01122
G1 F300 X10.17998 Y22.45877
;G04 P0 ; dwell for no time -- G64 should not smooth over this point 
G1 F3000 Z3.00000 ; retract 

G1 F3000 X12.64998 Y18.67001 ; rapid move to begin. 
G1 F300 F300.00000
G1 F300 Z-0.07000
;G04 P0 ; dwell for no time -- G64 should not smooth over this point 
G1 F300 F600.00000
G1 F300 X12.64998 Y18.67001
G1 F300 X12.66009 Y18.63668
G1 F300 X12.69829 Y18.61116
G1 F300 X13.18295 Y18.61458
G1 F300 X13.21884 Y18.65830
G1 F300 X13.21998 Y18.93501
G1 F300 X17.18230 Y18.93501
G1 F300 X19.03264 Y17.08467
G1 F300 X18.99642 Y17.01929
G1 F300 X18.93889 Y16.83801
G1 F300 X18.92032 Y16.64875
G1 F300 X18.94151 Y16.45975
G1 F300 X18.99866 Y16.28487
G1 F300 X19.09035 Y16.12538
G1 F300 X19.22109 Y15.97875
G1 F300 X19.36973 Y15.87034
G1 F300 X19.54877 Y15.78955
G1 F300 X19.73488 Y15.75000
G1 F300 X19.92510 Y15.75000
G1 F300 X20.11705 Y15.79181
G1 F300 X20.29025 Y15.87034
G1 F300 X20.44333 Y15.98320
G1 F300 X20.56962 Y16.12538
G1 F300 X20.66132 Y16.28487
G1 F300 X20.71847 Y16.45975
G1 F300 X20.73965 Y16.66127
G1 F300 X20.71847 Y16.85028
G1 F300 X20.66132 Y17.02515
G1 F300 X20.56962 Y17.18464
G1 F300 X20.43889 Y17.33128
G1 F300 X20.27940 Y17.44596
G1 F300 X20.11120 Y17.52048
G1 F300 X19.92510 Y17.56003
G1 F300 X19.72865 Y17.55904
G1 F300 X19.54877 Y17.52048
G1 F300 X19.39868 Y17.45401
G1 F300 X17.47385 Y19.37887
G1 F300 X17.34641 Y19.44859
G1 F300 X13.21998 Y19.45502
G1 F300 X13.21998 Y19.72002
G1 F300 X13.19331 Y19.76990
G1 F300 X12.69829 Y19.77887
G1 F300 X12.66009 Y19.75334
G1 F300 X12.64998 Y19.72002
G1 F300 X12.64998 Y18.67001
;G04 P0 ; dwell for no time -- G64 should not smooth over this point 
G1 F3000 Z3.00000 ; retract 

G1 F3000 X11.99999 Y18.67001 ; rapid move to begin. 
G1 F300 F300.00000
G1 F300 Z-0.07000
;G04 P0 ; dwell for no time -- G64 should not smooth over this point 
G1 F300 F600.00000
G1 F300 X11.99999 Y18.67001
G1 F300 X12.01757 Y18.62759
G1 F300 X12.05999 Y18.61001
G1 F300 X12.51000 Y18.61001
G1 F300 X12.54332 Y18.62012
G1 F300 X12.56542 Y18.64705
G1 F300 X12.56999 Y19.72002
G1 F300 X12.54498 Y19.76856
G1 F300 X12.54498 Y19.86002
G1 F300 X18.79729 Y19.86002
G1 F300 X19.03264 Y19.62467
G1 F300 X18.99866 Y19.56515
G1 F300 X18.93988 Y19.38420
G1 F300 X18.92032 Y19.18875
G1 F300 X18.94151 Y18.99975
G1 F300 X18.99866 Y18.82487
G1 F300 X19.09035 Y18.66538
G1 F300 X19.22109 Y18.51875
G1 F300 X19.36973 Y18.41034
G1 F300 X19.54877 Y18.32955
G1 F300 X19.73488 Y18.29000
G1 F300 X19.92510 Y18.29000
G1 F300 X20.11120 Y18.32955
G1 F300 X20.27940 Y18.40407
G1 F300 X20.43889 Y18.51875
G1 F300 X20.56962 Y18.66538
G1 F300 X20.66132 Y18.82487
G1 F300 X20.72009 Y19.00582
G1 F300 X20.73965 Y19.20127
G1 F300 X20.71847 Y19.39028
G1 F300 X20.66132 Y19.56515
G1 F300 X20.56962 Y19.72464
G1 F300 X20.43889 Y19.87128
G1 F300 X20.29025 Y19.97968
G1 F300 X20.11120 Y20.06048
G1 F300 X19.91882 Y20.10036
G1 F300 X19.72865 Y20.09904
G1 F300 X19.54877 Y20.06048
G1 F300 X19.39868 Y19.99401
G1 F300 X19.08446 Y20.30782
G1 F300 X19.00978 Y20.35771
G1 F300 X18.94986 Y20.37590
G1 F300 X12.38409 Y20.37973
G1 F300 X12.29603 Y20.36223
G1 F300 X12.21048 Y20.30782
G1 F300 X12.07228 Y20.16421
G1 F300 X12.03139 Y20.07145
G1 F300 X12.02496 Y19.76851
G1 F300 X11.99999 Y19.72002
G1 F300 X11.99999 Y18.67001
;G04 P0 ; dwell for no time -- G64 should not smooth over this point 
G1 F3000 Z3.00000 ; retract 

G1 F3000 X10.04998 Y18.67001 ; rapid move to begin. 
G1 F300 F300.00000
G1 F300 Z-0.07000
;G04 P0 ; dwell for no time -- G64 should not smooth over this point 
G1 F300 F600.00000
G1 F300 X10.04998 Y18.67001
G1 F300 X10.05456 Y19.74298
G1 F300 X10.07665 Y19.76990
G1 F300 X10.10998 Y19.78001
G1 F300 X10.58295 Y19.77544
G1 F300 X10.60988 Y19.75334
G1 F300 X10.61999 Y19.72002
G1 F300 X10.61541 Y18.64705
G1 F300 X10.59332 Y18.62012
G1 F300 X10.55999 Y18.61001
G1 F300 X10.10998 Y18.61001
G1 F300 X10.06756 Y18.62759
G1 F300 X10.04998 Y18.67001
;G04 P0 ; dwell for no time -- G64 should not smooth over this point 
G1 F3000 Z3.00000 ; retract 

G1 F3000 X12.64998 Y13.12001 ; rapid move to begin. 
G1 F300 F300.00000
G1 F300 Z-0.07000
;G04 P0 ; dwell for no time -- G64 should not smooth over this point 
G1 F300 F600.00000
G1 F300 X12.64998 Y13.12001
G1 F300 X12.66009 Y14.20334
G1 F300 X12.71000 Y14.23001
G1 F300 X13.15229 Y14.23001
G1 F300 X13.25582 Y14.32770
G1 F300 X13.31104 Y14.35721
G1 F300 X13.39910 Y14.37472
G1 F300 X13.55833 Y14.37502
G1 F300 X13.48424 Y14.48228
G1 F300 X13.34007 Y14.58259
G1 F300 X13.25917 Y14.60880
G1 F300 X13.15699 Y14.51462
G1 F300 X13.04439 Y14.48947
G1 F300 X12.93514 Y14.53794
G1 F300 X12.87868 Y14.63844
G1 F300 X12.87685 Y14.80641
G1 F300 X12.90103 Y14.95922
G1 F300 X12.90103 Y17.88085
G1 F300 X12.88440 Y18.04801
G1 F300 X12.91297 Y18.13231
G1 F300 X12.96677 Y18.18728
G1 F300 X13.03814 Y18.21591
G1 F300 X13.24779 Y18.22850
G1 F300 X13.33225 Y18.25411
G1 F300 X13.47827 Y18.35169
G1 F300 X13.59311 Y18.50237
G1 F300 X13.64845 Y18.53503
G1 F300 X13.71434 Y18.54702
G1 F300 X16.98063 Y18.54341
G1 F300 X17.07634 Y18.49223
G1 F300 X18.50338 Y17.06518
G1 F300 X18.53838 Y17.01489
G1 F300 X18.55817 Y16.93346
G1 F300 X18.53198 Y16.78337
G1 F300 X18.53198 Y16.52719
G1 F300 X18.58187 Y16.27641
G1 F300 X18.67971 Y16.04019
G1 F300 X18.82198 Y15.82726
G1 F300 X18.96797 Y15.67354
G1 F300 X18.99348 Y15.60143
G1 F300 X18.99094 Y15.53715
G1 F300 X18.95985 Y15.46727
G1 F300 X18.92487 Y15.43054
G1 F300 X18.72988 Y15.33933
G1 F300 X18.66165 Y15.28332
G1 F300 X18.56406 Y15.13730
G1 F300 X18.53846 Y15.05284
G1 F300 X18.52891 Y13.80781
G1 F300 X18.51466 Y13.73626
G1 F300 X18.47412 Y13.67561
G1 F300 X17.71134 Y12.91282
G1 F300 X17.66104 Y12.87782
G1 F300 X17.57913 Y12.85803
G1 F300 X13.75882 Y12.86105
G1 F300 X13.67769 Y12.89656
G1 F300 X13.61660 Y12.97817
G1 F300 X13.60504 Y13.02758
G1 F300 X13.60898 Y13.28081
G1 F300 X13.55877 Y13.33103
G1 F300 X13.21998 Y13.33103
G1 F300 X13.21884 Y13.10830
G1 F300 X13.20240 Y13.07759
G1 F300 X13.17169 Y13.06115
G1 F300 X12.69829 Y13.06115
G1 F300 X12.66009 Y13.08668
G1 F300 X12.64998 Y13.12001
;G04 P0 ; dwell for no time -- G64 should not smooth over this point 
G1 F3000 Z3.00000 ; retract 

G1 F3000 X11.99999 Y13.12001 ; rapid move to begin. 
G1 F300 F300.00000
G1 F300 Z-0.07000
;G04 P0 ; dwell for no time -- G64 should not smooth over this point 
G1 F300 F600.00000
G1 F300 X11.99999 Y13.12001
G1 F300 X12.02496 Y13.07152
G1 F300 X12.03139 Y12.86215
G1 F300 X12.07228 Y12.76938
G1 F300 X12.80967 Y12.02615
G1 F300 X12.88871 Y11.97233
G1 F300 X12.94863 Y11.95415
G1 F300 X17.98141 Y11.95643
G1 F300 X18.10885 Y12.02615
G1 F300 X19.28768 Y13.20502
G1 F300 X20.67999 Y13.20502
G1 F300 X20.72240 Y13.22260
G1 F300 X20.73998 Y13.26501
G1 F300 X20.73884 Y14.97672
G1 F300 X20.71331 Y15.01490
G1 F300 X20.67999 Y15.02501
G1 F300 X18.97999 Y15.02501
G1 F300 X18.93757 Y15.00743
G1 F300 X18.91999 Y14.96501
G1 F300 X18.91999 Y13.57271
G1 F300 X17.81730 Y12.47002
G1 F300 X13.10121 Y12.47002
G1 F300 X12.54498 Y13.02625
G1 F300 X12.54498 Y13.07147
G1 F300 X12.56999 Y13.12001
G1 F300 X12.56999 Y14.17002
G1 F300 X12.55988 Y14.20334
G1 F300 X12.52168 Y14.22887
G1 F300 X12.05999 Y14.23001
G1 F300 X12.02666 Y14.21990
G1 F300 X12.00456 Y14.19298
G1 F300 X11.99999 Y13.12001
;G04 P0 ; dwell for no time -- G64 should not smooth over this point 
G1 F3000 Z3.00000 ; retract 

G1 F3000 X11.34998 Y13.12001 ; rapid move to begin. 
G1 F300 F300.00000
G1 F300 Z-0.07000
;G04 P0 ; dwell for no time -- G64 should not smooth over this point 
G1 F300 F600.00000
G1 F300 X11.34998 Y13.12001
G1 F300 X11.37497 Y13.07149
G1 F300 X11.37912 Y12.67512
G1 F300 X11.42230 Y12.57083
G1 F300 X13.01665 Y10.97066
G1 F300 X12.95364 Y10.87195
G1 F300 X12.93248 Y10.76126
G1 F300 X12.93248 Y9.84877
G1 F300 X12.95364 Y9.73807
G1 F300 X12.98719 Y9.67528
G1 F300 X13.07253 Y9.59317
G1 F300 X13.17126 Y9.55227
G1 F300 X13.23037 Y9.54531
G1 F300 X13.72961 Y9.54531
G1 F300 X13.83443 Y9.56614
G1 F300 X13.89722 Y9.59972
G1 F300 X13.94248 Y9.63835
G1 F300 X14.00184 Y9.72720
G1 F300 X14.02719 Y9.84287
G1 F300 X14.02750 Y10.76126
G1 F300 X14.00184 Y10.88282
G1 F300 X13.93415 Y10.98001
G1 F300 X13.84530 Y11.03936
G1 F300 X13.77718 Y11.06004
G1 F300 X13.65567 Y11.06502
G1 F300 X11.89499 Y12.82770
G1 F300 X11.89499 Y13.07149
G1 F300 X11.91998 Y13.12001
G1 F300 X11.91998 Y14.17002
G1 F300 X11.90987 Y14.20334
G1 F300 X11.88295 Y14.22544
G1 F300 X11.40998 Y14.23001
G1 F300 X11.37665 Y14.21990
G1 F300 X11.35455 Y14.19298
G1 F300 X11.34998 Y13.12001
;G04 P0 ; dwell for no time -- G64 should not smooth over this point 
G1 F3000 Z3.00000 ; retract 

G1 F3000 X10.70000 Y13.12001 ; rapid move to begin. 
G1 F300 F300.00000
G1 F300 Z-0.07000
;G04 P0 ; dwell for no time -- G64 should not smooth over this point 
G1 F300 F600.00000
G1 F300 X10.70000 Y13.12001
G1 F300 X10.72496 Y13.07149
G1 F300 X10.72910 Y10.88013
G1 F300 X10.74729 Y10.82021
G1 F300 X10.79718 Y10.74554
G1 F300 X11.05748 Y10.48481
G1 F300 X11.05748 Y9.84877
G1 F300 X11.07863 Y9.73807
G1 F300 X11.15082 Y9.63002
G1 F300 X11.23967 Y9.57066
G1 F300 X11.30779 Y9.54999
G1 F300 X11.84874 Y9.54501
G1 F300 X11.95943 Y9.56614
G1 F300 X12.06748 Y9.63835
G1 F300 X12.12684 Y9.72720
G1 F300 X12.14752 Y9.79532
G1 F300 X12.15249 Y10.76126
G1 F300 X12.12684 Y10.88282
G1 F300 X12.06748 Y10.97167
G1 F300 X12.02222 Y11.01031
G1 F300 X11.90218 Y11.06004
G1 F300 X11.36123 Y11.06502
G1 F300 X11.24498 Y11.04157
G1 F300 X11.24498 Y13.07147
G1 F300 X11.27000 Y13.12001
G1 F300 X11.27000 Y14.17002
G1 F300 X11.25989 Y14.20334
G1 F300 X11.23294 Y14.22544
G1 F300 X10.75999 Y14.23001
G1 F300 X10.72667 Y14.21990
G1 F300 X10.70454 Y14.19298
G1 F300 X10.70000 Y13.12001
;G04 P0 ; dwell for no time -- G64 should not smooth over this point 
G1 F3000 Z3.00000 ; retract 

G1 F3000 X8.80998 Y14.95003 ; rapid move to begin. 
G1 F300 F300.00000
G1 F300 Z-0.07000
;G04 P0 ; dwell for no time -- G64 should not smooth over this point 
G1 F300 F600.00000
G1 F300 X8.80998 Y14.95003
G1 F300 X8.82756 Y14.90758
G1 F300 X8.86998 Y14.89000
G1 F300 X12.44998 Y14.89000
G1 F300 X12.48333 Y14.90011
G1 F300 X12.51000 Y14.95003
G1 F300 X12.51000 Y17.89002
G1 F300 X12.49986 Y17.92335
G1 F300 X12.44998 Y17.95002
G1 F300 X8.86998 Y17.95002
G1 F300 X8.83665 Y17.93991
G1 F300 X8.80998 Y17.89002
G1 F300 X8.80998 Y14.95003
;G04 P0 ; dwell for no time -- G64 should not smooth over this point 
G1 F3000 Z3.00000 ; retract 

G1 F3000 X6.17399 Y15.31002 ; rapid move to begin. 
G1 F300 F300.00000
G1 F300 Z-0.07000
;G04 P0 ; dwell for no time -- G64 should not smooth over this point 
G1 F300 F600.00000
G1 F300 X6.17399 Y15.31002
G1 F300 X6.63295 Y15.30545
G1 F300 X6.66884 Y15.26171
G1 F300 X6.66998 Y15.06402
G1 F300 X7.00877 Y15.06402
G1 F300 X7.05908 Y15.11434
G1 F300 X7.05149 Y15.33783
G1 F300 X6.98428 Y15.50011
G1 F300 X6.86010 Y15.62432
G1 F300 X6.69779 Y15.69155
G1 F300 X6.22370 Y15.69854
G1 F300 X6.17399 Y15.64883
G1 F300 X6.17399 Y15.31002
;G04 P0 ; dwell for no time -- G64 should not smooth over this point 
G1 F3000 Z3.00000 ; retract 

G1 F3000 X5.04999 Y12.95000 ; rapid move to begin. 
G1 F300 F300.00000
G1 F300 Z-0.07000
;G04 P0 ; dwell for no time -- G64 should not smooth over this point 
G1 F300 F600.00000
G1 F300 X5.04999 Y12.95000
G1 F300 X5.06757 Y12.90759
G1 F300 X5.10999 Y12.89001
G1 F300 X6.62170 Y12.89118
G1 F300 X6.65987 Y12.91668
G1 F300 X6.66998 Y12.95000
G1 F300 X6.66998 Y13.38503
G1 F300 X8.09998 Y13.38503
G1 F300 X8.09998 Y13.12001
G1 F300 X8.12665 Y13.07012
G1 F300 X8.63294 Y13.06458
G1 F300 X8.65987 Y13.08668
G1 F300 X8.66998 Y13.12001
G1 F300 X8.66543 Y14.19298
G1 F300 X8.64333 Y14.21990
G1 F300 X8.60998 Y14.23001
G1 F300 X8.13703 Y14.22544
G1 F300 X8.10114 Y14.18173
G1 F300 X8.09998 Y13.90504
G1 F300 X6.66998 Y13.90504
G1 F300 X6.65987 Y13.98335
G1 F300 X6.60999 Y14.01002
G1 F300 X5.08703 Y14.00545
G1 F300 X5.06010 Y13.98335
G1 F300 X5.04999 Y13.95000
G1 F300 X5.04999 Y12.95000
;G04 P0 ; dwell for no time -- G64 should not smooth over this point 
G1 F3000 Z3.00000 ; retract 

G1 F3000 X3.76765 Y15.85388 ; rapid move to begin. 
G1 F300 F300.00000
G1 F300 Z-0.07000
;G04 P0 ; dwell for no time -- G64 should not smooth over this point 
G1 F300 F600.00000
G1 F300 X3.76765 Y15.85388
G1 F300 X3.77222 Y15.92640
G1 F300 X3.93308 Y16.27641
G1 F300 X3.98297 Y16.52719
G1 F300 X3.98297 Y16.78337
G1 F300 X3.95678 Y16.93346
G1 F300 X3.97656 Y17.01489
G1 F300 X4.01157 Y17.06518
G1 F300 X5.47732 Y18.52104
G1 F300 X5.54606 Y18.54458
G1 F300 X7.63645 Y18.54440
G1 F300 X7.72687 Y18.50234
G1 F300 X7.84166 Y18.35169
G1 F300 X7.90988 Y18.29571
G1 F300 X8.07214 Y18.22850
G1 F300 X8.31900 Y18.20531
G1 F300 X8.36330 Y18.18004
G1 F300 X8.41331 Y18.12162
G1 F300 X8.43597 Y18.02172
G1 F300 X8.41890 Y17.88085
G1 F300 X8.41890 Y14.95922
G1 F300 X8.43409 Y14.77972
G1 F300 X8.39134 Y14.68660
G1 F300 X8.33035 Y14.63974
G1 F300 X8.28565 Y14.62468
G1 F300 X8.07214 Y14.61154
G1 F300 X7.90988 Y14.54434
G1 F300 X7.84166 Y14.48833
G1 F300 X7.75316 Y14.36511
G1 F300 X7.69944 Y14.31830
G1 F300 X7.62832 Y14.29509
G1 F300 X7.19563 Y14.29613
G1 F300 X7.10610 Y14.34032
G1 F300 X7.00877 Y14.43601
G1 F300 X6.66998 Y14.43601
G1 F300 X6.66884 Y14.23832
G1 F300 X6.65240 Y14.20758
G1 F300 X6.62170 Y14.19117
G1 F300 X5.08703 Y14.19458
G1 F300 X5.06010 Y14.21668
G1 F300 X5.04999 Y14.25000
G1 F300 X5.05457 Y15.27299
G1 F300 X5.07666 Y15.29991
G1 F300 X5.10999 Y15.31002
G1 F300 X5.54598 Y15.31002
G1 F300 X5.54598 Y15.64883
G1 F300 X5.49627 Y15.69854
G1 F300 X5.11855 Y15.70103
G1 F300 X4.93770 Y15.66592
G1 F300 X4.85985 Y15.62432
G1 F300 X4.73567 Y15.50011
G1 F300 X4.69406 Y15.42231
G1 F300 X4.65800 Y15.28757
G1 F300 X4.61875 Y15.22231
G1 F300 X4.55673 Y15.17814
G1 F300 X4.45624 Y15.16415
G1 F300 X4.34946 Y15.21698
G1 F300 X3.82000 Y15.74644
G1 F300 X3.76765 Y15.85388
;G04 P0 ; dwell for no time -- G64 should not smooth over this point 
G1 F3000 Z3.00000 ; retract 

G1 F3000 X1.77497 Y18.34501 ; rapid move to begin. 
G1 F300 F300.00000
G1 F300 Z-0.07000
;G04 P0 ; dwell for no time -- G64 should not smooth over this point 
G1 F300 F600.00000
G1 F300 X1.77497 Y18.34501
G1 F300 X1.79257 Y18.30260
G1 F300 X1.83499 Y18.28502
G1 F300 X3.56831 Y18.29513
G1 F300 X3.59498 Y18.34501
G1 F300 X3.59498 Y19.73734
G1 F300 X3.71769 Y19.86002
G1 F300 X8.77498 Y19.86002
G1 F300 X8.77498 Y19.76853
G1 F300 X8.74999 Y19.72002
G1 F300 X8.75456 Y18.64705
G1 F300 X8.77666 Y18.62012
G1 F300 X8.80998 Y18.61001
G1 F300 X9.27170 Y18.61116
G1 F300 X9.30988 Y18.63668
G1 F300 X9.31999 Y18.67001
G1 F300 X9.31999 Y19.72002
G1 F300 X9.29499 Y19.76853
G1 F300 X9.28857 Y20.07145
G1 F300 X9.24767 Y20.16421
G1 F300 X9.10947 Y20.30782
G1 F300 X9.02393 Y20.36223
G1 F300 X8.93000 Y20.38004
G1 F300 X3.60999 Y20.38004
G1 F300 X3.51601 Y20.36223
G1 F300 X3.46079 Y20.33269
G1 F300 X3.22726 Y20.10501
G1 F300 X1.82328 Y20.10386
G1 F300 X1.78510 Y20.07834
G1 F300 X1.77497 Y20.04501
G1 F300 X1.77497 Y18.34501
;G04 P0 ; dwell for no time -- G64 should not smooth over this point 
G1 F3000 Z3.00000 ; retract 

G1 F3000 X1.77530 Y16.64875 ; rapid move to begin. 
G1 F300 F300.00000
G1 F300 Z-0.07000
;G04 P0 ; dwell for no time -- G64 should not smooth over this point 
G1 F300 F600.00000
G1 F300 X1.77530 Y16.64875
G1 F300 X1.79651 Y16.45975
G1 F300 X1.85366 Y16.28487
G1 F300 X1.94533 Y16.12538
G1 F300 X2.07606 Y15.97875
G1 F300 X2.23557 Y15.86407
G1 F300 X2.40984 Y15.78792
G1 F300 X2.58988 Y15.75000
G1 F300 X2.77382 Y15.74967
G1 F300 X2.96620 Y15.78955
G1 F300 X3.13440 Y15.86407
G1 F300 X3.29389 Y15.97875
G1 F300 X3.41723 Y16.11525
G1 F300 X3.51632 Y16.28487
G1 F300 X3.57347 Y16.45975
G1 F300 X3.59465 Y16.64875
G1 F300 X3.57608 Y16.83801
G1 F300 X3.51855 Y17.01929
G1 F300 X3.48233 Y17.08467
G1 F300 X5.33267 Y18.93501
G1 F300 X8.09998 Y18.93501
G1 F300 X8.09998 Y18.67001
G1 F300 X8.12665 Y18.62012
G1 F300 X8.62169 Y18.61116
G1 F300 X8.65243 Y18.62759
G1 F300 X8.66998 Y18.67001
G1 F300 X8.66543 Y19.74298
G1 F300 X8.64333 Y19.76990
G1 F300 X8.60998 Y19.78001
G1 F300 X8.13703 Y19.77544
G1 F300 X8.10114 Y19.73173
G1 F300 X8.09998 Y19.45502
G1 F300 X5.22497 Y19.45502
G1 F300 X5.12017 Y19.43269
G1 F300 X5.04113 Y19.37887
G1 F300 X3.11629 Y17.45401
G1 F300 X2.96620 Y17.52048
G1 F300 X2.78632 Y17.55904
G1 F300 X2.58988 Y17.56003
G1 F300 X2.40377 Y17.52048
G1 F300 X2.23557 Y17.44596
G1 F300 X2.07606 Y17.33128
G1 F300 X1.94533 Y17.18464
G1 F300 X1.85366 Y17.02515
G1 F300 X1.79488 Y16.84420
G1 F300 X1.77530 Y16.64875
;G04 P0 ; dwell for no time -- G64 should not smooth over this point 
G1 F3000 Z3.00000 ; retract 

G1 F3000 X1.77530 Y14.10875 ; rapid move to begin. 
G1 F300 F300.00000
G1 F300 Z-0.07000
;G04 P0 ; dwell for no time -- G64 should not smooth over this point 
G1 F300 F600.00000
G1 F300 X1.77530 Y14.10875
G1 F300 X1.79651 Y14.31028
G1 F300 X1.85366 Y14.48515
G1 F300 X1.94533 Y14.64464
G1 F300 X2.08096 Y14.79524
G1 F300 X2.23557 Y14.90596
G1 F300 X2.40377 Y14.98048
G1 F300 X2.59615 Y15.02036
G1 F300 X2.78010 Y15.02003
G1 F300 X2.96620 Y14.98048
G1 F300 X3.14525 Y14.89968
G1 F300 X3.29389 Y14.79128
G1 F300 X3.41723 Y14.65478
G1 F300 X3.51632 Y14.48515
G1 F300 X3.57509 Y14.30420
G1 F300 X3.59465 Y14.12127
G1 F300 X3.57509 Y13.92582
G1 F300 X3.51632 Y13.74487
G1 F300 X3.41723 Y13.57525
G1 F300 X3.29389 Y13.43875
G1 F300 X3.09927 Y13.30845
G1 F300 X4.77385 Y11.63388
G1 F300 X4.82767 Y11.55483
G1 F300 X4.84999 Y11.45001
G1 F300 X4.84999 Y9.93002
G1 F300 X8.29230 Y9.93002
G1 F300 X8.77498 Y10.41272
G1 F300 X8.77498 Y13.07149
G1 F300 X8.74999 Y13.12001
G1 F300 X8.75113 Y14.18173
G1 F300 X8.77666 Y14.21990
G1 F300 X8.80998 Y14.23001
G1 F300 X9.28295 Y14.22544
G1 F300 X9.30988 Y14.20334
G1 F300 X9.31999 Y14.17002
G1 F300 X9.31999 Y13.12001
G1 F300 X9.29499 Y13.07149
G1 F300 X9.29499 Y10.30503
G1 F300 X9.27267 Y10.20020
G1 F300 X9.21885 Y10.12115
G1 F300 X8.58385 Y9.48615
G1 F300 X8.50480 Y9.43233
G1 F300 X8.44488 Y9.41415
G1 F300 X4.59000 Y9.41001
G1 F300 X4.48517 Y9.43233
G1 F300 X4.37730 Y9.52083
G1 F300 X4.34779 Y9.57607
G1 F300 X4.33028 Y9.66413
G1 F300 X4.32998 Y11.34231
G1 F300 X2.50110 Y13.17116
G1 F300 X2.45495 Y13.23834
G1 F300 X2.23557 Y13.32407
G1 F300 X2.07162 Y13.44320
G1 F300 X1.94533 Y13.58538
G1 F300 X1.85366 Y13.74487
G1 F300 X1.79488 Y13.92582
G1 F300 X1.77530 Y14.10875
;G04 P0 ; dwell for no time -- G64 should not smooth over this point 
G1 F3000 Z3.00000 ; retract 

G1 F3000 X1.77530 Y11.56875 ; rapid move to begin. 
G1 F300 F300.00000
G1 F300 Z-0.07000
;G04 P0 ; dwell for no time -- G64 should not smooth over this point 
G1 F300 F600.00000
G1 F300 X1.77530 Y11.56875
G1 F300 X1.79651 Y11.77028
G1 F300 X1.85366 Y11.94515
G1 F300 X1.94533 Y12.10464
G1 F300 X2.07606 Y12.25128
G1 F300 X2.23557 Y12.36596
G1 F300 X2.40377 Y12.44048
G1 F300 X2.58365 Y12.47904
G1 F300 X2.78010 Y12.48003
G1 F300 X2.96620 Y12.44048
G1 F300 X3.13440 Y12.36596
G1 F300 X3.29389 Y12.25128
G1 F300 X3.42462 Y12.10464
G1 F300 X3.51855 Y11.93929
G1 F300 X3.57509 Y11.76420
G1 F300 X3.59465 Y11.58127
G1 F300 X3.57509 Y11.38582
G1 F300 X3.51632 Y11.20487
G1 F300 X3.41723 Y11.03525
G1 F300 X3.28901 Y10.89479
G1 F300 X3.14525 Y10.79034
G1 F300 X3.03798 Y10.74117
G1 F300 X4.44913 Y9.33002
G1 F300 X8.54082 Y9.33002
G1 F300 X9.42497 Y10.21420
G1 F300 X9.42497 Y13.07149
G1 F300 X9.40000 Y13.12001
G1 F300 X9.40114 Y14.18173
G1 F300 X9.42664 Y14.21990
G1 F300 X9.45999 Y14.23001
G1 F300 X9.90998 Y14.23001
G1 F300 X9.94333 Y14.21990
G1 F300 X9.96543 Y14.19298
G1 F300 X9.97000 Y13.12001
G1 F300 X9.94498 Y13.07149
G1 F300 X9.93855 Y10.05006
G1 F300 X9.86883 Y9.92263
G1 F300 X8.83236 Y8.88616
G1 F300 X8.74244 Y8.82781
G1 F300 X8.64851 Y8.81001
G1 F300 X4.34146 Y8.81001
G1 F300 X4.24751 Y8.82781
G1 F300 X4.15759 Y8.88616
G1 F300 X2.50110 Y10.54262
G1 F300 X2.44731 Y10.62166
G1 F300 X2.42775 Y10.70411
G1 F300 X2.23557 Y10.78407
G1 F300 X2.07162 Y10.90320
G1 F300 X1.94533 Y11.04538
G1 F300 X1.85366 Y11.20487
G1 F300 X1.79488 Y11.38582
G1 F300 X1.77530 Y11.56875
;G04 P0 ; dwell for no time -- G64 should not smooth over this point 
G1 F3000 Z3.00000 ; retract 

G1 F3000 X1.17497 Y10.97500 ; rapid move to begin. 
G1 F300 F300.00000
G1 F300 Z-0.07000
;G04 P0 ; dwell for no time -- G64 should not smooth over this point 
G1 F300 F600.00000
G1 F300 X1.17497 Y10.97500
G1 F300 X1.19278 Y10.88107
G1 F300 X1.25112 Y10.79116
G1 F300 X6.97112 Y5.07118
G1 F300 X7.09855 Y5.00145
G1 F300 X9.54798 Y4.99503
G1 F300 X9.57064 Y4.88969
G1 F300 X9.63833 Y4.79251
G1 F300 X9.73805 Y4.72866
G1 F300 X9.84874 Y4.70750
G1 F300 X10.82621 Y4.71479
G1 F300 X10.92494 Y4.75568
G1 F300 X10.97998 Y4.80085
G1 F300 X11.03934 Y4.88969
G1 F300 X11.06200 Y4.99503
G1 F300 X15.25998 Y4.99503
G1 F300 X15.26725 Y4.58380
G1 F300 X15.30814 Y4.48505
G1 F300 X15.34500 Y4.43834
G1 F300 X15.44218 Y4.37065
G1 F300 X15.56374 Y4.34502
G1 F300 X16.48213 Y4.34530
G1 F300 X16.58693 Y4.36615
G1 F300 X16.64972 Y4.39970
G1 F300 X16.73183 Y4.48505
G1 F300 X16.77273 Y4.58380
G1 F300 X16.77999 Y5.13625
G1 F300 X16.75388 Y5.25871
G1 F300 X17.73016 Y6.23501
G1 F300 X18.96254 Y6.23501
G1 F300 X18.99866 Y6.12487
G1 F300 X19.09774 Y5.95525
G1 F300 X19.22109 Y5.81875
G1 F300 X19.38057 Y5.70407
G1 F300 X19.54877 Y5.62955
G1 F300 X19.73488 Y5.59000
G1 F300 X19.92510 Y5.59000
G1 F300 X20.11705 Y5.63181
G1 F300 X20.27940 Y5.70407
G1 F300 X20.43401 Y5.81479
G1 F300 X20.56962 Y5.96538
G1 F300 X20.66132 Y6.12487
G1 F300 X20.71847 Y6.29975
G1 F300 X20.73965 Y6.48875
G1 F300 X20.72009 Y6.68420
G1 F300 X20.66132 Y6.86515
G1 F300 X20.62733 Y6.92467
G1 F300 X21.26777 Y7.56553
G1 F300 X21.32217 Y7.65108
G1 F300 X21.33967 Y7.73914
G1 F300 X21.33998 Y19.79502
G1 F300 X21.31765 Y19.89985
G1 F300 X21.26383 Y19.97889
G1 F300 X20.33881 Y20.90389
G1 F300 X20.25977 Y20.95771
G1 F300 X20.16084 Y20.97973
G1 F300 X11.82999 Y20.98004
G1 F300 X11.73604 Y20.96223
G1 F300 X11.65049 Y20.90782
G1 F300 X11.42217 Y20.67950
G1 F300 X11.36776 Y20.59396
G1 F300 X11.34996 Y20.50000
G1 F300 X11.34998 Y18.67001
G1 F300 X11.36756 Y18.62759
G1 F300 X11.40998 Y18.61001
G1 F300 X11.85999 Y18.61001
G1 F300 X11.89331 Y18.62012
G1 F300 X11.91884 Y18.65830
G1 F300 X11.91998 Y19.72002
G1 F300 X11.90241 Y19.76244
G1 F300 X11.86997 Y19.77902
G1 F300 X11.86997 Y20.39233
G1 F300 X11.93769 Y20.46002
G1 F300 X20.04727 Y20.46002
G1 F300 X20.81996 Y19.68733
G1 F300 X20.81996 Y7.85271
G1 F300 X20.26129 Y7.29401
G1 F300 X20.11120 Y7.36048
G1 F300 X19.93132 Y7.39904
G1 F300 X19.74115 Y7.40036
G1 F300 X19.54877 Y7.36048
G1 F300 X19.36973 Y7.27968
G1 F300 X19.22109 Y7.17128
G1 F300 X19.09774 Y7.03478
G1 F300 X18.99866 Y6.86515
G1 F300 X18.96254 Y6.75502
G1 F300 X17.62246 Y6.75502
G1 F300 X17.51766 Y6.73269
G1 F300 X17.43862 Y6.67887
G1 F300 X16.19978 Y5.44001
G1 F300 X15.83806 Y5.44001
G1 F300 X15.75142 Y5.49724
G1 F300 X15.65749 Y5.51504
G1 F300 X11.06200 Y5.51504
G1 F300 X11.03934 Y5.62033
G1 F300 X10.97165 Y5.71751
G1 F300 X10.87193 Y5.78139
G1 F300 X10.76123 Y5.80252
G1 F300 X9.78377 Y5.79526
G1 F300 X9.68504 Y5.75434
G1 F300 X9.62999 Y5.70917
G1 F300 X9.57064 Y5.62033
G1 F300 X9.54798 Y5.51504
G1 F300 X7.26266 Y5.51504
G1 F300 X1.69498 Y11.08270
G1 F300 X1.69498 Y14.60735
G1 F300 X2.19265 Y15.10502
G1 F300 X3.17730 Y15.10502
G1 F300 X3.67496 Y14.60733
G1 F300 X3.67496 Y13.40504
G1 F300 X3.69729 Y13.30022
G1 F300 X3.75111 Y13.22117
G1 F300 X5.04999 Y11.93118
G1 F300 X5.04999 Y11.65001
G1 F300 X5.07666 Y11.60012
G1 F300 X6.60999 Y11.59001
G1 F300 X6.64331 Y11.60012
G1 F300 X6.66541 Y11.62704
G1 F300 X6.66998 Y12.65000
G1 F300 X6.64331 Y12.69989
G1 F300 X5.10999 Y12.71002
G1 F300 X5.06757 Y12.69245
G1 F300 X5.05068 Y12.65701
G1 F300 X4.19498 Y13.51272
G1 F300 X4.19498 Y14.71502
G1 F300 X4.17717 Y14.80898
G1 F300 X4.11883 Y14.89889
G1 F300 X3.46884 Y15.54888
G1 F300 X3.37893 Y15.60722
G1 F300 X3.28500 Y15.62503
G1 F300 X2.08498 Y15.62503
G1 F300 X1.99100 Y15.60722
G1 F300 X1.90111 Y15.54888
G1 F300 X1.25112 Y14.89889
G1 F300 X1.19730 Y14.81985
G1 F300 X1.17497 Y14.71502
G1 F300 X1.17497 Y10.97500
;G04 P0 ; dwell for no time -- G64 should not smooth over this point 
G1 F3000 Z3.00000 ; retract 

G1 F3000 X3.36402 Y5.13005 ; rapid move to begin. 
G1 F300 F300.00000
G1 F300 Z-0.07000
;G04 P0 ; dwell for no time -- G64 should not smooth over this point 
G1 F300 F600.00000
G1 F300 X3.36402 Y5.13005
G1 F300 X3.42135 Y5.25482
G1 F300 X3.61080 Y5.35609
G1 F300 X3.94931 Y5.46785
G1 F300 X4.30082 Y5.51118
G1 F300 X4.65403 Y5.48510
G1 F300 X4.99538 Y5.39061
G1 F300 X5.26968 Y5.25248
G1 F300 X5.32594 Y5.13005
G1 F300 X4.34497 Y4.14908
G1 F300 X3.36402 Y5.13005
;G04 P0 ; dwell for no time -- G64 should not smooth over this point 
G1 F3000 Z3.00000 ; retract 

G1 F3000 X2.53882 Y3.66087 ; rapid move to begin. 
G1 F300 F300.00000
G1 F300 Z-0.07000
;G04 P0 ; dwell for no time -- G64 should not smooth over this point 
G1 F300 F600.00000
G1 F300 X2.53882 Y3.66087
G1 F300 X2.56486 Y4.01408
G1 F300 X2.65940 Y4.35541
G1 F300 X2.79752 Y4.62973
G1 F300 X2.91995 Y4.68599
G1 F300 X3.90092 Y3.70501
G1 F300 X2.91995 Y2.72407
G1 F300 X2.79519 Y2.78139
G1 F300 X2.69392 Y2.97085
G1 F300 X2.58210 Y3.30936
G1 F300 X2.53882 Y3.66087
;G04 P0 ; dwell for no time -- G64 should not smooth over this point 
G1 F3000 Z3.00000 ; retract 

G1 F3000 X0.61792 Y0.80502 ; rapid move to begin. 
G1 F300 F300.00000
G1 F300 Z-0.07000
;G04 P0 ; dwell for no time -- G64 should not smooth over this point 
G1 F300 F600.00000
G1 F300 X0.61792 Y0.80502
G1 F300 X0.63471 Y0.72816
G1 F300 X0.69196 Y0.65701
G1 F300 X0.80497 Y0.61802
G1 F300 X22.34498 Y0.61802
G1 F300 X22.43848 Y0.64401
G1 F300 X22.49875 Y0.69872
G1 F300 X22.53198 Y0.80502
G1 F300 X22.53198 Y27.42501
G1 F300 X22.50348 Y27.52386
G1 F300 X22.44887 Y27.58051
G1 F300 X22.34498 Y27.61203
G1 F300 X0.80497 Y27.61203
G1 F300 X0.71145 Y27.58604
G1 F300 X0.65117 Y27.53133
G1 F300 X0.61792 Y27.42501
G1 F300 X0.61792 Y15.26359
G1 F300 X0.65584 Y15.15112
G1 F300 X0.74777 Y15.08579
G1 F300 X0.84878 Y15.08203
G1 F300 X0.92381 Y15.11927
G1 F300 X1.54995 Y15.74644
G1 F300 X1.60197 Y15.84802
G1 F300 X1.59074 Y15.94954
G1 F300 X1.53496 Y16.03948
G1 F300 X1.43684 Y16.27641
G1 F300 X1.38698 Y16.52716
G1 F300 X1.38698 Y16.78289
G1 F300 X1.43684 Y17.03364
G1 F300 X1.53466 Y17.26986
G1 F300 X1.67698 Y17.48279
G1 F300 X1.81830 Y17.62896
G1 F300 X1.85010 Y17.73470
G1 F300 X1.83400 Y17.80946
G1 F300 X1.78927 Y17.87148
G1 F300 X1.58485 Y17.97072
G1 F300 X1.51665 Y18.02670
G1 F300 X1.46064 Y18.09493
G1 F300 X1.39344 Y18.25718
G1 F300 X1.38391 Y20.03584
G1 F300 X1.41906 Y20.21730
G1 F300 X1.46064 Y20.29512
G1 F300 X1.58485 Y20.41933
G1 F300 X1.74713 Y20.48654
G1 F300 X1.84418 Y20.49609
G1 F300 X3.02221 Y20.49860
G1 F300 X3.10476 Y20.53480
G1 F300 X3.24822 Y20.66142
G1 F300 X3.36079 Y20.72159
G1 F300 X3.48294 Y20.75865
G1 F300 X3.61042 Y20.77120
G1 F300 X8.84999 Y20.76802
G1 F300 X8.94882 Y20.79652
G1 F300 X9.00546 Y20.85113
G1 F300 X9.03698 Y20.95502
G1 F300 X9.03698 Y21.57694
G1 F300 X9.00376 Y21.68326
G1 F300 X8.95387 Y21.73243
G1 F300 X8.88671 Y21.76030
G1 F300 X8.44336 Y21.77818
G1 F300 X8.31316 Y21.81768
G1 F300 X8.19322 Y21.88179
G1 F300 X8.08804 Y21.96812
G1 F300 X8.00175 Y22.07325
G1 F300 X7.93762 Y22.19322
G1 F300 X7.89815 Y22.32342
G1 F300 X7.88392 Y22.46797
G1 F300 X7.88392 Y22.93711
G1 F300 X7.89815 Y23.08168
G1 F300 X7.93762 Y23.21183
G1 F300 X8.00180 Y23.33190
G1 F300 X8.12662 Y23.48722
G1 F300 X8.14793 Y23.56278
G1 F300 X8.12339 Y23.66832
G1 F300 X7.96068 Y23.83992
G1 F300 X7.89345 Y24.00220
G1 F300 X7.88580 Y24.21315
G1 F300 X7.93617 Y24.26352
G1 F300 X8.28385 Y24.26352
G1 F300 X8.32969 Y24.16027
G1 F300 X8.40526 Y24.08470
G1 F300 X8.46805 Y24.05115
G1 F300 X8.57285 Y24.03030
G1 F300 X9.54468 Y24.03500
G1 F300 X9.61280 Y24.05565
G1 F300 X9.70165 Y24.11503
G1 F300 X9.74683 Y24.17005
G1 F300 X9.78613 Y24.26352
G1 F300 X10.18885 Y24.26352
G1 F300 X10.22814 Y24.17005
G1 F300 X10.27333 Y24.11503
G1 F300 X10.36218 Y24.05565
G1 F300 X10.43030 Y24.03500
G1 F300 X11.39623 Y24.03002
G1 F300 X11.50693 Y24.05115
G1 F300 X11.56972 Y24.08470
G1 F300 X11.64528 Y24.16027
G1 F300 X11.69113 Y24.26352
G1 F300 X12.03878 Y24.26352
G1 F300 X12.08917 Y24.21315
G1 F300 X12.08150 Y24.00223
G1 F300 X12.05587 Y23.91775
G1 F300 X11.95788 Y23.77122
G1 F300 X11.86847 Y23.69321
G1 F300 X11.82732 Y23.58178
G1 F300 X11.84975 Y23.48465
G1 F300 X11.97314 Y23.33190
G1 F300 X12.03733 Y23.21181
G1 F300 X12.07680 Y23.08166
G1 F300 X12.09105 Y22.93711
G1 F300 X12.09105 Y22.46797
G1 F300 X12.07680 Y22.32342
G1 F300 X12.03733 Y22.19322
G1 F300 X11.97320 Y22.07328
G1 F300 X11.88691 Y21.96812
G1 F300 X11.69593 Y21.82926
G1 F300 X11.64406 Y21.75354
G1 F300 X11.63299 Y21.68918
G1 F300 X11.64675 Y21.48824
G1 F300 X11.69908 Y21.41572
G1 F300 X11.76707 Y21.37897
G1 F300 X11.87101 Y21.36802
G1 F300 X20.15454 Y21.37120
G1 F300 X20.28202 Y21.35867
G1 F300 X20.40414 Y21.32162
G1 F300 X20.51671 Y21.26144
G1 F300 X20.61575 Y21.18014
G1 F300 X21.54011 Y20.25581
G1 F300 X21.62136 Y20.15677
G1 F300 X21.68156 Y20.04422
G1 F300 X21.71859 Y19.92208
G1 F300 X21.73114 Y19.79457
G1 F300 X21.73114 Y7.74547
G1 F300 X21.71859 Y7.61801
G1 F300 X21.68156 Y7.49586
G1 F300 X21.62136 Y7.38326
G1 F300 X21.54011 Y7.28425
G1 F300 X21.15657 Y6.90518
G1 F300 X21.11603 Y6.84453
G1 F300 X21.10178 Y6.77346
G1 F300 X21.12797 Y6.62337
G1 F300 X21.12797 Y6.36719
G1 F300 X21.07808 Y6.11644
G1 F300 X20.98024 Y5.88019
G1 F300 X20.83797 Y5.66726
G1 F300 X20.69662 Y5.52109
G1 F300 X20.66853 Y5.45360
G1 F300 X20.67201 Y5.36516
G1 F300 X20.70765 Y5.29749
G1 F300 X20.76741 Y5.24979
G1 F300 X20.93007 Y5.17933
G1 F300 X20.99830 Y5.12332
G1 F300 X21.09589 Y4.97730
G1 F300 X21.13099 Y4.79635
G1 F300 X21.12840 Y4.31865
G1 F300 X21.07877 Y4.26902
G1 F300 X20.73998 Y4.26902
G1 F300 X20.73998 Y4.80501
G1 F300 X20.72987 Y4.83834
G1 F300 X20.69169 Y4.86386
G1 F300 X18.97999 Y4.86501
G1 F300 X18.94666 Y4.85490
G1 F300 X18.92114 Y4.81672
G1 F300 X18.91999 Y4.26902
G1 F300 X18.58118 Y4.26902
G1 F300 X18.53155 Y4.31865
G1 F300 X18.52896 Y4.79635
G1 F300 X18.56406 Y4.97730
G1 F300 X18.66168 Y5.12335
G1 F300 X18.72988 Y5.17933
G1 F300 X18.89254 Y5.24979
G1 F300 X18.95230 Y5.29749
G1 F300 X18.99464 Y5.40300
G1 F300 X18.97994 Y5.49030
G1 F300 X18.82162 Y5.66762
G1 F300 X18.73376 Y5.79261
G1 F300 X18.67344 Y5.83277
G1 F300 X18.60191 Y5.84702
G1 F300 X17.95665 Y5.84585
G1 F300 X17.89678 Y5.83277
G1 F300 X17.83600 Y5.79213
G1 F300 X17.20991 Y5.16259
G1 F300 X17.17806 Y5.09747
G1 F300 X17.15680 Y4.51339
G1 F300 X17.11733 Y4.38322
G1 F300 X17.05314 Y4.26315
G1 F300 X16.92833 Y4.10783
G1 F300 X16.90730 Y4.03813
G1 F300 X16.91451 Y3.96562
G1 F300 X16.94235 Y3.91111
G1 F300 X17.09427 Y3.75513
G1 F300 X17.16150 Y3.59285
G1 F300 X17.16917 Y3.38190
G1 F300 X17.11878 Y3.33153
G1 F300 X16.77110 Y3.33153
G1 F300 X16.73183 Y3.42498
G1 F300 X16.68665 Y3.47999
G1 F300 X16.59780 Y3.53938
G1 F300 X16.52968 Y3.56003
G1 F300 X15.56374 Y3.56501
G1 F300 X15.45305 Y3.54388
G1 F300 X15.39026 Y3.51032
G1 F300 X15.31469 Y3.43476
G1 F300 X15.26887 Y3.33153
G1 F300 X14.92117 Y3.33153
G1 F300 X14.87080 Y3.38190
G1 F300 X14.87845 Y3.59285
G1 F300 X14.94568 Y3.75513
G1 F300 X15.09760 Y3.91111
G1 F300 X15.12544 Y3.96562
G1 F300 X15.13265 Y4.03813
G1 F300 X15.10857 Y4.11296
G1 F300 X14.98660 Y4.26351
G1 F300 X14.86389 Y4.53455
G1 F300 X14.81332 Y4.57974
G1 F300 X14.74997 Y4.60394
G1 F300 X11.40596 Y4.60679
G1 F300 X11.31221 Y4.57847
G1 F300 X11.14673 Y4.43430
G1 F300 X11.02677 Y4.37016
G1 F300 X10.89659 Y4.33069
G1 F300 X10.75201 Y4.31647
G1 F300 X9.85793 Y4.31647
G1 F300 X9.71336 Y4.33069
G1 F300 X9.58318 Y4.37016
G1 F300 X9.46319 Y4.43432
G1 F300 X9.29774 Y4.57847
G1 F300 X9.23162 Y4.60412
G1 F300 X7.15543 Y4.60387
G1 F300 X7.02792 Y4.61639
G1 F300 X6.90579 Y4.65345
G1 F300 X6.79322 Y4.71362
G1 F300 X6.69419 Y4.79493
G1 F300 X0.92389 Y10.57073
G1 F300 X0.84883 Y10.60802
G1 F300 X0.74784 Y10.60431
G1 F300 X0.65584 Y10.53898
G1 F300 X0.61792 Y10.42646
G1 F300 X0.61792 Y0.80502
;G04 P0 ; dwell for no time -- G64 should not smooth over this point 
G1 F3000 Z3.00000 ; retract 

G1 F3000 X3.36402 Y2.28000 ; rapid move to begin. 
G1 F300 F300.00000
G1 F300 Z-0.07000
;G04 P0 ; dwell for no time -- G64 should not smooth over this point 
G1 F300 F600.00000
G1 F300 X3.36402 Y2.28000
G1 F300 X4.34499 Y3.26097
G1 F300 X5.32594 Y2.28000
G1 F300 X5.26861 Y2.15526
G1 F300 X5.07915 Y2.05399
G1 F300 X4.74067 Y1.94220
G1 F300 X4.38911 Y1.89887
G1 F300 X4.03592 Y1.92496
G1 F300 X3.69457 Y2.01944
G1 F300 X3.42028 Y2.15757
G1 F300 X3.36402 Y2.28000
;G04 P0 ; dwell for no time -- G64 should not smooth over this point 
G1 F3000 Z3.00000 ; retract 

G1 F3000 X4.78903 Y3.70504 ; rapid move to begin. 
G1 F300 F300.00000
G1 F300 Z-0.07000
;G04 P0 ; dwell for no time -- G64 should not smooth over this point 
G1 F300 F600.00000
G1 F300 X4.78903 Y3.70504
G1 F300 X5.77001 Y4.68599
G1 F300 X5.89477 Y4.62866
G1 F300 X5.99602 Y4.43923
G1 F300 X6.10780 Y4.10069
G1 F300 X6.15113 Y3.74918
G1 F300 X6.12505 Y3.39597
G1 F300 X6.03056 Y3.05465
G1 F300 X5.89244 Y2.78033
G1 F300 X5.77001 Y2.72407
G1 F300 X4.78903 Y3.70504
;G04 P0 ; dwell for no time -- G64 should not smooth over this point 
G1 F3000 Z3.00000 ; retract 

G1 F3000 X9.54498 Y6.88626 ; rapid move to begin. 
G1 F300 F300.00000
G1 F300 Z-0.07000
;G04 P0 ; dwell for no time -- G64 should not smooth over this point 
G1 F300 F600.00000
G1 F300 X9.54498 Y6.88626
G1 F300 X9.57064 Y6.76470
G1 F300 X9.63833 Y6.66752
G1 F300 X9.73805 Y6.60366
G1 F300 X9.84874 Y6.58250
G1 F300 X10.82621 Y6.58977
G1 F300 X10.92494 Y6.63069
G1 F300 X10.97998 Y6.67585
G1 F300 X11.03934 Y6.76470
G1 F300 X11.06001 Y6.83282
G1 F300 X11.06469 Y7.37963
G1 F300 X11.05773 Y7.43874
G1 F300 X11.01683 Y7.53747
G1 F300 X10.97165 Y7.59251
G1 F300 X10.87193 Y7.65636
G1 F300 X10.76713 Y7.67722
G1 F300 X10.59499 Y7.67752
G1 F300 X10.59499 Y13.07149
G1 F300 X10.61999 Y13.12001
G1 F300 X10.61999 Y14.17002
G1 F300 X10.60988 Y14.20334
G1 F300 X10.57170 Y14.22887
G1 F300 X10.10998 Y14.23001
G1 F300 X10.07665 Y14.21990
G1 F300 X10.05115 Y14.18173
G1 F300 X10.04998 Y13.12001
G1 F300 X10.07498 Y13.07149
G1 F300 X10.07498 Y7.67752
G1 F300 X9.78377 Y7.67026
G1 F300 X9.67526 Y7.62281
G1 F300 X9.59314 Y7.53747
G1 F300 X9.55225 Y7.43874
G1 F300 X9.54529 Y7.37963
G1 F300 X9.54498 Y6.88626
;G04 P0 ; dwell for no time -- G64 should not smooth over this point 
G1 F3000 Z3.00000 ; retract 

G1 F3000 X14.86905 Y2.53778 ; rapid move to begin. 
G1 F300 F300.00000
G1 F300 Z-0.07000
;G04 P0 ; dwell for no time -- G64 should not smooth over this point 
G1 F300 F600.00000
G1 F300 X14.86905 Y2.53778
G1 F300 X14.87845 Y2.44218
G1 F300 X14.94568 Y2.27992
G1 F300 X15.06989 Y2.15571
G1 F300 X15.14771 Y2.11411
G1 F300 X15.32848 Y2.07901
G1 F300 X15.65620 Y2.08145
G1 F300 X15.70598 Y2.13123
G1 F300 X15.70598 Y2.47001
G1 F300 X15.55785 Y2.47029
G1 F300 X15.44218 Y2.49564
G1 F300 X15.34500 Y2.56333
G1 F300 X15.30814 Y2.61007
G1 F300 X15.26885 Y2.70352
G1 F300 X14.92117 Y2.70352
G1 F300 X14.87080 Y2.65315
G1 F300 X14.86905 Y2.53778
;G04 P0 ; dwell for no time -- G64 should not smooth over this point 
G1 F3000 Z3.00000 ; retract 

G1 F3000 X16.33399 Y2.13123 ; rapid move to begin. 
G1 F300 F300.00000
G1 F300 Z-0.07000
;G04 P0 ; dwell for no time -- G64 should not smooth over this point 
G1 F300 F600.00000
G1 F300 X16.33399 Y2.13123
G1 F300 X16.38378 Y2.08145
G1 F300 X16.71146 Y2.07901
G1 F300 X16.80778 Y2.08851
G1 F300 X16.97006 Y2.15571
G1 F300 X17.09427 Y2.27992
G1 F300 X17.13587 Y2.35777
G1 F300 X17.16150 Y2.44223
G1 F300 X17.16917 Y2.65315
G1 F300 X17.11878 Y2.70352
G1 F300 X16.77113 Y2.70352
G1 F300 X16.73183 Y2.61007
G1 F300 X16.69498 Y2.56333
G1 F300 X16.59780 Y2.49564
G1 F300 X16.48213 Y2.47029
G1 F300 X16.33399 Y2.47001
G1 F300 X16.33399 Y2.13123
;G04 P0 ; dwell for no time -- G64 should not smooth over this point 
G1 F3000 Z3.00000 ; retract 

G1 F3000 X18.52896 Y3.11370 ; rapid move to begin. 
G1 F300 F300.00000
G1 F300 Z-0.07000
;G04 P0 ; dwell for no time -- G64 should not smooth over this point 
G1 F300 F600.00000
G1 F300 X18.52896 Y3.11370
G1 F300 X18.53155 Y3.59137
G1 F300 X18.58118 Y3.64101
G1 F300 X18.91999 Y3.64101
G1 F300 X18.93010 Y3.07169
G1 F300 X18.97999 Y3.04502
G1 F300 X19.51598 Y3.04502
G1 F300 X19.51598 Y2.70623
G1 F300 X19.46635 Y2.65660
G1 F300 X18.98868 Y2.65401
G1 F300 X18.80770 Y2.68911
G1 F300 X18.72988 Y2.73072
G1 F300 X18.60567 Y2.85493
G1 F300 X18.53846 Y3.01718
G1 F300 X18.52896 Y3.11370
;G04 P0 ; dwell for no time -- G64 should not smooth over this point 
G1 F3000 Z3.00000 ; retract 

G1 F3000 X20.14399 Y2.70623 ; rapid move to begin. 
G1 F300 F300.00000
G1 F300 Z-0.07000
;G04 P0 ; dwell for no time -- G64 should not smooth over this point 
G1 F300 F600.00000
G1 F300 X20.14399 Y2.70623
G1 F300 X20.14399 Y3.04502
G1 F300 X20.67999 Y3.04502
G1 F300 X20.72987 Y3.07169
G1 F300 X20.73998 Y3.64101
G1 F300 X21.07877 Y3.64101
G1 F300 X21.12840 Y3.59137
G1 F300 X21.12149 Y3.01721
G1 F300 X21.09589 Y2.93275
G1 F300 X20.99827 Y2.78670
G1 F300 X20.85222 Y2.68911
G1 F300 X20.67127 Y2.65401
G1 F300 X20.19363 Y2.65660
G1 F300 X20.14399 Y2.70623

;G04 P0 ; dwell for no time -- G64 should not smooth over this point 
G1 F3000 Z3.000 ; retract 

;M5 ; Spindle off. 
;G04 P1.000000
;M9 ; Coolant off. 
M0 ; Program end. 

