; pcb2gcode 2.0.0 
; Software-independent Gcode 

; This file uses only one drill bit. Forced by 'onedrill' option 

G94       ;Millimeters per minute feed rate.
G21       ;Units == Millimeters.
G90       ;Absolute coordinates.
;G1 F3000 S10000     ;RPM spindle speed.

G1 F3000 Z3.00000 ;Retract
;T1
;M5      ;Spindle stop.
;G04 P1.00000
;MSG, Change tool bit to drill size 0.8001 mm
;M6      ;Tool change.
;M0      ;Temporary machine stop.
;M3      ;Spindle on clockwise.
G1 F3000 Z3.00000
;G04 P1.00000

;F1000.00000
G1 F3000 X2.95170 Y3.45970
G1 F300 Z-2.50000
G1 F300 Z3.00000
G1 F3000 X2.95170 Y5.99970
G1 F300 Z-2.50000
G1 F300 Z3.00000
G1 F3000 X7.01570 Y3.37080
G1 F300 Z-2.50000
G1 F300 Z3.00000
G1 F3000 X9.55570 Y3.37080
G1 F300 Z-2.50000
G1 F300 Z3.00000
G1 F3000 X12.09570 Y3.37080
G1 F300 Z-2.50000
G1 F300 Z3.00000
G1 F3000 X14.63570 Y3.37080
G1 F300 Z-2.50000
G1 F300 Z3.00000
G1 F3000 X17.17570 Y3.37080
G1 F300 Z-2.50000
G1 F300 Z3.00000
G1 F3000 X18.43300 Y5.88540
G1 F300 Z-2.50000
G1 F300 Z3.00000
G1 F3000 X22.68750 Y11.42260
G1 F300 Z-2.50000
G1 F300 Z3.00000
G1 F3000 X27.45000 Y11.28290
G1 F300 Z-2.50000
G1 F300 Z3.00000
G1 F3000 X27.24680 Y7.29510
G1 F300 Z-2.50000
G1 F300 Z3.00000
G1 F3000 X24.70680 Y3.25650
G1 F300 Z-2.50000
G1 F300 Z3.00000
G1 F3000 X27.24680 Y3.25650
G1 F300 Z-2.50000
G1 F300 Z3.00000
G1 F3000 X29.78680 Y3.25650
G1 F300 Z-2.50000
G1 F300 Z3.00000
G1 F3000 X33.90160 Y3.25650
G1 F300 Z-2.50000
G1 F300 Z3.00000
G1 F3000 X38.27040 Y12.14650
G1 F300 Z-2.50000
G1 F300 Z3.00000
G1 F3000 X44.97600 Y17.75990
G1 F300 Z-2.50000
G1 F300 Z3.00000
G1 F3000 X40.46750 Y24.41470
G1 F300 Z-2.50000
G1 F300 Z3.00000
G1 F3000 X44.78550 Y26.31970
G1 F300 Z-2.50000
G1 F300 Z3.00000
G1 F3000 X49.33210 Y29.12640
G1 F300 Z-2.50000
G1 F300 Z3.00000
G1 F3000 X40.69610 Y32.58080
G1 F300 Z-2.50000
G1 F300 Z3.00000
G1 F3000 X38.15610 Y32.58080
G1 F300 Z-2.50000
G1 F300 Z3.00000
G1 F3000 X38.65140 Y28.54220
G1 F300 Z-2.50000
G1 F300 Z3.00000
G1 F3000 X35.61610 Y32.58080
G1 F300 Z-2.50000
G1 F300 Z3.00000
G1 F3000 X33.07610 Y32.58080
G1 F300 Z-2.50000
G1 F300 Z3.00000
G1 F3000 X30.53610 Y32.58080
G1 F300 Z-2.50000
G1 F300 Z3.00000
G1 F3000 X25.57040 Y35.46370
G1 F300 Z-2.50000
G1 F300 Z3.00000
G1 F3000 X23.93210 Y29.22800
G1 F300 Z-2.50000
G1 F300 Z3.00000
G1 F3000 X20.13480 Y25.54500
G1 F300 Z-2.50000
G1 F300 Z3.00000
G1 F3000 X9.39060 Y28.98670
G1 F300 Z-2.50000
G1 F300 Z3.00000
G1 F3000 X11.24480 Y32.47158
G1 F300 Z-2.50000
G1 F300 Z3.00000
G1 F3000 X11.24480 Y35.97170
G1 F300 Z-2.50000
G1 F300 Z3.00000
G1 F3000 X5.58060 Y36.65750
G1 F300 Z-2.50000
G1 F300 Z3.00000
G1 F3000 X3.04060 Y36.65750
G1 F300 Z-2.50000
G1 F300 Z3.00000
G1 F3000 X2.06270 Y33.49520
G1 F300 Z-2.50000
G1 F300 Z3.00000
G1 F3000 X13.08630 Y12.97200
G1 F300 Z-2.50000
G1 F300 Z3.00000

G1 F3000 Z3.000 ; All done -- retract 

;M5      ;Spindle off.
;G04 P1.000000
;M9      ;Coolant off.
M0      ;Program end.

