; pcb2gcode 2.0.0 
; Software-independent Gcode 

G94 ; Millimeters per minute feed rate. 
G21 ; Units == Millimeters. 

G90 ; Absolute coordinates. 
;G1 F3000 S10000 ; RPM spindle speed. 
G1 F300 F600.00000 ; Feedrate. 


G1 F3000 Z3.00000 ;Retract to tool change height
;T0
;M5      ;Spindle stop.
;G04 P1.00000 ;Wait for spindle to stop
;MSG, Change tool bit to mill diameter 0.12000mm
;M6      ;Tool change.
;M0      ;Temporary machine stop.
;M3 ; Spindle on clockwise. 
;G04 P1.00000 ;Wait for spindle to get up to speed
;G04 P0 ; dwell for no time -- G64 should not smooth over this point 
G1 F3000 Z3.00000 ; retract 

G1 F3000 X0.31185 Y38.71012 ; rapid move to begin. 
G1 F300 F300.00000
G1 F300 Z-0.07000
;G04 P0 ; dwell for no time -- G64 should not smooth over this point 
G1 F300 F600.00000
G1 F300 X0.31185 Y38.71012
G1 F300 X0.34551 Y28.43026
G1 F300 X0.36382 Y28.35084
G1 F300 X0.40670 Y28.28830
G1 F300 X0.90278 Y27.79221
G1 F300 X0.97647 Y27.74472
G1 F300 X1.05127 Y27.73072
G1 F300 X3.44898 Y27.73072
G1 F300 X3.45625 Y27.63199
G1 F300 X3.50369 Y27.52348
G1 F300 X3.57926 Y27.44792
G1 F300 X3.68777 Y27.40047
G1 F300 X4.15673 Y27.38345
G1 F300 X4.71868 Y27.39818
G1 F300 X4.78680 Y27.41886
G1 F300 X4.87565 Y27.47822
G1 F300 X4.94786 Y27.58627
G1 F300 X4.96899 Y27.69696
G1 F300 X4.96899 Y28.18447
G1 F300 X4.94786 Y28.29516
G1 F300 X4.91428 Y28.35795
G1 F300 X4.83872 Y28.43351
G1 F300 X4.76899 Y28.46907
G1 F300 X4.76899 Y29.42228
G1 F300 X4.86348 Y29.50928
G1 F300 X4.91322 Y29.62932
G1 F300 X4.91322 Y30.22371
G1 F300 X4.87003 Y30.33397
G1 F300 X4.82485 Y30.38901
G1 F300 X4.73600 Y30.44837
G1 F300 X4.62033 Y30.47372
G1 F300 X4.12889 Y30.48576
G1 F300 X3.64850 Y30.46904
G1 F300 X3.52846 Y30.41931
G1 F300 X3.48320 Y30.38068
G1 F300 X3.42384 Y30.29183
G1 F300 X3.39818 Y30.17026
G1 F300 X3.40545 Y29.61779
G1 F300 X3.44634 Y29.51906
G1 F300 X3.49153 Y29.46402
G1 F300 X3.58038 Y29.40466
G1 F300 X3.64898 Y29.38396
G1 F300 X3.64898 Y28.46907
G1 F300 X3.57926 Y28.43351
G1 F300 X3.49714 Y28.34817
G1 F300 X3.45625 Y28.24944
G1 F300 X3.44898 Y28.15071
G1 F300 X1.13827 Y28.15071
G1 F300 X0.76491 Y28.52406
G1 F300 X0.73215 Y38.61922
G1 F300 X16.84740 Y38.61922
G1 F300 X25.28219 Y30.18441
G1 F300 X25.35587 Y30.13691
G1 F300 X25.43070 Y30.12292
G1 F300 X41.61639 Y30.12292
G1 F300 X41.61639 Y22.97261
G1 F300 X39.02712 Y22.97261
G1 F300 X38.98196 Y23.00188
G1 F300 X38.92539 Y23.01262
G1 F300 X37.61538 Y23.01262
G1 F300 X37.52687 Y22.98481
G1 F300 X37.47469 Y22.92225
G1 F300 X37.46039 Y22.85760
G1 F300 X37.46039 Y22.66761
G1 F300 X37.47218 Y22.60830
G1 F300 X37.50578 Y22.55801
G1 F300 X37.60368 Y22.51376
G1 F300 X38.92539 Y22.51262
G1 F300 X38.98196 Y22.52334
G1 F300 X39.02712 Y22.55263
G1 F300 X41.79305 Y22.55291
G1 F300 X41.90852 Y22.59149
G1 F300 X41.99493 Y22.67747
G1 F300 X42.02239 Y22.72697
G1 F300 X42.03638 Y22.80180
G1 F300 X42.03638 Y30.26940
G1 F300 X41.99973 Y30.38792
G1 F300 X41.90702 Y30.48535
G1 F300 X41.83770 Y30.52891
G1 F300 X41.76290 Y30.54291
G1 F300 X25.51767 Y30.54291
G1 F300 X17.08289 Y38.97771
G1 F300 X16.96953 Y39.03603
G1 F300 X0.64030 Y39.03921
G1 F300 X0.55460 Y39.02072
G1 F300 X0.49118 Y38.97708
G1 F300 X0.34858 Y38.82940
G1 F300 X0.31185 Y38.71012
;G04 P0 ; dwell for no time -- G64 should not smooth over this point 
G1 F3000 Z3.00000 ; retract 

G1 F3000 X1.80265 Y36.28610 ; rapid move to begin. 
G1 F300 F300.00000
G1 F300 Z-0.07000
;G04 P0 ; dwell for no time -- G64 should not smooth over this point 
G1 F300 F600.00000
G1 F300 X1.80265 Y36.28610
G1 F300 X1.82219 Y36.23106
G1 F300 X1.93463 Y36.34351
G1 F300 X1.83278 Y36.34351
G1 F300 X1.80265 Y36.28610
;G04 P0 ; dwell for no time -- G64 should not smooth over this point 
G1 F3000 Z3.00000 ; retract 

G1 F3000 X1.00301 Y33.48895 ; rapid move to begin. 
G1 F300 F300.00000
G1 F300 Z-0.07000
;G04 P0 ; dwell for no time -- G64 should not smooth over this point 
G1 F300 F600.00000
G1 F300 X1.00301 Y33.48895
G1 F300 X1.02585 Y33.71560
G1 F300 X1.09432 Y33.92636
G1 F300 X1.13514 Y33.99771
G1 F300 X1.13070 Y38.10047
G1 F300 X1.20034 Y38.19638
G1 F300 X1.29953 Y38.23047
G1 F300 X2.51523 Y38.23123
G1 F300 X2.58477 Y38.21757
G1 F300 X2.64875 Y38.17482
G1 F300 X2.69008 Y38.10990
G1 F300 X2.70171 Y38.03382
G1 F300 X2.67570 Y37.94866
G1 F300 X2.62640 Y37.89392
G1 F300 X2.37093 Y37.76845
G1 F300 X2.16687 Y37.61622
G1 F300 X1.99663 Y37.42737
G1 F300 X1.86651 Y37.20891
G1 F300 X1.80265 Y37.02892
G1 F300 X1.83278 Y36.97152
G1 F300 X2.19067 Y36.97152
G1 F300 X2.30834 Y37.19728
G1 F300 X2.43169 Y37.33377
G1 F300 X2.58033 Y37.44218
G1 F300 X2.76544 Y37.52461
G1 F300 X2.95175 Y37.56286
G1 F300 X3.14192 Y37.56154
G1 F300 X3.32180 Y37.52298
G1 F300 X3.49000 Y37.44846
G1 F300 X3.65393 Y37.32933
G1 F300 X3.78022 Y37.18714
G1 F300 X3.87192 Y37.02765
G1 F300 X3.93069 Y36.84670
G1 F300 X3.95025 Y36.66377
G1 F300 X3.93069 Y36.46832
G1 F300 X3.87192 Y36.28737
G1 F300 X3.78022 Y36.12788
G1 F300 X3.64949 Y35.98125
G1 F300 X3.49000 Y35.86657
G1 F300 X3.32180 Y35.79205
G1 F300 X3.12942 Y35.75217
G1 F300 X2.93039 Y35.75537
G1 F300 X2.62269 Y35.44765
G1 F300 X2.62269 Y35.42994
G1 F300 X2.66478 Y35.41719
G1 F300 X2.85927 Y35.51628
G1 F300 X2.98109 Y35.51153
G1 F300 X3.06940 Y35.44036
G1 F300 X3.09877 Y35.34325
G1 F300 X3.15541 Y35.30475
G1 F300 X3.19595 Y35.24409
G1 F300 X3.21020 Y35.17251
G1 F300 X3.20994 Y32.59640
G1 F300 X3.18614 Y32.50988
G1 F300 X3.06082 Y32.31085
G1 F300 X3.02135 Y32.18067
G1 F300 X3.00712 Y32.03610
G1 F300 X3.00712 Y31.56696
G1 F300 X3.02135 Y31.42238
G1 F300 X3.06082 Y31.29221
G1 F300 X3.12493 Y31.17227
G1 F300 X3.21162 Y31.06663
G1 F300 X3.31502 Y30.97288
G1 F300 X3.34289 Y30.91832
G1 F300 X3.35000 Y30.84570
G1 F300 X3.31200 Y30.75012
G1 F300 X3.21162 Y30.66142
G1 F300 X3.12493 Y30.55578
G1 F300 X3.06084 Y30.43585
G1 F300 X3.02135 Y30.30567
G1 F300 X3.00712 Y30.16109
G1 F300 X3.00712 Y29.69196
G1 F300 X3.02135 Y29.54738
G1 F300 X3.06082 Y29.41720
G1 F300 X3.12493 Y29.29727
G1 F300 X3.23394 Y29.16117
G1 F300 X3.25912 Y29.08632
G1 F300 X3.25820 Y28.70875
G1 F300 X3.23664 Y28.64852
G1 F300 X3.19043 Y28.59102
G1 F300 X3.12638 Y28.55028
G1 F300 X3.06155 Y28.53872
G1 F300 X1.35158 Y28.54116
G1 F300 X1.26481 Y28.57639
G1 F300 X1.16649 Y28.69117
G1 F300 X1.15214 Y28.76242
G1 F300 X1.13842 Y32.98702
G1 F300 X1.09432 Y33.06406
G1 F300 X1.02747 Y33.26876
G1 F300 X1.00301 Y33.48895
;G04 P0 ; dwell for no time -- G64 should not smooth over this point 
G1 F3000 Z3.00000 ; retract 

G1 F3000 X3.39818 Y31.55776 ; rapid move to begin. 
G1 F300 F300.00000
G1 F300 Z-0.07000
;G04 P0 ; dwell for no time -- G64 should not smooth over this point 
G1 F300 F600.00000
G1 F300 X3.39818 Y31.55776
G1 F300 X3.40545 Y32.11024
G1 F300 X3.44634 Y32.20897
G1 F300 X3.48320 Y32.25568
G1 F300 X3.59818 Y32.32987
G1 F300 X3.59818 Y35.23513
G1 F300 X3.61037 Y35.35009
G1 F300 X3.68954 Y35.54117
G1 F300 X3.75825 Y35.62672
G1 F300 X4.67059 Y36.53947
G1 F300 X4.67059 Y37.50751
G1 F300 X4.68070 Y37.54084
G1 F300 X4.70763 Y37.56293
G1 F300 X6.44230 Y37.56636
G1 F300 X6.47300 Y37.54993
G1 F300 X6.48944 Y37.51922
G1 F300 X6.49058 Y37.21752
G1 F300 X10.66240 Y37.20761
G1 F300 X10.76774 Y37.17688
G1 F300 X10.87482 Y37.11963
G1 F300 X11.18186 Y36.82659
G1 F300 X11.33454 Y36.82702
G1 F300 X11.51640 Y36.78737
G1 F300 X11.68005 Y36.71308
G1 F300 X11.82024 Y36.61081
G1 F300 X11.89192 Y36.53172
G1 F300 X17.63470 Y36.52181
G1 F300 X17.75091 Y36.48656
G1 F300 X17.84712 Y36.43383
G1 F300 X17.93122 Y36.36332
G1 F300 X17.99993 Y36.27777
G1 F300 X18.05065 Y36.18046
G1 F300 X18.09099 Y35.97759
G1 F300 X18.09129 Y30.59302
G1 F300 X18.08139 Y30.48959
G1 F300 X18.05065 Y30.38426
G1 F300 X17.99340 Y30.27717
G1 F300 X17.60712 Y29.87692
G1 F300 X20.56660 Y29.87692
G1 F300 X20.67000 Y29.86701
G1 F300 X20.77534 Y29.83628
G1 F300 X20.88242 Y29.77903
G1 F300 X23.83276 Y26.84269
G1 F300 X23.90543 Y26.75277
G1 F300 X23.98460 Y26.56169
G1 F300 X23.99679 Y26.44670
G1 F300 X23.99679 Y24.92262
G1 F300 X24.51368 Y24.92262
G1 F300 X24.55882 Y24.95188
G1 F300 X24.61539 Y24.96260
G1 F300 X25.92539 Y24.96260
G1 F300 X25.98196 Y24.95188
G1 F300 X26.02709 Y24.92262
G1 F300 X37.51368 Y24.92262
G1 F300 X37.55882 Y24.95188
G1 F300 X37.61538 Y24.96260
G1 F300 X38.92539 Y24.96260
G1 F300 X38.99509 Y24.94528
G1 F300 X39.06740 Y24.86961
G1 F300 X39.07924 Y24.60591
G1 F300 X39.06608 Y24.55298
G1 F300 X39.02059 Y24.49621
G1 F300 X38.92539 Y24.46260
G1 F300 X37.61538 Y24.46260
G1 F300 X37.55882 Y24.47335
G1 F300 X37.51363 Y24.50263
G1 F300 X26.02714 Y24.50263
G1 F300 X25.98196 Y24.47335
G1 F300 X25.92539 Y24.46260
G1 F300 X24.61539 Y24.46260
G1 F300 X24.55882 Y24.47335
G1 F300 X24.51363 Y24.50263
G1 F300 X23.82082 Y24.50263
G1 F300 X23.72204 Y24.42737
G1 F300 X23.60378 Y24.37469
G1 F300 X23.48905 Y24.35166
G1 F300 X23.38453 Y24.35166
G1 F300 X23.26979 Y24.37469
G1 F300 X23.16238 Y24.42110
G1 F300 X23.05763 Y24.49720
G1 F300 X22.98031 Y24.58503
G1 F300 X22.92806 Y24.67556
G1 F300 X22.88902 Y24.79250
G1 F300 X22.87678 Y24.90891
G1 F300 X22.87678 Y26.21475
G1 F300 X20.33462 Y28.75691
G1 F300 X17.51517 Y28.75691
G1 F300 X17.50527 Y28.21020
G1 F300 X17.47453 Y28.10486
G1 F300 X17.41728 Y27.99778
G1 F300 X15.55960 Y26.12608
G1 F300 X15.55231 Y25.84929
G1 F300 X15.53395 Y25.79270
G1 F300 X15.47459 Y25.70385
G1 F300 X15.37741 Y25.63616
G1 F300 X15.26171 Y25.61081
G1 F300 X14.76834 Y25.61051
G1 F300 X14.64677 Y25.63616
G1 F300 X14.55793 Y25.69552
G1 F300 X14.51929 Y25.74078
G1 F300 X14.46956 Y25.86082
G1 F300 X14.45282 Y26.34749
G1 F300 X14.46489 Y26.83265
G1 F300 X14.49023 Y26.94832
G1 F300 X14.55793 Y27.04551
G1 F300 X14.65765 Y27.10939
G1 F300 X14.76245 Y27.13021
G1 F300 X14.98010 Y27.13052
G1 F300 X16.39516 Y28.54558
G1 F300 X16.39516 Y30.01692
G1 F300 X16.40735 Y30.13191
G1 F300 X16.44032 Y30.23656
G1 F300 X16.49305 Y30.33280
G1 F300 X16.97128 Y30.82500
G1 F300 X16.97128 Y35.41171
G1 F300 X11.89192 Y35.41171
G1 F300 X11.82024 Y35.33261
G1 F300 X11.68005 Y35.23035
G1 F300 X11.51640 Y35.15606
G1 F300 X11.33469 Y35.11643
G1 F300 X11.15488 Y35.11643
G1 F300 X10.97904 Y35.15379
G1 F300 X10.82039 Y35.22408
G1 F300 X10.66934 Y35.33261
G1 F300 X10.55298 Y35.46134
G1 F300 X10.45913 Y35.62192
G1 F300 X10.40520 Y35.78684
G1 F300 X10.39095 Y36.03357
G1 F300 X10.32702 Y36.09751
G1 F300 X6.49058 Y36.09751
G1 F300 X6.49058 Y35.80751
G1 F300 X6.46391 Y35.75763
G1 F300 X5.46254 Y35.74752
G1 F300 X4.71819 Y35.00315
G1 F300 X4.71819 Y32.32987
G1 F300 X4.83318 Y32.25568
G1 F300 X4.89254 Y32.16683
G1 F300 X4.91322 Y32.09871
G1 F300 X4.91789 Y31.55187
G1 F300 X4.89706 Y31.44707
G1 F300 X4.86348 Y31.38428
G1 F300 X4.77814 Y31.30219
G1 F300 X4.66788 Y31.25898
G1 F300 X4.21045 Y31.24425
G1 F300 X3.64850 Y31.25898
G1 F300 X3.58038 Y31.27966
G1 F300 X3.48320 Y31.34735
G1 F300 X3.41931 Y31.44707
G1 F300 X3.39818 Y31.55776
;G04 P0 ; dwell for no time -- G64 should not smooth over this point 
G1 F3000 Z3.00000 ; retract 

G1 F3000 X4.96633 Y30.84570 ; rapid move to begin. 
G1 F300 F300.00000
G1 F300 Z-0.07000
;G04 P0 ; dwell for no time -- G64 should not smooth over this point 
G1 F300 F600.00000
G1 F300 X4.96633 Y30.84570
G1 F300 X4.97346 Y30.91832
G1 F300 X5.00133 Y30.97288
G1 F300 X5.10471 Y31.06663
G1 F300 X5.19142 Y31.17227
G1 F300 X5.25553 Y31.29221
G1 F300 X5.29500 Y31.42241
G1 F300 X5.30925 Y31.56698
G1 F300 X5.30925 Y32.03607
G1 F300 X5.29500 Y32.18065
G1 F300 X5.25553 Y32.31085
G1 F300 X5.13021 Y32.50988
G1 F300 X5.10641 Y32.59640
G1 F300 X5.10892 Y34.79563
G1 F300 X5.14499 Y34.87780
G1 F300 X5.56523 Y35.30150
G1 F300 X5.62607 Y35.34221
G1 F300 X5.69764 Y35.35646
G1 F300 X6.51839 Y35.36601
G1 F300 X6.68065 Y35.43322
G1 F300 X6.74890 Y35.48923
G1 F300 X6.87498 Y35.66312
G1 F300 X6.93241 Y35.69753
G1 F300 X6.99830 Y35.70952
G1 F300 X9.90244 Y35.70708
G1 F300 X9.98151 Y35.67800
G1 F300 X10.03294 Y35.62664
G1 F300 X10.13866 Y35.38082
G1 F300 X10.27538 Y35.17617
G1 F300 X10.44922 Y35.00233
G1 F300 X10.65362 Y34.86576
G1 F300 X10.88074 Y34.77170
G1 F300 X11.12186 Y34.72372
G1 F300 X11.36769 Y34.72372
G1 F300 X11.60881 Y34.77170
G1 F300 X11.83593 Y34.86576
G1 F300 X12.03555 Y34.99774
G1 F300 X12.12908 Y35.02372
G1 F300 X16.39628 Y35.02372
G1 F300 X16.50016 Y34.99220
G1 F300 X16.57009 Y34.90554
G1 F300 X16.58327 Y34.83673
G1 F300 X16.58330 Y31.06318
G1 F300 X16.56905 Y30.99160
G1 F300 X16.52851 Y30.93094
G1 F300 X16.28177 Y30.69076
G1 F300 X16.16280 Y30.54578
G1 F300 X16.08703 Y30.41159
G1 F300 X16.03095 Y30.36567
G1 F300 X15.96115 Y30.34448
G1 F300 X15.89140 Y30.35083
G1 F300 X15.73994 Y30.43282
G1 F300 X15.55990 Y30.46785
G1 F300 X15.44456 Y30.46610
G1 F300 X15.39419 Y30.41573
G1 F300 X15.39419 Y30.06805
G1 F300 X15.49742 Y30.02221
G1 F300 X15.57299 Y29.94664
G1 F300 X15.60654 Y29.88385
G1 F300 X15.62739 Y29.77905
G1 F300 X15.63745 Y29.36917
G1 F300 X15.62739 Y28.85477
G1 F300 X15.60204 Y28.73910
G1 F300 X15.53435 Y28.64192
G1 F300 X15.44550 Y28.58256
G1 F300 X15.37738 Y28.56188
G1 F300 X14.83057 Y28.55721
G1 F300 X14.72574 Y28.57804
G1 F300 X14.66295 Y28.61162
G1 F300 X14.58739 Y28.68718
G1 F300 X14.55183 Y28.75691
G1 F300 X14.14266 Y28.75691
G1 F300 X14.15114 Y28.52909
G1 F300 X14.17677 Y28.44464
G1 F300 X14.27433 Y28.29861
G1 F300 X14.34256 Y28.24263
G1 F300 X14.50486 Y28.17540
G1 F300 X14.71622 Y28.16775
G1 F300 X14.85963 Y28.30169
G1 F300 X14.92838 Y28.32523
G1 F300 X15.01916 Y28.31540
G1 F300 X15.08538 Y28.27291
G1 F300 X15.12473 Y28.21492
G1 F300 X15.13915 Y28.12338
G1 F300 X15.17936 Y28.07542
G1 F300 X15.20527 Y27.97898
G1 F300 X15.19110 Y27.91035
G1 F300 X15.15038 Y27.84949
G1 F300 X14.85211 Y27.55460
G1 F300 X14.77093 Y27.52183
G1 F300 X14.63296 Y27.50735
G1 F300 X14.50276 Y27.46788
G1 F300 X14.38282 Y27.40377
G1 F300 X14.15186 Y27.19534
G1 F300 X14.09290 Y27.17868
G1 F300 X14.00944 Y27.19034
G1 F300 X13.95640 Y27.21985
G1 F300 X13.87197 Y27.31706
G1 F300 X13.76633 Y27.40375
G1 F300 X13.64640 Y27.46788
G1 F300 X13.51622 Y27.50735
G1 F300 X13.37164 Y27.52158
G1 F300 X12.90251 Y27.52158
G1 F300 X12.75793 Y27.50735
G1 F300 X12.62775 Y27.46788
G1 F300 X12.50782 Y27.40375
G1 F300 X12.40266 Y27.31746
G1 F300 X12.22140 Y27.06014
G1 F300 X12.16398 Y27.02572
G1 F300 X12.09814 Y27.01373
G1 F300 X5.39325 Y27.01373
G1 F300 X5.32431 Y27.02714
G1 F300 X5.23666 Y27.09890
G1 F300 X5.20661 Y27.20814
G1 F300 X5.22508 Y27.28206
G1 F300 X5.30641 Y27.43169
G1 F300 X5.34580 Y27.56161
G1 F300 X5.36005 Y27.70618
G1 F300 X5.36005 Y28.17527
G1 F300 X5.34580 Y28.31985
G1 F300 X5.30633 Y28.45005
G1 F300 X5.18101 Y28.64908
G1 F300 X5.15886 Y28.71878
G1 F300 X5.15787 Y29.19869
G1 F300 X5.17148 Y29.25950
G1 F300 X5.25551 Y29.41718
G1 F300 X5.29500 Y29.54740
G1 F300 X5.30925 Y29.69198
G1 F300 X5.30925 Y30.16107
G1 F300 X5.29500 Y30.30565
G1 F300 X5.25553 Y30.43585
G1 F300 X5.19140 Y30.55578
G1 F300 X5.10471 Y30.66142
G1 F300 X5.00435 Y30.75012
G1 F300 X4.96633 Y30.84570
;G04 P0 ; dwell for no time -- G64 should not smooth over this point 
G1 F3000 Z3.00000 ; retract 

G1 F3000 X0.65724 Y27.18259 ; rapid move to begin. 
G1 F300 F300.00000
G1 F300 Z-0.07000
;G04 P0 ; dwell for no time -- G64 should not smooth over this point 
G1 F300 F600.00000
G1 F300 X0.65724 Y27.18259
G1 F300 X0.67070 Y27.25226
G1 F300 X0.71332 Y27.31642
G1 F300 X0.77820 Y27.35792
G1 F300 X0.82796 Y27.36928
G1 F300 X1.05175 Y27.33979
G1 F300 X3.08403 Y27.34075
G1 F300 X3.18271 Y27.29826
G1 F300 X3.35965 Y27.12140
G1 F300 X3.39369 Y27.05752
G1 F300 X3.40080 Y26.98490
G1 F300 X3.37961 Y26.91508
G1 F300 X3.17573 Y26.69498
G1 F300 X3.11164 Y26.57505
G1 F300 X3.07215 Y26.44485
G1 F300 X3.05792 Y26.30027
G1 F300 X3.05792 Y25.83118
G1 F300 X3.07215 Y25.68660
G1 F300 X3.11162 Y25.55640
G1 F300 X3.20380 Y25.39763
G1 F300 X3.22726 Y25.31168
G1 F300 X3.22749 Y23.99971
G1 F300 X3.25114 Y23.45478
G1 F300 X3.29061 Y23.32461
G1 F300 X3.35495 Y23.20424
G1 F300 X3.45409 Y23.07782
G1 F300 X3.47504 Y23.00840
G1 F300 X3.46790 Y22.93581
G1 F300 X3.43392 Y22.87198
G1 F300 X3.34797 Y22.79680
G1 F300 X3.26128 Y22.69111
G1 F300 X3.19711 Y22.57114
G1 F300 X3.15764 Y22.44097
G1 F300 X3.13397 Y21.89604
G1 F300 X3.12935 Y21.14966
G1 F300 X3.14769 Y20.96350
G1 F300 X3.20189 Y20.78479
G1 F300 X3.28993 Y20.62012
G1 F300 X3.40860 Y20.47549
G1 F300 X5.92124 Y17.96287
G1 F300 X6.06587 Y17.84418
G1 F300 X6.23051 Y17.75614
G1 F300 X6.40925 Y17.70194
G1 F300 X6.59538 Y17.68360
G1 F300 X8.85115 Y17.68789
G1 F300 X8.94780 Y17.65716
G1 F300 X9.00787 Y17.59264
G1 F300 X9.03083 Y17.52005
G1 F300 X9.02291 Y17.44433
G1 F300 X8.85339 Y17.15924
G1 F300 X8.79919 Y16.98058
G1 F300 X8.78085 Y16.79440
G1 F300 X8.78085 Y10.33076
G1 F300 X8.79919 Y10.14460
G1 F300 X8.85339 Y9.96588
G1 F300 X8.94143 Y9.80119
G1 F300 X9.06012 Y9.65659
G1 F300 X9.39997 Y9.31844
G1 F300 X9.43198 Y9.21305
G1 F300 X9.39738 Y9.10526
G1 F300 X9.30686 Y9.03726
G1 F300 X8.86246 Y9.00226
G1 F300 X8.73228 Y8.96279
G1 F300 X8.61229 Y8.89863
G1 F300 X8.50716 Y8.81234
G1 F300 X8.42085 Y8.70721
G1 F300 X8.35672 Y8.58725
G1 F300 X8.29688 Y8.42454
G1 F300 X8.23962 Y8.36909
G1 F300 X8.14122 Y8.33820
G1 F300 X8.06337 Y8.35273
G1 F300 X7.97803 Y8.42537
G1 F300 X7.95248 Y8.49045
G1 F300 X7.94130 Y8.71674
G1 F300 X7.91567 Y8.80122
G1 F300 X7.87407 Y8.87904
G1 F300 X7.74986 Y9.00322
G1 F300 X7.58758 Y9.07046
G1 F300 X7.16358 Y9.07749
G1 F300 X7.11379 Y9.02771
G1 F300 X7.11379 Y8.68890
G1 F300 X7.30948 Y8.68395
G1 F300 X7.41974 Y8.64074
G1 F300 X7.51163 Y8.54887
G1 F300 X7.55482 Y8.43861
G1 F300 X7.55253 Y7.83269
G1 F300 X7.51163 Y7.73396
G1 F300 X7.47478 Y7.68725
G1 F300 X7.36673 Y7.61504
G1 F300 X7.25603 Y7.59391
G1 F300 X6.33765 Y7.59421
G1 F300 X6.23285 Y7.61504
G1 F300 X6.17006 Y7.64862
G1 F300 X6.09449 Y7.72418
G1 F300 X6.04865 Y7.82741
G1 F300 X5.70097 Y7.82741
G1 F300 X5.65060 Y7.77704
G1 F300 X5.65825 Y7.56612
G1 F300 X5.68388 Y7.48164
G1 F300 X5.78187 Y7.33508
G1 F300 X5.87130 Y7.25705
G1 F300 X5.91265 Y7.15428
G1 F300 X5.89376 Y7.05606
G1 F300 X5.76660 Y6.89581
G1 F300 X5.70242 Y6.77575
G1 F300 X5.66295 Y6.64555
G1 F300 X5.64872 Y6.50097
G1 F300 X5.64872 Y6.03188
G1 F300 X5.66295 Y5.88730
G1 F300 X5.70242 Y5.75710
G1 F300 X5.76655 Y5.63714
G1 F300 X5.85284 Y5.53201
G1 F300 X6.02302 Y5.39622
G1 F300 X6.05571 Y5.34085
G1 F300 X6.06770 Y5.27499
G1 F300 X6.06770 Y4.78850
G1 F300 X6.05357 Y4.71769
G1 F300 X5.99749 Y4.64248
G1 F300 X5.91611 Y4.59556
G1 F300 X5.72068 Y4.42134
G1 F300 X5.65109 Y4.40773
G1 F300 X4.36938 Y4.40773
G1 F300 X4.26452 Y4.44067
G1 F300 X4.12000 Y4.62802
G1 F300 X4.05177 Y4.68403
G1 F300 X3.84779 Y4.77814
G1 F300 X3.80179 Y4.83277
G1 F300 X3.77961 Y4.90067
G1 F300 X3.78452 Y4.97191
G1 F300 X3.81545 Y5.03569
G1 F300 X3.91007 Y5.12558
G1 F300 X4.06242 Y5.32985
G1 F300 X4.19191 Y5.62355
G1 F300 X4.15909 Y5.68571
G1 F300 X3.80161 Y5.68571
G1 F300 X3.69132 Y5.47008
G1 F300 X3.55571 Y5.31949
G1 F300 X3.40110 Y5.20877
G1 F300 X3.23875 Y5.13651
G1 F300 X3.04052 Y5.09437
G1 F300 X2.86285 Y5.09437
G1 F300 X2.67654 Y5.13262
G1 F300 X2.49143 Y5.21504
G1 F300 X2.34279 Y5.32345
G1 F300 X2.21944 Y5.45995
G1 F300 X2.10177 Y5.68571
G1 F300 X1.74426 Y5.68571
G1 F300 X1.71144 Y5.62355
G1 F300 X1.84093 Y5.32985
G1 F300 X1.99331 Y5.12558
G1 F300 X2.08790 Y5.03569
G1 F300 X2.12483 Y4.93077
G1 F300 X2.10156 Y4.83277
G1 F300 X2.05556 Y4.77814
G1 F300 X1.85158 Y4.68403
G1 F300 X1.78335 Y4.62802
G1 F300 X1.68576 Y4.48200
G1 F300 X1.66016 Y4.39754
G1 F300 X1.66016 Y2.52191
G1 F300 X1.72737 Y2.35963
G1 F300 X1.85158 Y2.23545
G1 F300 X2.01386 Y2.16821
G1 F300 X2.11088 Y2.15866
G1 F300 X3.88949 Y2.16821
G1 F300 X4.05177 Y2.23545
G1 F300 X4.12000 Y2.29143
G1 F300 X4.24410 Y2.46349
G1 F300 X4.33585 Y2.50867
G1 F300 X5.59007 Y2.50936
G1 F300 X5.65886 Y2.48444
G1 F300 X5.70768 Y2.44136
G1 F300 X5.79137 Y2.27073
G1 F300 X5.91558 Y2.14652
G1 F300 X6.07783 Y2.07931
G1 F300 X6.17488 Y2.06976
G1 F300 X7.95352 Y2.07931
G1 F300 X8.11577 Y2.14652
G1 F300 X8.18400 Y2.20253
G1 F300 X8.27592 Y2.33042
G1 F300 X8.33104 Y2.37596
G1 F300 X8.40335 Y2.39808
G1 F300 X8.47854 Y2.38970
G1 F300 X8.57003 Y2.32429
G1 F300 X8.60475 Y2.24390
G1 F300 X8.60305 Y1.21213
G1 F300 X8.62144 Y1.02562
G1 F300 X8.67950 Y0.81513
G1 F300 X8.67178 Y0.75089
G1 F300 X8.63482 Y0.68348
G1 F300 X8.53749 Y0.62364
G1 F300 X0.92986 Y0.61802
G1 F300 X0.82374 Y0.65112
G1 F300 X0.77456 Y0.70083
G1 F300 X0.74655 Y0.76804
G1 F300 X0.65724 Y27.18259
;G04 P0 ; dwell for no time -- G64 should not smooth over this point 
G1 F3000 Z3.00000 ; retract 

G1 F3000 X3.44898 Y25.82196 ; rapid move to begin. 
G1 F300 F300.00000
G1 F300 Z-0.07000
;G04 P0 ; dwell for no time -- G64 should not smooth over this point 
G1 F300 F600.00000
G1 F300 X3.44898 Y25.82196
G1 F300 X3.44898 Y26.30946
G1 F300 X3.47011 Y26.42016
G1 F300 X3.54233 Y26.52821
G1 F300 X3.63118 Y26.58757
G1 F300 X3.69930 Y26.60824
G1 F300 X4.20897 Y26.62572
G1 F300 X12.58958 Y26.62572
G1 F300 X12.59456 Y26.88020
G1 F300 X12.63776 Y26.99046
G1 F300 X12.72963 Y27.08236
G1 F300 X12.82836 Y27.12325
G1 F300 X12.89334 Y27.13052
G1 F300 X13.38084 Y27.13052
G1 F300 X13.49153 Y27.10939
G1 F300 X13.59958 Y27.03717
G1 F300 X13.65894 Y26.94832
G1 F300 X13.67962 Y26.88020
G1 F300 X13.69628 Y26.39984
G1 F300 X13.68460 Y25.91427
G1 F300 X13.67733 Y25.84929
G1 F300 X13.63641 Y25.75056
G1 F300 X13.59125 Y25.69552
G1 F300 X13.49153 Y25.63164
G1 F300 X13.38671 Y25.61081
G1 F300 X13.15656 Y25.61051
G1 F300 X13.05193 Y25.55087
G1 F300 X12.93573 Y25.51561
G1 F300 X4.73549 Y25.50571
G1 F300 X4.73549 Y24.04640
G1 F300 X4.71802 Y23.53672
G1 F300 X4.69734 Y23.46860
G1 F300 X4.63798 Y23.37975
G1 F300 X4.58294 Y23.33456
G1 F300 X4.47268 Y23.29138
G1 F300 X3.86676 Y23.29367
G1 F300 X3.76803 Y23.33456
G1 F300 X3.72132 Y23.37142
G1 F300 X3.64913 Y23.47947
G1 F300 X3.62828 Y23.58427
G1 F300 X3.61548 Y24.04643
G1 F300 X3.61548 Y25.55384
G1 F300 X3.54233 Y25.60322
G1 F300 X3.49714 Y25.65826
G1 F300 X3.45625 Y25.75699
G1 F300 X3.44898 Y25.82196
;G04 P0 ; dwell for no time -- G64 should not smooth over this point 
G1 F3000 Z3.00000 ; retract 

G1 F3000 X5.39772 Y21.82629 ; rapid move to begin. 
G1 F300 F300.00000
G1 F300 Z-0.07000
;G04 P0 ; dwell for no time -- G64 should not smooth over this point 
G1 F300 F600.00000
G1 F300 X5.39772 Y21.82629
G1 F300 X5.41446 Y22.35900
G1 F300 X5.43513 Y22.42712
G1 F300 X5.49048 Y22.50866
G1 F300 X5.49048 Y24.04640
G1 F300 X5.50328 Y24.50855
G1 F300 X5.52414 Y24.61335
G1 F300 X5.59632 Y24.72140
G1 F300 X5.68517 Y24.78076
G1 F300 X5.75329 Y24.80144
G1 F300 X6.29424 Y24.80642
G1 F300 X6.40493 Y24.78529
G1 F300 X6.51298 Y24.71307
G1 F300 X6.57234 Y24.62422
G1 F300 X6.59073 Y24.56763
G1 F300 X6.61049 Y24.04640
G1 F300 X6.61019 Y21.93696
G1 F300 X6.56983 Y21.73409
G1 F300 X6.50450 Y21.61709
G1 F300 X6.49952 Y21.33962
G1 F300 X6.45632 Y21.22936
G1 F300 X6.36444 Y21.13746
G1 F300 X6.25418 Y21.09428
G1 F300 X5.70735 Y21.08961
G1 F300 X5.64827 Y21.09657
G1 F300 X5.54954 Y21.13746
G1 F300 X5.46419 Y21.21958
G1 F300 X5.41674 Y21.32809
G1 F300 X5.39772 Y21.82629
;G04 P0 ; dwell for no time -- G64 should not smooth over this point 
G1 F3000 Z3.00000 ; retract 

G1 F3000 X3.52198 Y21.14930 ; rapid move to begin. 
G1 F300 F300.00000
G1 F300 Z-0.07000
;G04 P0 ; dwell for no time -- G64 should not smooth over this point 
G1 F300 F600.00000
G1 F300 X3.52198 Y21.14930
G1 F300 X3.53189 Y21.04590
G1 F300 X3.56262 Y20.94056
G1 F300 X3.61334 Y20.84326
G1 F300 X3.68601 Y20.75334
G1 F300 X6.19909 Y18.24024
G1 F300 X6.28898 Y18.16757
G1 F300 X6.48009 Y18.08840
G1 F300 X6.59508 Y18.07621
G1 F300 X14.65427 Y18.07651
G1 F300 X14.76336 Y18.08840
G1 F300 X14.86801 Y18.12137
G1 F300 X14.96425 Y18.17410
G1 F300 X15.04436 Y18.24024
G1 F300 X19.37077 Y22.56667
G1 F300 X19.44445 Y22.65765
G1 F300 X19.49322 Y22.75265
G1 F300 X22.03998 Y22.75265
G1 F300 X22.20559 Y22.59151
G1 F300 X22.32110 Y22.55291
G1 F300 X24.51366 Y22.55263
G1 F300 X24.55882 Y22.52334
G1 F300 X24.61539 Y22.51262
G1 F300 X25.92539 Y22.51262
G1 F300 X26.01391 Y22.54043
G1 F300 X26.06608 Y22.60297
G1 F300 X26.08038 Y22.66761
G1 F300 X26.08038 Y22.85760
G1 F300 X26.06860 Y22.91694
G1 F300 X26.03499 Y22.96720
G1 F300 X25.98470 Y23.00081
G1 F300 X25.92539 Y23.01262
G1 F300 X24.61539 Y23.01262
G1 F300 X24.55882 Y23.00188
G1 F300 X24.51366 Y22.97261
G1 F300 X22.41397 Y22.97261
G1 F300 X22.24836 Y23.13375
G1 F300 X22.13284 Y23.17236
G1 F300 X19.49109 Y23.17264
G1 F300 X19.40579 Y23.31973
G1 F300 X19.32721 Y23.39784
G1 F300 X19.22330 Y23.46416
G1 F300 X19.11974 Y23.50358
G1 F300 X18.99782 Y23.52189
G1 F300 X18.88718 Y23.51574
G1 F300 X18.78009 Y23.48740
G1 F300 X18.66980 Y23.43230
G1 F300 X18.57882 Y23.35862
G1 F300 X14.41642 Y19.19622
G1 F300 X6.82703 Y19.19622
G1 F300 X4.64199 Y21.38128
G1 F300 X4.62223 Y22.37053
G1 F300 X4.58131 Y22.46926
G1 F300 X4.53615 Y22.52430
G1 F300 X4.44730 Y22.58366
G1 F300 X4.37918 Y22.60434
G1 F300 X3.78479 Y22.60434
G1 F300 X3.67453 Y22.56116
G1 F300 X3.58266 Y22.46926
G1 F300 X3.54174 Y22.37053
G1 F300 X3.53448 Y22.30556
G1 F300 X3.52198 Y21.14930
;G04 P0 ; dwell for no time -- G64 should not smooth over this point 
G1 F3000 Z3.00000 ; retract 

G1 F3000 X12.02661 Y12.96575 ; rapid move to begin. 
G1 F300 F300.00000
G1 F300 Z-0.07000
;G04 P0 ; dwell for no time -- G64 should not smooth over this point 
G1 F300 F600.00000
G1 F300 X12.02661 Y12.96575
G1 F300 X12.04945 Y12.75163
G1 F300 X12.11792 Y12.54086
G1 F300 X12.22532 Y12.35422
G1 F300 X12.37700 Y12.18427
G1 F300 X12.56189 Y12.05117
G1 F300 X12.76479 Y11.96227
G1 F300 X12.98175 Y11.91749
G1 F300 X13.19082 Y11.91749
G1 F300 X13.32224 Y11.94409
G1 F300 X14.53288 Y10.73345
G1 F300 X14.53288 Y8.78867
G1 F300 X14.41789 Y8.71448
G1 F300 X14.35854 Y8.62563
G1 F300 X14.33786 Y8.55751
G1 F300 X14.33319 Y8.01069
G1 F300 X14.35401 Y7.90587
G1 F300 X14.38759 Y7.84308
G1 F300 X14.42623 Y7.79782
G1 F300 X14.51508 Y7.73846
G1 F300 X14.63075 Y7.71311
G1 F300 X15.54913 Y7.71280
G1 F300 X15.65983 Y7.73396
G1 F300 X15.72262 Y7.76751
G1 F300 X15.80473 Y7.85286
G1 F300 X15.84792 Y7.96312
G1 F300 X15.85289 Y8.50406
G1 F300 X15.83176 Y8.61476
G1 F300 X15.79818 Y8.67755
G1 F300 X15.72262 Y8.75311
G1 F300 X15.65289 Y8.78867
G1 F300 X15.65289 Y10.96543
G1 F300 X15.64299 Y11.06883
G1 F300 X15.61225 Y11.17416
G1 F300 X15.56153 Y11.27150
G1 F300 X15.48886 Y11.36139
G1 F300 X14.11736 Y12.73286
G1 F300 X14.14596 Y12.96575
G1 F300 X14.12313 Y13.19240
G1 F300 X14.05465 Y13.40316
G1 F300 X13.94726 Y13.58980
G1 F300 X13.79069 Y13.76369
G1 F300 X13.61068 Y13.89285
G1 F300 X13.41383 Y13.98013
G1 F300 X13.19709 Y14.02620
G1 F300 X12.98175 Y14.02653
G1 F300 X12.75874 Y13.98013
G1 F300 X12.56189 Y13.89285
G1 F300 X12.38188 Y13.76369
G1 F300 X12.22532 Y13.58980
G1 F300 X12.11792 Y13.40316
G1 F300 X12.05107 Y13.19847
G1 F300 X12.02661 Y12.96575
;G04 P0 ; dwell for no time -- G64 should not smooth over this point 
G1 F3000 Z3.00000 ; retract 

G1 F3000 X9.17348 Y10.33040 ; rapid move to begin. 
G1 F300 F300.00000
G1 F300 Z-0.07000
;G04 P0 ; dwell for no time -- G64 should not smooth over this point 
G1 F300 F600.00000
G1 F300 X9.17348 Y10.33040
G1 F300 X9.17379 Y16.80059
G1 F300 X9.21412 Y17.00346
G1 F300 X9.27137 Y17.11055
G1 F300 X9.76055 Y17.59973
G1 F300 X9.86764 Y17.65698
G1 F300 X9.97297 Y17.68771
G1 F300 X10.07640 Y17.69762
G1 F300 X14.61165 Y17.69762
G1 F300 X14.74174 Y17.82729
G1 F300 X14.84482 Y17.90537
G1 F300 X19.44803 Y22.50861
G1 F300 X19.53795 Y22.58128
G1 F300 X19.72903 Y22.66045
G1 F300 X19.84402 Y22.67264
G1 F300 X21.77490 Y22.67264
G1 F300 X21.88511 Y22.66139
G1 F300 X22.00267 Y22.62423
G1 F300 X22.10894 Y22.56172
G1 F300 X22.19499 Y22.48247
G1 F300 X22.29073 Y22.32263
G1 F300 X24.51368 Y22.32263
G1 F300 X24.55882 Y22.35186
G1 F300 X24.61539 Y22.36261
G1 F300 X25.92539 Y22.36261
G1 F300 X26.01150 Y22.33650
G1 F300 X26.05427 Y22.29372
G1 F300 X26.07855 Y22.22667
G1 F300 X26.07200 Y21.96954
G1 F300 X26.03499 Y21.90800
G1 F300 X25.95275 Y21.86510
G1 F300 X24.61546 Y21.86261
G1 F300 X24.55882 Y21.87335
G1 F300 X24.51363 Y21.90264
G1 F300 X22.29073 Y21.90264
G1 F300 X22.19499 Y21.74280
G1 F300 X22.10894 Y21.66355
G1 F300 X22.00267 Y21.60104
G1 F300 X21.88511 Y21.56388
G1 F300 X21.77490 Y21.55263
G1 F300 X20.07597 Y21.55263
G1 F300 X15.55472 Y17.03138
G1 F300 X15.44728 Y16.94934
G1 F300 X15.23522 Y16.73768
G1 F300 X15.14967 Y16.66897
G1 F300 X15.05236 Y16.61825
G1 F300 X14.94703 Y16.58751
G1 F300 X14.84362 Y16.57761
G1 F300 X10.30835 Y16.57761
G1 F300 X10.29349 Y16.56275
G1 F300 X10.29349 Y10.56238
G1 F300 X10.43233 Y10.42354
G1 F300 X13.44668 Y10.41364
G1 F300 X13.56291 Y10.37838
G1 F300 X13.65912 Y10.32565
G1 F300 X13.74322 Y10.25514
G1 F300 X13.85813 Y10.08316
G1 F300 X13.89338 Y9.96695
G1 F300 X13.90329 Y6.89022
G1 F300 X13.89110 Y6.77529
G1 F300 X13.85813 Y6.67062
G1 F300 X13.74322 Y6.49863
G1 F300 X13.03928 Y5.79424
G1 F300 X12.95915 Y5.72810
G1 F300 X12.86291 Y5.67537
G1 F300 X12.75826 Y5.64240
G1 F300 X12.65569 Y5.63115
G1 F300 X12.65569 Y4.08302
G1 F300 X12.82793 Y3.91058
G1 F300 X12.92702 Y3.74095
G1 F300 X12.98577 Y3.56000
G1 F300 X13.00535 Y3.36455
G1 F300 X12.98417 Y3.17555
G1 F300 X12.92702 Y3.00067
G1 F300 X12.83532 Y2.84118
G1 F300 X12.69971 Y2.69059
G1 F300 X12.54510 Y2.57987
G1 F300 X12.38275 Y2.50761
G1 F300 X12.19702 Y2.46679
G1 F300 X12.00685 Y2.46547
G1 F300 X11.81447 Y2.50535
G1 F300 X11.64627 Y2.57987
G1 F300 X11.48679 Y2.69455
G1 F300 X11.36344 Y2.83105
G1 F300 X11.26436 Y3.00067
G1 F300 X11.20721 Y3.17555
G1 F300 X11.18602 Y3.37707
G1 F300 X11.20558 Y3.56000
G1 F300 X11.26212 Y3.73509
G1 F300 X11.36344 Y3.91058
G1 F300 X11.53568 Y4.08302
G1 F300 X11.53568 Y5.64270
G1 F300 X11.42207 Y5.64997
G1 F300 X11.32334 Y5.69089
G1 F300 X11.26830 Y5.73605
G1 F300 X11.20894 Y5.82490
G1 F300 X11.18328 Y5.94646
G1 F300 X11.18359 Y6.43983
G1 F300 X11.20441 Y6.54466
G1 F300 X11.26830 Y6.64438
G1 F300 X11.32334 Y6.68954
G1 F300 X11.42207 Y6.73046
G1 F300 X12.41132 Y6.75022
G1 F300 X12.78328 Y7.12220
G1 F300 X12.78328 Y9.30353
G1 F300 X10.20035 Y9.30353
G1 F300 X10.08539 Y9.31572
G1 F300 X9.89431 Y9.39489
G1 F300 X9.80876 Y9.46360
G1 F300 X9.33355 Y9.93881
G1 F300 X9.26484 Y10.02436
G1 F300 X9.21412 Y10.12166
G1 F300 X9.18339 Y10.22700
G1 F300 X9.17348 Y10.33040
;G04 P0 ; dwell for no time -- G64 should not smooth over this point 
G1 F3000 Z3.00000 ; retract 

G1 F3000 X5.64885 Y8.62116 ; rapid move to begin. 
G1 F300 F300.00000
G1 F300 Z-0.07000
;G04 P0 ; dwell for no time -- G64 should not smooth over this point 
G1 F300 F600.00000
G1 F300 X5.64885 Y8.62116
G1 F300 X5.65060 Y8.50579
G1 F300 X5.70097 Y8.45542
G1 F300 X6.04865 Y8.45542
G1 F300 X6.08794 Y8.54887
G1 F300 X6.12479 Y8.59558
G1 F300 X6.22198 Y8.66327
G1 F300 X6.33765 Y8.68862
G1 F300 X6.48578 Y8.68890
G1 F300 X6.48578 Y9.02771
G1 F300 X6.43600 Y9.07749
G1 F300 X6.10821 Y9.07993
G1 F300 X5.92749 Y9.04483
G1 F300 X5.84966 Y9.00322
G1 F300 X5.72548 Y8.87904
G1 F300 X5.65825 Y8.71674
G1 F300 X5.64885 Y8.62116
;G04 P0 ; dwell for no time -- G64 should not smooth over this point 
G1 F3000 Z3.00000 ; retract 

G1 F3000 X3.26569 Y6.84933 ; rapid move to begin. 
G1 F300 F300.00000
G1 F300 Z-0.07000
;G04 P0 ; dwell for no time -- G64 should not smooth over this point 
G1 F300 F600.00000
G1 F300 X3.26569 Y6.84933
G1 F300 X3.26569 Y7.20750
G1 F300 X3.32310 Y7.23765
G1 F300 X3.50306 Y7.17379
G1 F300 X3.72152 Y7.04369
G1 F300 X3.91037 Y6.87343
G1 F300 X4.06239 Y6.66960
G1 F300 X4.19191 Y6.37590
G1 F300 X4.15906 Y6.31372
G1 F300 X3.80161 Y6.31372
G1 F300 X3.69132 Y6.52934
G1 F300 X3.56059 Y6.67597
G1 F300 X3.40641 Y6.78794
G1 F300 X3.26569 Y6.84933
;G04 P0 ; dwell for no time -- G64 should not smooth over this point 
G1 F3000 Z3.00000 ; retract 

G1 F3000 X1.71144 Y6.37590 ; rapid move to begin. 
G1 F300 F300.00000
G1 F300 Z-0.07000
;G04 P0 ; dwell for no time -- G64 should not smooth over this point 
G1 F300 F600.00000
G1 F300 X1.71144 Y6.37590
G1 F300 X1.74429 Y6.31372
G1 F300 X2.10177 Y6.31372
G1 F300 X2.21205 Y6.52934
G1 F300 X2.34279 Y6.67597
G1 F300 X2.49694 Y6.78794
G1 F300 X2.63768 Y6.84933
G1 F300 X2.63768 Y7.20750
G1 F300 X2.58028 Y7.23765
G1 F300 X2.40029 Y7.17379
G1 F300 X2.18183 Y7.04369
G1 F300 X1.99295 Y6.87341
G1 F300 X1.84096 Y6.66960
G1 F300 X1.71144 Y6.37590
;G04 P0 ; dwell for no time -- G64 should not smooth over this point 
G1 F3000 Z3.00000 ; retract 

G1 F3000 X2.04169 Y2.60971 ; rapid move to begin. 
G1 F300 F300.00000
G1 F300 Z-0.07000
;G04 P0 ; dwell for no time -- G64 should not smooth over this point 
G1 F300 F600.00000
G1 F300 X2.04169 Y2.60971
G1 F300 X2.04169 Y4.30971
G1 F300 X2.05180 Y4.34304
G1 F300 X2.07873 Y4.36513
G1 F300 X3.81339 Y4.36856
G1 F300 X3.84410 Y4.35213
G1 F300 X3.86054 Y4.32142
G1 F300 X3.86168 Y4.01972
G1 F300 X6.10569 Y4.01972
G1 F300 X6.10684 Y4.23252
G1 F300 X6.13236 Y4.27070
G1 F300 X6.45568 Y4.28081
G1 F300 X6.45568 Y5.71890
G1 F300 X6.29010 Y5.72388
G1 F300 X6.22198 Y5.74456
G1 F300 X6.12479 Y5.81225
G1 F300 X6.06091 Y5.91197
G1 F300 X6.03978 Y6.02266
G1 F300 X6.03978 Y6.51016
G1 F300 X6.04705 Y6.57514
G1 F300 X6.08794 Y6.67387
G1 F300 X6.17006 Y6.75921
G1 F300 X6.29010 Y6.80894
G1 F300 X7.25093 Y6.82642
G1 F300 X8.69408 Y8.26957
G1 F300 X8.69906 Y8.37511
G1 F300 X8.71974 Y8.44323
G1 F300 X8.77909 Y8.53208
G1 F300 X8.83414 Y8.57724
G1 F300 X8.94440 Y8.62045
G1 F300 X9.29441 Y8.63792
G1 F300 X11.93060 Y8.63792
G1 F300 X12.08844 Y8.61270
G1 F300 X12.46451 Y8.60544
G1 F300 X12.57302 Y8.55801
G1 F300 X12.65513 Y8.47267
G1 F300 X12.69603 Y8.37394
G1 F300 X12.70299 Y8.31483
G1 F300 X12.69832 Y7.76802
G1 F300 X12.65513 Y7.65776
G1 F300 X12.56324 Y7.56589
G1 F300 X12.45298 Y7.52268
G1 F300 X11.96631 Y7.50597
G1 F300 X11.83352 Y7.51771
G1 F300 X9.52636 Y7.51791
G1 F300 X7.87887 Y5.87044
G1 F300 X7.79873 Y5.80430
G1 F300 X7.70252 Y5.75157
G1 F300 X7.57569 Y5.71527
G1 F300 X7.57569 Y4.28081
G1 F300 X7.87739 Y4.27966
G1 F300 X7.90810 Y4.26323
G1 F300 X7.92454 Y4.23252
G1 F300 X7.92568 Y2.52081
G1 F300 X7.89901 Y2.47093
G1 F300 X6.15398 Y2.46196
G1 F300 X6.12327 Y2.47840
G1 F300 X6.10684 Y2.50910
G1 F300 X6.10569 Y2.89971
G1 F300 X3.86168 Y2.89971
G1 F300 X3.86054 Y2.59800
G1 F300 X3.83501 Y2.55983
G1 F300 X3.80169 Y2.54972
G1 F300 X2.10169 Y2.54972
G1 F300 X2.05927 Y2.56730
G1 F300 X2.04169 Y2.60971
;G04 P0 ; dwell for no time -- G64 should not smooth over this point 
G1 F3000 Z3.00000 ; retract 

G1 F3000 X8.64602 Y3.36455 ; rapid move to begin. 
G1 F300 F300.00000
G1 F300 Z-0.07000
;G04 P0 ; dwell for no time -- G64 should not smooth over this point 
G1 F300 F600.00000
G1 F300 X8.64602 Y3.36455
G1 F300 X8.66558 Y3.18162
G1 F300 X8.72436 Y3.00067
G1 F300 X8.82344 Y2.83105
G1 F300 X8.99568 Y2.65861
G1 F300 X8.99568 Y1.21183
G1 F300 X9.00559 Y1.10840
G1 F300 X9.03632 Y1.00306
G1 F300 X9.08704 Y0.90576
G1 F300 X9.15575 Y0.82021
G1 F300 X9.50587 Y0.47009
G1 F300 X9.67785 Y0.35518
G1 F300 X9.79405 Y0.31993
G1 F300 X19.57026 Y0.31033
G1 F300 X19.77313 Y0.35066
G1 F300 X19.88022 Y0.40792
G1 F300 X20.52896 Y1.04266
G1 F300 X20.60163 Y1.13258
G1 F300 X20.65235 Y1.22988
G1 F300 X20.68308 Y1.33522
G1 F300 X20.69299 Y1.43862
G1 F300 X20.68532 Y12.51434
G1 F300 X20.65042 Y12.63103
G1 F300 X20.53566 Y12.80388
G1 F300 X20.44168 Y12.88132
G1 F300 X20.25009 Y12.96095
G1 F300 X20.13480 Y12.97322
G1 F300 X18.76439 Y12.97322
G1 F300 X18.76439 Y16.58815
G1 F300 X20.76045 Y18.58421
G1 F300 X22.45890 Y18.58421
G1 F300 X22.65920 Y18.62231
G1 F300 X23.14653 Y18.63221
G1 F300 X23.26273 Y18.66747
G1 F300 X23.43474 Y18.78240
G1 F300 X23.58529 Y18.93257
G1 F300 X23.65527 Y19.01847
G1 F300 X23.70955 Y19.12213
G1 F300 X23.74239 Y19.24095
G1 F300 X23.74785 Y19.36411
G1 F300 X23.72824 Y19.47948
G1 F300 X23.64790 Y19.64316
G1 F300 X23.89009 Y19.88532
G1 F300 X23.93243 Y19.94628
G1 F300 X23.95158 Y20.03383
G1 F300 X23.95158 Y20.41285
G1 F300 X24.14135 Y20.60264
G1 F300 X24.51363 Y20.60264
G1 F300 X24.55882 Y20.57336
G1 F300 X24.61546 Y20.56261
G1 F300 X25.95275 Y20.56510
G1 F300 X26.03499 Y20.60800
G1 F300 X26.07787 Y20.69002
G1 F300 X26.07924 Y20.91933
G1 F300 X26.03499 Y21.01722
G1 F300 X25.98470 Y21.05083
G1 F300 X25.92539 Y21.06261
G1 F300 X24.61539 Y21.06261
G1 F300 X24.55882 Y21.05187
G1 F300 X24.51368 Y21.02263
G1 F300 X24.05435 Y21.02263
G1 F300 X23.97955 Y21.00864
G1 F300 X23.90586 Y20.96111
G1 F300 X23.59309 Y20.64831
G1 F300 X23.55008 Y20.58552
G1 F300 X23.53159 Y20.49982
G1 F300 X23.53159 Y20.14666
G1 F300 X23.51104 Y20.10028
G1 F300 X23.28788 Y19.87709
G1 F300 X23.10787 Y19.88227
G1 F300 X22.99451 Y19.85324
G1 F300 X22.88966 Y19.80127
G1 F300 X22.81478 Y19.74232
G1 F300 X22.49111 Y19.74201
G1 F300 X22.29667 Y19.70422
G1 F300 X20.52847 Y19.70422
G1 F300 X20.41351 Y19.69203
G1 F300 X20.30887 Y19.65906
G1 F300 X20.21265 Y19.60633
G1 F300 X20.13251 Y19.54019
G1 F300 X17.80841 Y17.21609
G1 F300 X17.73574 Y17.12617
G1 F300 X17.68502 Y17.02886
G1 F300 X17.65429 Y16.92353
G1 F300 X17.64438 Y16.82010
G1 F300 X17.64438 Y12.41320
G1 F300 X17.65429 Y12.30980
G1 F300 X17.68502 Y12.20446
G1 F300 X17.74227 Y12.09738
G1 F300 X17.81278 Y12.01328
G1 F300 X17.98477 Y11.89837
G1 F300 X18.10097 Y11.86311
G1 F300 X19.57298 Y11.85321
G1 F300 X19.57298 Y1.67060
G1 F300 X19.33241 Y1.43004
G1 F300 X10.12944 Y1.43004
G1 F300 X10.11569 Y1.44378
G1 F300 X10.11569 Y2.65861
G1 F300 X10.28793 Y2.83105
G1 F300 X10.38702 Y3.00067
G1 F300 X10.44579 Y3.18162
G1 F300 X10.46535 Y3.37707
G1 F300 X10.44579 Y3.56000
G1 F300 X10.38702 Y3.74095
G1 F300 X10.28793 Y3.91058
G1 F300 X10.11569 Y4.08302
G1 F300 X10.11569 Y5.73628
G1 F300 X10.16593 Y5.79546
G1 F300 X10.20911 Y5.90572
G1 F300 X10.21379 Y6.45253
G1 F300 X10.19296 Y6.55736
G1 F300 X10.12908 Y6.65708
G1 F300 X10.03190 Y6.72477
G1 F300 X9.96378 Y6.74544
G1 F300 X9.42479 Y6.76216
G1 F300 X8.94440 Y6.74544
G1 F300 X8.87628 Y6.72477
G1 F300 X8.78743 Y6.66541
G1 F300 X8.71521 Y6.55736
G1 F300 X8.69408 Y6.44666
G1 F300 X8.69408 Y5.95916
G1 F300 X8.71521 Y5.84847
G1 F300 X8.74879 Y5.78568
G1 F300 X8.82436 Y5.71011
G1 F300 X8.88715 Y5.67656
G1 F300 X8.99568 Y5.65553
G1 F300 X8.99568 Y4.08302
G1 F300 X8.82344 Y3.91058
G1 F300 X8.72436 Y3.74095
G1 F300 X8.66558 Y3.56000
G1 F300 X8.64602 Y3.36455
;G04 P0 ; dwell for no time -- G64 should not smooth over this point 
G1 F3000 Z3.00000 ; retract 

G1 F3000 X13.72602 Y3.36455 ; rapid move to begin. 
G1 F300 F300.00000
G1 F300 Z-0.07000
;G04 P0 ; dwell for no time -- G64 should not smooth over this point 
G1 F300 F600.00000
G1 F300 X13.72602 Y3.36455
G1 F300 X13.74558 Y3.56000
G1 F300 X13.80436 Y3.74095
G1 F300 X13.90344 Y3.91058
G1 F300 X14.07568 Y4.08302
G1 F300 X14.08559 Y6.03155
G1 F300 X14.11632 Y6.13689
G1 F300 X14.16704 Y6.23419
G1 F300 X14.33288 Y6.41730
G1 F300 X14.33786 Y6.68250
G1 F300 X14.38104 Y6.79276
G1 F300 X14.46316 Y6.87811
G1 F300 X14.58320 Y6.92784
G1 F300 X15.56092 Y6.94534
G1 F300 X15.89656 Y7.28100
G1 F300 X15.89686 Y7.59523
G1 F300 X15.93288 Y7.78385
G1 F300 X15.93288 Y9.55618
G1 F300 X15.91718 Y9.68270
G1 F300 X15.91718 Y17.04870
G1 F300 X15.92709 Y17.15213
G1 F300 X15.95782 Y17.25746
G1 F300 X16.01507 Y17.36455
G1 F300 X19.56101 Y20.92449
G1 F300 X19.64115 Y20.99063
G1 F300 X19.73737 Y21.04336
G1 F300 X19.84201 Y21.07633
G1 F300 X19.95700 Y21.08852
G1 F300 X22.83990 Y21.08852
G1 F300 X22.95631 Y21.07628
G1 F300 X23.10784 Y21.01727
G1 F300 X23.70167 Y21.61112
G1 F300 X23.80350 Y21.66716
G1 F300 X24.51366 Y21.67262
G1 F300 X24.55882 Y21.70188
G1 F300 X24.61539 Y21.71262
G1 F300 X25.92539 Y21.71262
G1 F300 X26.01391 Y21.68478
G1 F300 X26.05427 Y21.64374
G1 F300 X26.07736 Y21.58811
G1 F300 X26.07924 Y21.35590
G1 F300 X26.03499 Y21.25801
G1 F300 X25.95275 Y21.21509
G1 F300 X24.61546 Y21.21262
G1 F300 X24.55882 Y21.22334
G1 F300 X24.51363 Y21.25263
G1 F300 X23.93715 Y21.25263
G1 F300 X23.37515 Y20.69060
G1 F300 X23.39682 Y20.58705
G1 F300 X23.39715 Y20.47625
G1 F300 X23.37411 Y20.36152
G1 F300 X23.32771 Y20.25410
G1 F300 X23.25999 Y20.15868
G1 F300 X23.16378 Y20.07204
G1 F300 X23.06766 Y20.01692
G1 F300 X22.96238 Y19.98237
G1 F300 X22.83990 Y19.96851
G1 F300 X20.18895 Y19.96851
G1 F300 X17.03719 Y16.81675
G1 F300 X17.03719 Y9.79355
G1 F300 X17.05289 Y9.66700
G1 F300 X17.05289 Y7.62563
G1 F300 X17.01657 Y7.43114
G1 F300 X17.00438 Y6.93409
G1 F300 X16.97141 Y6.82942
G1 F300 X16.85650 Y6.65743
G1 F300 X16.10875 Y5.92322
G1 F300 X16.00166 Y5.86597
G1 F300 X15.89630 Y5.83523
G1 F300 X15.32485 Y5.82533
G1 F300 X15.19569 Y5.69617
G1 F300 X15.19569 Y4.08302
G1 F300 X15.36793 Y3.91058
G1 F300 X15.46702 Y3.74095
G1 F300 X15.52579 Y3.56000
G1 F300 X15.54535 Y3.37707
G1 F300 X15.52579 Y3.18162
G1 F300 X15.46702 Y3.00067
G1 F300 X15.37532 Y2.84118
G1 F300 X15.24903 Y2.69900
G1 F300 X15.08510 Y2.57987
G1 F300 X14.91083 Y2.50372
G1 F300 X14.72452 Y2.46547
G1 F300 X14.54685 Y2.46547
G1 F300 X14.34863 Y2.50761
G1 F300 X14.18627 Y2.57987
G1 F300 X14.03166 Y2.69059
G1 F300 X13.89605 Y2.84118
G1 F300 X13.80436 Y3.00067
G1 F300 X13.74721 Y3.17555
G1 F300 X13.72602 Y3.36455
;G04 P0 ; dwell for no time -- G64 should not smooth over this point 
G1 F3000 Z3.00000 ; retract 

G1 F3000 X15.58368 Y4.33592 ; rapid move to begin. 
G1 F300 F300.00000
G1 F300 Z-0.07000
;G04 P0 ; dwell for no time -- G64 should not smooth over this point 
G1 F300 F600.00000
G1 F300 X15.58368 Y4.33592
G1 F300 X15.58368 Y5.24700
G1 F300 X15.61573 Y5.35129
G1 F300 X15.64995 Y5.38952
G1 F300 X15.71804 Y5.42622
G1 F300 X15.97870 Y5.45103
G1 F300 X16.15741 Y5.50524
G1 F300 X16.32211 Y5.59327
G1 F300 X16.46671 Y5.71197
G1 F300 X17.12993 Y6.37519
G1 F300 X17.24862 Y6.51982
G1 F300 X17.33666 Y6.68451
G1 F300 X17.39086 Y6.86320
G1 F300 X17.40920 Y7.04938
G1 F300 X17.40458 Y7.33759
G1 F300 X17.44550 Y7.62599
G1 F300 X17.44550 Y9.66677
G1 F300 X17.42518 Y9.88227
G1 F300 X17.42518 Y11.44279
G1 F300 X17.44362 Y11.52329
G1 F300 X17.52152 Y11.60612
G1 F300 X17.62068 Y11.62941
G1 F300 X17.67539 Y11.61800
G1 F300 X17.83943 Y11.53327
G1 F300 X18.01855 Y11.47894
G1 F300 X18.20473 Y11.46060
G1 F300 X19.02297 Y11.46278
G1 F300 X19.09149 Y11.43924
G1 F300 X19.15505 Y11.37962
G1 F300 X19.18255 Y11.30302
G1 F300 X19.18497 Y6.62622
G1 F300 X19.29396 Y6.50320
G1 F300 X19.40135 Y6.31656
G1 F300 X19.46983 Y6.10580
G1 F300 X19.49266 Y5.89167
G1 F300 X19.46983 Y5.66503
G1 F300 X19.40135 Y5.45426
G1 F300 X19.29396 Y5.26762
G1 F300 X19.18499 Y5.14463
G1 F300 X19.18499 Y2.00504
G1 F300 X19.17074 Y1.93346
G1 F300 X19.13767 Y1.88190
G1 F300 X19.06955 Y1.83227
G1 F300 X18.99800 Y1.81802
G1 F300 X17.74494 Y1.81802
G1 F300 X17.64116 Y1.84975
G1 F300 X17.60300 Y1.88360
G1 F300 X17.56610 Y1.95112
G1 F300 X17.55954 Y2.02780
G1 F300 X17.58444 Y2.10060
G1 F300 X17.63658 Y2.15719
G1 F300 X17.84555 Y2.26008
G1 F300 X18.04938 Y2.41210
G1 F300 X18.21964 Y2.60098
G1 F300 X18.34974 Y2.81944
G1 F300 X18.41359 Y2.99940
G1 F300 X18.38344 Y3.05681
G1 F300 X18.02561 Y3.05681
G1 F300 X17.91532 Y2.84118
G1 F300 X17.78459 Y2.69455
G1 F300 X17.62510 Y2.57987
G1 F300 X17.45690 Y2.50535
G1 F300 X17.27702 Y2.46679
G1 F300 X17.08685 Y2.46547
G1 F300 X16.89447 Y2.50535
G1 F300 X16.72627 Y2.57987
G1 F300 X16.56679 Y2.69455
G1 F300 X16.43605 Y2.84118
G1 F300 X16.34436 Y3.00067
G1 F300 X16.28721 Y3.17555
G1 F300 X16.26602 Y3.36455
G1 F300 X16.28558 Y3.56000
G1 F300 X16.34436 Y3.74095
G1 F300 X16.44344 Y3.91058
G1 F300 X16.61568 Y4.08302
G1 F300 X16.61576 Y4.53394
G1 F300 X16.50580 Y4.48157
G1 F300 X16.30197 Y4.32952
G1 F300 X16.13138 Y4.14029
G1 F300 X16.05076 Y4.01129
G1 F300 X15.94710 Y3.95205
G1 F300 X15.84774 Y3.95950
G1 F300 X15.77746 Y4.00433
G1 F300 X15.61213 Y4.23717
G1 F300 X15.58368 Y4.33592
;G04 P0 ; dwell for no time -- G64 should not smooth over this point 
G1 F3000 Z3.00000 ; retract 

G1 F3000 X17.73569 Y4.08302 ; rapid move to begin. 
G1 F300 F300.00000
G1 F300 Z-0.07000
;G04 P0 ; dwell for no time -- G64 should not smooth over this point 
G1 F300 F600.00000
G1 F300 X17.73569 Y4.08302
G1 F300 X17.73569 Y4.39615
G1 F300 X17.82899 Y4.48944
G1 F300 X18.04938 Y4.32952
G1 F300 X18.21964 Y4.14067
G1 F300 X18.34974 Y3.92221
G1 F300 X18.41359 Y3.74222
G1 F300 X18.38344 Y3.68482
G1 F300 X18.02561 Y3.68482
G1 F300 X17.91532 Y3.90044
G1 F300 X17.73569 Y4.08302
;G04 P0 ; dwell for no time -- G64 should not smooth over this point 
G1 F3000 Z3.00000 ; retract 

G1 F3000 X26.18711 Y7.28885 ; rapid move to begin. 
G1 F300 F300.00000
G1 F300 Z-0.07000
;G04 P0 ; dwell for no time -- G64 should not smooth over this point 
G1 F300 F600.00000
G1 F300 X26.18711 Y7.28885
G1 F300 X26.20995 Y7.07473
G1 F300 X26.28127 Y6.85837
G1 F300 X26.39316 Y6.66719
G1 F300 X26.53750 Y6.50737
G1 F300 X26.68678 Y6.39851
G1 F300 X26.68678 Y3.96872
G1 F300 X26.51454 Y3.79628
G1 F300 X26.41322 Y3.62079
G1 F300 X26.35668 Y3.44570
G1 F300 X26.33712 Y3.26277
G1 F300 X26.35831 Y3.06125
G1 F300 X26.41543 Y2.88637
G1 F300 X26.51454 Y2.71675
G1 F300 X26.63789 Y2.58025
G1 F300 X26.79737 Y2.46557
G1 F300 X26.96557 Y2.39105
G1 F300 X27.15795 Y2.35117
G1 F300 X27.34812 Y2.35249
G1 F300 X27.52800 Y2.39105
G1 F300 X27.70705 Y2.47184
G1 F300 X27.85569 Y2.58025
G1 F300 X27.97903 Y2.71675
G1 F300 X28.07812 Y2.88637
G1 F300 X28.13788 Y3.07352
G1 F300 X28.15645 Y3.26277
G1 F300 X28.13788 Y3.43951
G1 F300 X28.08035 Y3.62079
G1 F300 X27.97903 Y3.79628
G1 F300 X27.80679 Y3.96872
G1 F300 X27.80679 Y6.39851
G1 F300 X27.95607 Y6.50737
G1 F300 X28.10039 Y6.66719
G1 F300 X28.21515 Y6.86396
G1 F300 X28.28363 Y7.07473
G1 F300 X28.30646 Y7.28885
G1 F300 X28.28200 Y7.52157
G1 F300 X28.21515 Y7.72626
G1 F300 X28.10776 Y7.91290
G1 F300 X27.95607 Y8.08286
G1 F300 X27.78205 Y8.20968
G1 F300 X27.56829 Y8.30485
G1 F300 X27.35759 Y8.34930
G1 F300 X27.13598 Y8.34930
G1 F300 X26.91924 Y8.30323
G1 F300 X26.72237 Y8.21595
G1 F300 X26.53750 Y8.08286
G1 F300 X26.39316 Y7.92304
G1 F300 X26.27843 Y7.72626
G1 F300 X26.21155 Y7.52157
G1 F300 X26.18711 Y7.28885
;G04 P0 ; dwell for no time -- G64 should not smooth over this point 
G1 F3000 Z3.00000 ; retract 

G1 F3000 X28.87712 Y3.25025 ; rapid move to begin. 
G1 F300 F300.00000
G1 F300 Z-0.07000
;G04 P0 ; dwell for no time -- G64 should not smooth over this point 
G1 F300 F600.00000
G1 F300 X28.87712 Y3.25025
G1 F300 X28.89668 Y3.06732
G1 F300 X28.95546 Y2.88637
G1 F300 X29.04715 Y2.72688
G1 F300 X29.17344 Y2.58470
G1 F300 X29.33737 Y2.46557
G1 F300 X29.50557 Y2.39105
G1 F300 X29.68545 Y2.35249
G1 F300 X29.87562 Y2.35117
G1 F300 X30.07385 Y2.39331
G1 F300 X30.24705 Y2.47184
G1 F300 X30.39569 Y2.58025
G1 F300 X30.50082 Y2.69651
G1 F300 X33.00724 Y2.69651
G1 F300 X33.04798 Y2.62859
G1 F300 X33.19230 Y2.46877
G1 F300 X33.37719 Y2.33567
G1 F300 X33.58009 Y2.24677
G1 F300 X33.79078 Y2.20232
G1 F300 X34.00612 Y2.20199
G1 F300 X34.23500 Y2.25063
G1 F300 X34.43685 Y2.34195
G1 F300 X34.61531 Y2.47321
G1 F300 X34.76256 Y2.63872
G1 F300 X34.86995 Y2.82536
G1 F300 X34.93843 Y3.03613
G1 F300 X34.96126 Y3.26277
G1 F300 X34.93843 Y3.47690
G1 F300 X34.86995 Y3.68767
G1 F300 X34.76256 Y3.87430
G1 F300 X34.61087 Y4.04426
G1 F300 X34.43685 Y4.17108
G1 F300 X34.22913 Y4.26463
G1 F300 X34.01239 Y4.31070
G1 F300 X33.79705 Y4.31103
G1 F300 X33.57404 Y4.26463
G1 F300 X33.36632 Y4.17108
G1 F300 X33.19230 Y4.04426
G1 F300 X33.04798 Y3.88444
G1 F300 X33.00724 Y3.81652
G1 F300 X30.50082 Y3.81652
G1 F300 X30.39569 Y3.93277
G1 F300 X30.24705 Y4.04118
G1 F300 X30.06800 Y4.12198
G1 F300 X29.87562 Y4.16186
G1 F300 X29.69795 Y4.16186
G1 F300 X29.51164 Y4.12361
G1 F300 X29.33737 Y4.04746
G1 F300 X29.18276 Y3.93674
G1 F300 X29.04715 Y3.78614
G1 F300 X28.95546 Y3.62665
G1 F300 X28.89831 Y3.45178
G1 F300 X28.87712 Y3.25025
;G04 P0 ; dwell for no time -- G64 should not smooth over this point 
G1 F3000 Z3.00000 ; retract 

G1 F3000 X35.69337 Y9.53797 ; rapid move to begin. 
G1 F300 F300.00000
G1 F300 Z-0.07000
;G04 P0 ; dwell for no time -- G64 should not smooth over this point 
G1 F300 F600.00000
G1 F300 X35.69337 Y9.53797
G1 F300 X35.69611 Y18.75827
G1 F300 X35.73236 Y18.84062
G1 F300 X35.77648 Y18.88311
G1 F300 X35.84973 Y18.91189
G1 F300 X36.91501 Y18.91222
G1 F300 X36.98432 Y18.88685
G1 F300 X37.04089 Y18.83153
G1 F300 X37.06568 Y18.78027
G1 F300 X37.10893 Y18.55525
G1 F300 X37.06931 Y18.29843
G1 F300 X37.08077 Y18.01055
G1 F300 X37.10893 Y17.90524
G1 F300 X37.06931 Y17.64842
G1 F300 X37.08077 Y17.36054
G1 F300 X37.10893 Y17.25525
G1 F300 X37.06931 Y16.99843
G1 F300 X37.08077 Y16.71055
G1 F300 X37.10893 Y16.60524
G1 F300 X37.06931 Y16.34842
G1 F300 X37.06931 Y16.17682
G1 F300 X37.09662 Y15.99054
G1 F300 X37.08155 Y15.90265
G1 F300 X37.34808 Y15.68922
G1 F300 X37.38775 Y15.63941
G1 F300 X37.40992 Y15.56707
G1 F300 X37.39743 Y15.48038
G1 F300 X37.33619 Y15.40032
G1 F300 X37.25933 Y15.36605
G1 F300 X37.12202 Y15.36305
G1 F300 X37.08191 Y15.32295
G1 F300 X37.14983 Y15.16697
G1 F300 X37.27586 Y15.04464
G1 F300 X37.43913 Y14.97984
G1 F300 X37.90667 Y14.97413
G1 F300 X37.95638 Y15.02384
G1 F300 X37.95638 Y15.36262
G1 F300 X37.60368 Y15.36377
G1 F300 X37.51488 Y15.40054
G1 F300 X37.47337 Y15.45561
G1 F300 X37.46222 Y15.49856
G1 F300 X37.46878 Y15.75566
G1 F300 X37.50182 Y15.81286
G1 F300 X37.55608 Y15.85081
G1 F300 X37.61538 Y15.86262
G1 F300 X38.92539 Y15.86262
G1 F300 X38.98470 Y15.85081
G1 F300 X39.03895 Y15.81286
G1 F300 X39.07200 Y15.75566
G1 F300 X39.08038 Y15.51761
G1 F300 X39.06608 Y15.45297
G1 F300 X39.01391 Y15.39044
G1 F300 X38.93710 Y15.36377
G1 F300 X38.58439 Y15.36262
G1 F300 X38.58439 Y15.02384
G1 F300 X38.63425 Y14.97398
G1 F300 X39.02849 Y14.96791
G1 F300 X39.10001 Y14.93631
G1 F300 X39.15816 Y14.86638
G1 F300 X39.17779 Y14.78475
G1 F300 X39.17484 Y14.21028
G1 F300 X39.18643 Y14.09260
G1 F300 X39.22061 Y13.97990
G1 F300 X39.27616 Y13.87601
G1 F300 X39.35089 Y13.78493
G1 F300 X39.44195 Y13.71020
G1 F300 X39.54581 Y13.65468
G1 F300 X39.65856 Y13.62046
G1 F300 X40.22559 Y13.60634
G1 F300 X40.31396 Y13.55653
G1 F300 X40.35960 Y13.48112
G1 F300 X40.35942 Y13.36791
G1 F300 X40.21993 Y13.13502
G1 F300 X40.18043 Y13.00484
G1 F300 X40.16621 Y12.86029
G1 F300 X40.15218 Y10.44297
G1 F300 X40.19260 Y9.81359
G1 F300 X40.19140 Y9.18600
G1 F300 X40.17581 Y9.12083
G1 F300 X40.11855 Y9.04971
G1 F300 X40.00558 Y9.01072
G1 F300 X36.22065 Y9.01072
G1 F300 X36.14907 Y9.02497
G1 F300 X36.08841 Y9.06551
G1 F300 X35.74815 Y9.40576
G1 F300 X35.71054 Y9.45979
G1 F300 X35.69337 Y9.53797
;G04 P0 ; dwell for no time -- G64 should not smooth over this point 
G1 F3000 Z3.00000 ; retract 

G1 F3000 X43.32957 Y7.31392 ; rapid move to begin. 
G1 F300 F300.00000
G1 F300 Z-0.07000
;G04 P0 ; dwell for no time -- G64 should not smooth over this point 
G1 F300 F600.00000
G1 F300 X43.32957 Y7.31392
G1 F300 X43.37994 Y7.26353
G1 F300 X43.59089 Y7.27120
G1 F300 X43.75319 Y7.33843
G1 F300 X43.87737 Y7.46261
G1 F300 X43.94461 Y7.62489
G1 F300 X43.95408 Y7.72118
G1 F300 X43.95164 Y8.04892
G1 F300 X43.90186 Y8.09871
G1 F300 X43.56310 Y8.09871
G1 F300 X43.56279 Y7.95057
G1 F300 X43.53745 Y7.83490
G1 F300 X43.46975 Y7.73772
G1 F300 X43.42304 Y7.70086
G1 F300 X43.32957 Y7.66157
G1 F300 X43.32957 Y7.31392
;G04 P0 ; dwell for no time -- G64 should not smooth over this point 
G1 F3000 Z3.00000 ; retract 

G1 F3000 X43.30417 Y9.32207 ; rapid move to begin. 
G1 F300 F300.00000
G1 F300 Z-0.07000
;G04 P0 ; dwell for no time -- G64 should not smooth over this point 
G1 F300 F600.00000
G1 F300 X43.30417 Y9.32207
G1 F300 X43.32640 Y9.26444
G1 F300 X43.32868 Y9.16411
G1 F300 X43.42304 Y9.12456
G1 F300 X43.46975 Y9.08770
G1 F300 X43.53745 Y8.99052
G1 F300 X43.56279 Y8.87485
G1 F300 X43.56310 Y8.72672
G1 F300 X43.90186 Y8.72672
G1 F300 X43.95164 Y8.77650
G1 F300 X43.94461 Y9.20056
G1 F300 X43.85878 Y9.42781
G1 F300 X43.86559 Y9.49926
G1 F300 X43.91921 Y9.64422
G1 F300 X43.92868 Y9.74048
G1 F300 X43.92624 Y10.06822
G1 F300 X43.87646 Y10.11801
G1 F300 X43.53770 Y10.11801
G1 F300 X43.53739 Y9.96987
G1 F300 X43.51205 Y9.85420
G1 F300 X43.44435 Y9.75702
G1 F300 X43.39764 Y9.72016
G1 F300 X43.30417 Y9.68087
G1 F300 X43.30417 Y9.32207
;G04 P0 ; dwell for no time -- G64 should not smooth over this point 
G1 F3000 Z3.00000 ; retract 

G1 F3000 X43.29378 Y11.28577 ; rapid move to begin. 
G1 F300 F300.00000
G1 F300 Z-0.07000
;G04 P0 ; dwell for no time -- G64 should not smooth over this point 
G1 F300 F600.00000
G1 F300 X43.29378 Y11.28577
G1 F300 X43.30417 Y11.18315
G1 F300 X43.39764 Y11.14386
G1 F300 X43.44435 Y11.10700
G1 F300 X43.51205 Y11.00982
G1 F300 X43.53739 Y10.89415
G1 F300 X43.53770 Y10.74602
G1 F300 X43.87646 Y10.74602
G1 F300 X43.92624 Y10.79580
G1 F300 X43.91921 Y11.21983
G1 F300 X43.85106 Y11.41401
G1 F300 X43.85784 Y11.48536
G1 F300 X43.90879 Y11.62542
G1 F300 X43.91585 Y12.04942
G1 F300 X43.86607 Y12.09921
G1 F300 X43.52729 Y12.09921
G1 F300 X43.52701 Y11.95107
G1 F300 X43.50166 Y11.83540
G1 F300 X43.43397 Y11.73822
G1 F300 X43.38723 Y11.70136
G1 F300 X43.29378 Y11.66207
G1 F300 X43.29378 Y11.28577
;G04 P0 ; dwell for no time -- G64 should not smooth over this point 
G1 F3000 Z3.00000 ; retract 

G1 F3000 X43.06287 Y15.70862 ; rapid move to begin. 
G1 F300 F300.00000
G1 F300 Z-0.07000
;G04 P0 ; dwell for no time -- G64 should not smooth over this point 
G1 F300 F600.00000
G1 F300 X43.06287 Y15.70862
G1 F300 X43.11324 Y15.65823
G1 F300 X43.32419 Y15.66590
G1 F300 X43.40867 Y15.69153
G1 F300 X43.55472 Y15.78911
G1 F300 X43.65228 Y15.93514
G1 F300 X43.67791 Y16.01962
G1 F300 X43.68639 Y16.24741
G1 F300 X43.27725 Y16.24741
G1 F300 X43.20305 Y16.13242
G1 F300 X43.15634 Y16.09556
G1 F300 X43.06287 Y16.05627
G1 F300 X43.06287 Y15.70862
;G04 P0 ; dwell for no time -- G64 should not smooth over this point 
G1 F3000 Z3.00000 ; retract 

G1 F3000 X43.05017 Y17.58787 ; rapid move to begin. 
G1 F300 F300.00000
G1 F300 Z-0.07000
;G04 P0 ; dwell for no time -- G64 should not smooth over this point 
G1 F300 F600.00000
G1 F300 X43.05017 Y17.58787
G1 F300 X43.05932 Y17.55962
G1 F300 X43.15634 Y17.51926
G1 F300 X43.20305 Y17.48240
G1 F300 X43.27725 Y17.36742
G1 F300 X43.68639 Y17.36742
G1 F300 X43.67791 Y17.59523
G1 F300 X43.62823 Y17.75739
G1 F300 X43.67468 Y18.02088
G1 F300 X43.67224 Y18.34862
G1 F300 X43.62246 Y18.39841
G1 F300 X43.28370 Y18.39841
G1 F300 X43.28339 Y18.25027
G1 F300 X43.25805 Y18.13460
G1 F300 X43.19035 Y18.03742
G1 F300 X43.14364 Y18.00056
G1 F300 X43.05017 Y17.96127
G1 F300 X43.05017 Y17.58787
;G04 P0 ; dwell for no time -- G64 should not smooth over this point 
G1 F3000 Z3.00000 ; retract 

G1 F3000 X40.37377 Y14.99481 ; rapid move to begin. 
G1 F300 F300.00000
G1 F300 Z-0.07000
;G04 P0 ; dwell for no time -- G64 should not smooth over this point 
G1 F300 F600.00000
G1 F300 X40.37377 Y14.99481
G1 F300 X40.39976 Y14.90131
G1 F300 X40.44779 Y14.84680
G1 F300 X40.56079 Y14.80781
G1 F300 X52.03540 Y14.80781
G1 F300 X52.10695 Y14.82206
G1 F300 X52.16758 Y14.86257
G1 F300 X52.55277 Y15.24774
G1 F300 X52.60398 Y15.34347
G1 F300 X52.60756 Y19.36249
G1 F300 X52.59333 Y19.43409
G1 F300 X52.54845 Y19.49871
G1 F300 X52.45714 Y19.54590
G1 F300 X51.70776 Y19.54661
G1 F300 X51.54076 Y19.56462
G1 F300 X43.86150 Y19.56462
G1 F300 X43.75563 Y19.53170
G1 F300 X43.68804 Y19.44740
G1 F300 X43.67448 Y19.37900
G1 F300 X43.67224 Y19.07620
G1 F300 X43.62246 Y19.02642
G1 F300 X43.28367 Y19.02642
G1 F300 X43.28339 Y19.17455
G1 F300 X43.25805 Y19.29022
G1 F300 X43.19035 Y19.38740
G1 F300 X43.10151 Y19.44676
G1 F300 X42.97994 Y19.47242
G1 F300 X42.49244 Y19.47242
G1 F300 X42.38175 Y19.45129
G1 F300 X42.27369 Y19.37907
G1 F300 X42.21433 Y19.29022
G1 F300 X42.19366 Y19.22210
G1 F300 X42.18868 Y18.25617
G1 F300 X42.20981 Y18.14547
G1 F300 X42.24339 Y18.08268
G1 F300 X42.31896 Y18.00712
G1 F300 X42.42571 Y17.96020
G1 F300 X42.43486 Y17.55853
G1 F300 X42.34144 Y17.51926
G1 F300 X42.28639 Y17.47407
G1 F300 X42.22703 Y17.38522
G1 F300 X42.20864 Y17.32863
G1 F300 X42.19160 Y16.75515
G1 F300 X42.20864 Y16.28619
G1 F300 X42.22703 Y16.22960
G1 F300 X42.28639 Y16.14075
G1 F300 X42.34144 Y16.09556
G1 F300 X42.43486 Y16.05630
G1 F300 X42.43486 Y15.70862
G1 F300 X42.38449 Y15.65823
G1 F300 X42.17357 Y15.66590
G1 F300 X42.01126 Y15.73313
G1 F300 X41.85523 Y15.88508
G1 F300 X41.80064 Y15.91294
G1 F300 X41.72800 Y15.92008
G1 F300 X41.65830 Y15.89894
G1 F300 X41.50326 Y15.77425
G1 F300 X41.38320 Y15.71007
G1 F300 X41.25299 Y15.67060
G1 F300 X41.10842 Y15.65635
G1 F300 X40.54642 Y15.66239
G1 F300 X40.49630 Y15.65147
G1 F300 X40.41314 Y15.59059
G1 F300 X40.37687 Y15.50872
G1 F300 X40.37377 Y14.99481
;G04 P0 ; dwell for no time -- G64 should not smooth over this point 
G1 F3000 Z3.00000 ; retract 

G1 F3000 X37.46039 Y16.16813 ; rapid move to begin. 
G1 F300 F300.00000
G1 F300 Z-0.07000
;G04 P0 ; dwell for no time -- G64 should not smooth over this point 
G1 F300 F600.00000
G1 F300 X37.46039 Y16.16813
G1 F300 X37.47020 Y16.41139
G1 F300 X37.50578 Y16.46722
G1 F300 X37.58800 Y16.51014
G1 F300 X38.92531 Y16.51261
G1 F300 X38.98470 Y16.50082
G1 F300 X39.03499 Y16.46722
G1 F300 X39.07792 Y16.38495
G1 F300 X39.07058 Y16.11385
G1 F300 X39.03499 Y16.05802
G1 F300 X38.95277 Y16.01510
G1 F300 X37.60368 Y16.01378
G1 F300 X37.50578 Y16.05802
G1 F300 X37.47218 Y16.10829
G1 F300 X37.46039 Y16.16813
;G04 P0 ; dwell for no time -- G64 should not smooth over this point 
G1 F3000 Z3.00000 ; retract 

G1 F3000 X37.46039 Y16.81814 ; rapid move to begin. 
G1 F300 F300.00000
G1 F300 Z-0.07000
;G04 P0 ; dwell for no time -- G64 should not smooth over this point 
G1 F300 F600.00000
G1 F300 X37.46039 Y16.81814
G1 F300 X37.47020 Y17.06137
G1 F300 X37.50578 Y17.11720
G1 F300 X37.58800 Y17.16013
G1 F300 X38.92531 Y17.16262
G1 F300 X38.98470 Y17.15081
G1 F300 X39.03499 Y17.11720
G1 F300 X39.07792 Y17.03496
G1 F300 X39.07058 Y16.76384
G1 F300 X39.03499 Y16.70801
G1 F300 X38.95277 Y16.66508
G1 F300 X37.60368 Y16.66376
G1 F300 X37.50578 Y16.70801
G1 F300 X37.47218 Y16.75830
G1 F300 X37.46039 Y16.81814
;G04 P0 ; dwell for no time -- G64 should not smooth over this point 
G1 F3000 Z3.00000 ; retract 

G1 F3000 X37.46039 Y18.11814 ; rapid move to begin. 
G1 F300 F300.00000
G1 F300 Z-0.07000
;G04 P0 ; dwell for no time -- G64 should not smooth over this point 
G1 F300 F600.00000
G1 F300 X37.46039 Y18.11814
G1 F300 X37.47020 Y18.36140
G1 F300 X37.50578 Y18.41723
G1 F300 X37.58800 Y18.46013
G1 F300 X38.93126 Y18.46231
G1 F300 X39.02059 Y18.42904
G1 F300 X39.07741 Y18.33785
G1 F300 X39.07058 Y18.06384
G1 F300 X39.03499 Y18.00801
G1 F300 X38.95277 Y17.96508
G1 F300 X37.60368 Y17.96376
G1 F300 X37.50578 Y18.00801
G1 F300 X37.47218 Y18.05830
G1 F300 X37.46039 Y18.11814
;G04 P0 ; dwell for no time -- G64 should not smooth over this point 
G1 F3000 Z3.00000 ; retract 

G1 F3000 X37.46039 Y18.95708 ; rapid move to begin. 
G1 F300 F300.00000
G1 F300 Z-0.07000
;G04 P0 ; dwell for no time -- G64 should not smooth over this point 
G1 F300 F600.00000
G1 F300 X37.46039 Y18.95708
G1 F300 X37.47020 Y18.71385
G1 F300 X37.50578 Y18.65802
G1 F300 X37.58800 Y18.61509
G1 F300 X38.92531 Y18.61260
G1 F300 X38.98196 Y18.62335
G1 F300 X39.02714 Y18.65263
G1 F300 X40.30121 Y18.65263
G1 F300 X40.30118 Y16.82013
G1 F300 X40.32638 Y16.66226
G1 F300 X40.32668 Y16.34527
G1 F300 X40.35203 Y16.22960
G1 F300 X40.41139 Y16.14075
G1 F300 X40.46643 Y16.09556
G1 F300 X40.56516 Y16.05467
G1 F300 X40.63014 Y16.04741
G1 F300 X41.17108 Y16.05238
G1 F300 X41.28134 Y16.09556
G1 F300 X41.36669 Y16.17768
G1 F300 X41.41642 Y16.29772
G1 F300 X41.43313 Y16.77811
G1 F300 X41.42140 Y16.91720
G1 F300 X41.42119 Y18.71243
G1 F300 X41.40143 Y19.23363
G1 F300 X41.35399 Y19.34214
G1 F300 X41.27842 Y19.41771
G1 F300 X41.21563 Y19.45129
G1 F300 X41.10494 Y19.47242
G1 F300 X40.61744 Y19.47242
G1 F300 X40.50674 Y19.45129
G1 F300 X40.40702 Y19.38740
G1 F300 X40.33933 Y19.29022
G1 F300 X40.31866 Y19.22210
G1 F300 X40.31368 Y19.07262
G1 F300 X39.02712 Y19.07262
G1 F300 X38.98196 Y19.10188
G1 F300 X38.92539 Y19.11260
G1 F300 X37.61538 Y19.11260
G1 F300 X37.55608 Y19.10082
G1 F300 X37.50578 Y19.06721
G1 F300 X37.47218 Y19.01692
G1 F300 X37.46039 Y18.95708
;G04 P0 ; dwell for no time -- G64 should not smooth over this point 
G1 F3000 Z3.00000 ; retract 

G1 F3000 X37.46039 Y21.36815 ; rapid move to begin. 
G1 F300 F300.00000
G1 F300 Z-0.07000
;G04 P0 ; dwell for no time -- G64 should not smooth over this point 
G1 F300 F600.00000
G1 F300 X37.46039 Y21.36815
G1 F300 X37.47218 Y21.30831
G1 F300 X37.50578 Y21.25801
G1 F300 X37.55608 Y21.22441
G1 F300 X37.61538 Y21.21262
G1 F300 X38.92539 Y21.21262
G1 F300 X38.98196 Y21.22334
G1 F300 X39.02714 Y21.25263
G1 F300 X46.43665 Y21.25291
G1 F300 X46.51646 Y21.27112
G1 F300 X46.57490 Y21.31018
G1 F300 X47.16919 Y21.90401
G1 F300 X47.21219 Y21.96683
G1 F300 X47.23068 Y22.05250
G1 F300 X47.23040 Y29.00301
G1 F300 X47.21219 Y29.08281
G1 F300 X47.17313 Y29.14126
G1 F300 X46.58656 Y29.72823
G1 F300 X46.61656 Y29.78566
G1 F300 X46.63739 Y29.89048
G1 F300 X46.63769 Y30.38385
G1 F300 X46.61204 Y30.50542
G1 F300 X46.54435 Y30.60260
G1 F300 X46.45550 Y30.66198
G1 F300 X46.33983 Y30.68733
G1 F300 X44.37692 Y30.70013
G1 F300 X44.30409 Y30.72307
G1 F300 X44.30409 Y31.26734
G1 F300 X44.37382 Y31.30290
G1 F300 X44.44938 Y31.37849
G1 F300 X44.48296 Y31.44125
G1 F300 X44.50379 Y31.54608
G1 F300 X44.49911 Y32.09289
G1 F300 X44.47844 Y32.16101
G1 F300 X44.41908 Y32.24989
G1 F300 X44.32190 Y32.31758
G1 F300 X44.20623 Y32.34293
G1 F300 X43.79635 Y32.35299
G1 F300 X43.28195 Y32.34293
G1 F300 X43.17715 Y32.32208
G1 F300 X43.11436 Y32.28852
G1 F300 X43.06909 Y32.24989
G1 F300 X43.00974 Y32.16101
G1 F300 X42.98408 Y32.03948
G1 F300 X42.98906 Y31.49853
G1 F300 X43.00974 Y31.43041
G1 F300 X43.06909 Y31.34153
G1 F300 X43.18408 Y31.26734
G1 F300 X43.18408 Y30.68474
G1 F300 X43.08304 Y30.58797
G1 F300 X43.04215 Y30.48924
G1 F300 X43.03488 Y30.42426
G1 F300 X43.03986 Y29.88332
G1 F300 X43.08304 Y29.77306
G1 F300 X43.12823 Y29.71802
G1 F300 X43.21708 Y29.65866
G1 F300 X43.28520 Y29.63798
G1 F300 X43.60117 Y29.63300
G1 F300 X43.72030 Y29.59231
G1 F300 X43.83529 Y29.58012
G1 F300 X45.87770 Y29.58012
G1 F300 X46.12822 Y29.59262
G1 F300 X46.81069 Y28.91014
G1 F300 X46.81069 Y22.13949
G1 F300 X46.34379 Y21.67262
G1 F300 X39.02712 Y21.67262
G1 F300 X38.98196 Y21.70188
G1 F300 X38.92539 Y21.71262
G1 F300 X37.61538 Y21.71262
G1 F300 X37.54569 Y21.69527
G1 F300 X37.47337 Y21.61963
G1 F300 X37.46039 Y21.36815
;G04 P0 ; dwell for no time -- G64 should not smooth over this point 
G1 F3000 Z3.00000 ; retract 

G1 F3000 X37.46039 Y23.31813 ; rapid move to begin. 
G1 F300 F300.00000
G1 F300 Z-0.07000
;G04 P0 ; dwell for no time -- G64 should not smooth over this point 
G1 F300 F600.00000
G1 F300 X37.46039 Y23.31813
G1 F300 X37.47020 Y23.56139
G1 F300 X37.50578 Y23.61722
G1 F300 X37.58800 Y23.66014
G1 F300 X38.92531 Y23.66261
G1 F300 X38.98470 Y23.65082
G1 F300 X39.03499 Y23.61722
G1 F300 X39.07792 Y23.53495
G1 F300 X39.07058 Y23.26385
G1 F300 X39.03499 Y23.20802
G1 F300 X38.95277 Y23.16510
G1 F300 X37.60368 Y23.16378
G1 F300 X37.50578 Y23.20802
G1 F300 X37.47218 Y23.25829
G1 F300 X37.46039 Y23.31813
;G04 P0 ; dwell for no time -- G64 should not smooth over this point 
G1 F3000 Z3.00000 ; retract 

G1 F3000 X37.46222 Y23.94907 ; rapid move to begin. 
G1 F300 F300.00000
G1 F300 Z-0.07000
;G04 P0 ; dwell for no time -- G64 should not smooth over this point 
G1 F300 F600.00000
G1 F300 X37.46222 Y23.94907
G1 F300 X37.47020 Y24.21137
G1 F300 X37.50578 Y24.26720
G1 F300 X37.58800 Y24.31013
G1 F300 X38.92531 Y24.31262
G1 F300 X38.98196 Y24.30187
G1 F300 X39.02712 Y24.27261
G1 F300 X39.42209 Y24.27261
G1 F300 X39.40781 Y24.42097
G1 F300 X39.43065 Y24.63510
G1 F300 X39.49912 Y24.84586
G1 F300 X39.61388 Y25.04264
G1 F300 X39.75820 Y25.20246
G1 F300 X39.93222 Y25.32928
G1 F300 X40.13994 Y25.42283
G1 F300 X40.35048 Y25.46791
G1 F300 X40.57829 Y25.46890
G1 F300 X40.78899 Y25.42445
G1 F300 X41.00275 Y25.32928
G1 F300 X41.17677 Y25.20246
G1 F300 X41.32846 Y25.03250
G1 F300 X41.43585 Y24.84586
G1 F300 X41.50433 Y24.63510
G1 F300 X41.52716 Y24.42097
G1 F300 X41.50433 Y24.19433
G1 F300 X41.43585 Y23.98356
G1 F300 X41.32846 Y23.79692
G1 F300 X41.17677 Y23.62697
G1 F300 X41.00275 Y23.50015
G1 F300 X40.79503 Y23.40660
G1 F300 X40.58449 Y23.36151
G1 F300 X40.35048 Y23.36151
G1 F300 X40.13994 Y23.40660
G1 F300 X39.94309 Y23.49387
G1 F300 X39.75820 Y23.62697
G1 F300 X39.61388 Y23.78679
G1 F300 X39.57436 Y23.85262
G1 F300 X39.02712 Y23.85262
G1 F300 X38.98196 Y23.82336
G1 F300 X38.92539 Y23.81262
G1 F300 X37.61538 Y23.81262
G1 F300 X37.55608 Y23.82440
G1 F300 X37.50578 Y23.85801
G1 F300 X37.46222 Y23.94907
;G04 P0 ; dwell for no time -- G64 should not smooth over this point 
G1 F3000 Z3.00000 ; retract 

G1 F3000 X37.46039 Y25.26814 ; rapid move to begin. 
G1 F300 F300.00000
G1 F300 Z-0.07000
;G04 P0 ; dwell for no time -- G64 should not smooth over this point 
G1 F300 F600.00000
G1 F300 X37.46039 Y25.26814
G1 F300 X37.47020 Y25.51140
G1 F300 X37.50578 Y25.56722
G1 F300 X37.58800 Y25.61013
G1 F300 X38.93126 Y25.61234
G1 F300 X39.02059 Y25.57904
G1 F300 X39.07741 Y25.48785
G1 F300 X39.07058 Y25.21383
G1 F300 X39.03499 Y25.15801
G1 F300 X38.95277 Y25.11510
G1 F300 X37.60368 Y25.11376
G1 F300 X37.50578 Y25.15801
G1 F300 X37.47218 Y25.20830
G1 F300 X37.46039 Y25.26814
;G04 P0 ; dwell for no time -- G64 should not smooth over this point 
G1 F3000 Z3.00000 ; retract 

G1 F3000 X37.46039 Y25.91813 ; rapid move to begin. 
G1 F300 F300.00000
G1 F300 Z-0.07000
;G04 P0 ; dwell for no time -- G64 should not smooth over this point 
G1 F300 F600.00000
G1 F300 X37.46039 Y25.91813
G1 F300 X37.47020 Y26.16138
G1 F300 X37.50578 Y26.21721
G1 F300 X37.58800 Y26.26014
G1 F300 X38.92531 Y26.26260
G1 F300 X38.98470 Y26.25082
G1 F300 X39.03499 Y26.21721
G1 F300 X39.07792 Y26.13494
G1 F300 X39.07058 Y25.86385
G1 F300 X39.03499 Y25.80802
G1 F300 X38.95277 Y25.76509
G1 F300 X37.60368 Y25.76377
G1 F300 X37.50578 Y25.80802
G1 F300 X37.47218 Y25.85831
G1 F300 X37.46039 Y25.91813
;G04 P0 ; dwell for no time -- G64 should not smooth over this point 
G1 F3000 Z3.00000 ; retract 

G1 F3000 X43.03488 Y28.06176 ; rapid move to begin. 
G1 F300 F300.00000
G1 F300 Z-0.07000
;G04 P0 ; dwell for no time -- G64 should not smooth over this point 
G1 F300 F600.00000
G1 F300 X43.03488 Y28.06176
G1 F300 X43.03488 Y28.54926
G1 F300 X43.05601 Y28.65995
G1 F300 X43.12823 Y28.76801
G1 F300 X43.21708 Y28.82737
G1 F300 X43.28520 Y28.84804
G1 F300 X43.74263 Y28.86280
G1 F300 X44.30458 Y28.84804
G1 F300 X44.37270 Y28.82737
G1 F300 X44.46155 Y28.76801
G1 F300 X44.50673 Y28.71296
G1 F300 X44.54621 Y28.61888
G1 F300 X44.69790 Y28.61586
G1 F300 X44.77603 Y28.57913
G1 F300 X45.12657 Y28.57913
G1 F300 X45.17239 Y28.68236
G1 F300 X45.24796 Y28.75792
G1 F300 X45.31075 Y28.79148
G1 F300 X45.42144 Y28.81261
G1 F300 X45.92995 Y28.82239
G1 F300 X46.38738 Y28.80763
G1 F300 X46.50742 Y28.75792
G1 F300 X46.55268 Y28.71929
G1 F300 X46.61204 Y28.63041
G1 F300 X46.63769 Y28.50888
G1 F300 X46.63271 Y27.96793
G1 F300 X46.61204 Y27.89981
G1 F300 X46.55268 Y27.81093
G1 F300 X46.43769 Y27.73674
G1 F300 X46.43739 Y27.40603
G1 F300 X46.40284 Y27.22430
G1 F300 X46.42268 Y27.14208
G1 F300 X46.42268 Y22.37767
G1 F300 X46.40843 Y22.30612
G1 F300 X46.37536 Y22.25456
G1 F300 X46.23785 Y22.11542
G1 F300 X46.17719 Y22.07488
G1 F300 X46.10564 Y22.06063
G1 F300 X43.25909 Y22.06063
G1 F300 X43.16023 Y22.08913
G1 F300 X43.09805 Y22.15413
G1 F300 X43.07207 Y22.24762
G1 F300 X43.07207 Y27.18117
G1 F300 X43.11070 Y27.29371
G1 F300 X43.15446 Y27.33618
G1 F300 X43.23506 Y27.36572
G1 F300 X43.23491 Y27.77715
G1 F300 X43.16516 Y27.81271
G1 F300 X43.08959 Y27.88828
G1 F300 X43.05601 Y27.95107
G1 F300 X43.03488 Y28.06176
;G04 P0 ; dwell for no time -- G64 should not smooth over this point 
G1 F3000 Z3.00000 ; retract 

G1 F3000 X44.35489 Y27.54228 ; rapid move to begin. 
G1 F300 F300.00000
G1 F300 Z-0.07000
;G04 P0 ; dwell for no time -- G64 should not smooth over this point 
G1 F300 F600.00000
G1 F300 X44.35489 Y27.54228
G1 F300 X44.35489 Y27.77715
G1 F300 X44.46988 Y27.85135
G1 F300 X44.50673 Y27.89806
G1 F300 X44.54603 Y27.99153
G1 F300 X44.89652 Y27.99153
G1 F300 X44.97465 Y27.95480
G1 F300 X45.12634 Y27.95178
G1 F300 X45.16584 Y27.85767
G1 F300 X45.20269 Y27.81093
G1 F300 X45.31768 Y27.73674
G1 F300 X45.31768 Y27.64388
G1 F300 X45.02853 Y27.35470
G1 F300 X44.82200 Y27.44916
G1 F300 X44.75024 Y27.44225
G1 F300 X44.66797 Y27.40237
G1 F300 X44.52622 Y27.37096
G1 F300 X44.35489 Y27.54228
;G04 P0 ; dwell for no time -- G64 should not smooth over this point 
G1 F3000 Z3.00000 ; retract 

G1 F3000 X44.55154 Y32.74214 ; rapid move to begin. 
G1 F300 F300.00000
G1 F300 Z-0.07000
;G04 P0 ; dwell for no time -- G64 should not smooth over this point 
G1 F300 F600.00000
G1 F300 X44.55154 Y32.74214
G1 F300 X44.55929 Y32.68001
G1 F300 X44.58857 Y32.62159
G1 F300 X44.69058 Y32.53066
G1 F300 X44.77730 Y32.42500
G1 F300 X44.84143 Y32.30503
G1 F300 X44.88090 Y32.17486
G1 F300 X44.89515 Y32.03031
G1 F300 X44.89515 Y31.56117
G1 F300 X44.84735 Y31.25891
G1 F300 X44.86962 Y31.18535
G1 F300 X44.91964 Y31.12698
G1 F300 X45.03343 Y31.08812
G1 F300 X45.92441 Y31.08812
G1 F300 X46.46929 Y31.06447
G1 F300 X46.59947 Y31.02497
G1 F300 X46.71943 Y30.96086
G1 F300 X46.82459 Y30.87453
G1 F300 X46.91090 Y30.76937
G1 F300 X46.97503 Y30.64943
G1 F300 X47.01450 Y30.51923
G1 F300 X47.02875 Y30.37468
G1 F300 X47.02875 Y29.91220
G1 F300 X47.04300 Y29.84065
G1 F300 X47.08354 Y29.77999
G1 F300 X47.52029 Y29.33095
G1 F300 X47.57584 Y29.22709
G1 F300 X47.61003 Y29.11433
G1 F300 X47.62161 Y28.99666
G1 F300 X47.61867 Y26.70870
G1 F300 X47.65684 Y26.59585
G1 F300 X47.73779 Y26.53471
G1 F300 X47.82514 Y26.52295
G1 F300 X47.89766 Y26.54617
G1 F300 X48.03431 Y26.65447
G1 F300 X48.15425 Y26.71858
G1 F300 X48.28443 Y26.75805
G1 F300 X48.42900 Y26.77228
G1 F300 X48.89814 Y26.77228
G1 F300 X49.04272 Y26.75805
G1 F300 X49.17289 Y26.71858
G1 F300 X49.29296 Y26.65440
G1 F300 X49.44800 Y26.52971
G1 F300 X49.54848 Y26.50827
G1 F300 X49.64998 Y26.54660
G1 F300 X49.80096 Y26.69552
G1 F300 X49.87878 Y26.73712
G1 F300 X49.97858 Y26.76425
G1 F300 X49.99108 Y25.16497
G1 F300 X49.99834 Y25.09999
G1 F300 X50.03926 Y25.00126
G1 F300 X50.13113 Y24.90936
G1 F300 X50.22986 Y24.86847
G1 F300 X50.28897 Y24.86151
G1 F300 X50.83578 Y24.86618
G1 F300 X50.90390 Y24.88686
G1 F300 X50.99275 Y24.94622
G1 F300 X51.06044 Y25.04340
G1 F300 X51.08607 Y25.16497
G1 F300 X51.09857 Y25.62120
G1 F300 X51.09857 Y27.91990
G1 F300 X51.08640 Y28.03489
G1 F300 X51.00723 Y28.22597
G1 F300 X50.82338 Y28.42709
G1 F300 X50.82338 Y34.02393
G1 F300 X50.78440 Y34.13691
G1 F300 X50.72989 Y34.18494
G1 F300 X50.63639 Y34.21092
G1 F300 X45.02660 Y34.20526
G1 F300 X44.92883 Y34.14463
G1 F300 X44.88652 Y34.05067
G1 F300 X44.89515 Y33.43614
G1 F300 X44.88090 Y33.29159
G1 F300 X44.84143 Y33.16142
G1 F300 X44.77730 Y33.04148
G1 F300 X44.69055 Y32.93579
G1 F300 X44.58713 Y32.84247
G1 F300 X44.55154 Y32.74214
;G04 P0 ; dwell for no time -- G64 should not smooth over this point 
G1 F3000 Z3.00000 ; retract 

G1 F3000 X39.78609 Y31.73081 ; rapid move to begin. 
G1 F300 F300.00000
G1 F300 Z-0.07000
;G04 P0 ; dwell for no time -- G64 should not smooth over this point 
G1 F300 F600.00000
G1 F300 X39.78609 Y31.73081
G1 F300 X39.78609 Y33.43081
G1 F300 X39.79620 Y33.46414
G1 F300 X39.82313 Y33.48623
G1 F300 X40.81411 Y33.49081
G1 F300 X41.39435 Y34.07066
G1 F300 X41.56635 Y34.18557
G1 F300 X41.68256 Y34.22083
G1 F300 X43.74410 Y34.23073
G1 F300 X44.20623 Y34.21793
G1 F300 X44.31103 Y34.19708
G1 F300 X44.37382 Y34.16352
G1 F300 X44.41908 Y34.12489
G1 F300 X44.47844 Y34.03602
G1 F300 X44.50409 Y33.91445
G1 F300 X44.49911 Y33.37353
G1 F300 X44.47844 Y33.30541
G1 F300 X44.41908 Y33.21654
G1 F300 X44.31103 Y33.14435
G1 F300 X44.20623 Y33.12350
G1 F300 X43.74410 Y33.11072
G1 F300 X42.01794 Y33.11072
G1 F300 X41.60608 Y32.69886
G1 F300 X41.60608 Y31.73081
G1 F300 X41.59597 Y31.69749
G1 F300 X41.56905 Y31.67539
G1 F300 X39.84609 Y31.67082
G1 F300 X39.80367 Y31.68840
G1 F300 X39.78609 Y31.73081
;G04 P0 ; dwell for no time -- G64 should not smooth over this point 
G1 F3000 Z3.00000 ; retract 

G1 F3000 X37.24642 Y32.57455 ; rapid move to begin. 
G1 F300 F300.00000
G1 F300 Z-0.07000
;G04 P0 ; dwell for no time -- G64 should not smooth over this point 
G1 F300 F600.00000
G1 F300 X37.24642 Y32.57455
G1 F300 X37.26598 Y32.77000
G1 F300 X37.32476 Y32.95095
G1 F300 X37.42384 Y33.12058
G1 F300 X37.59608 Y33.29302
G1 F300 X37.60599 Y33.88633
G1 F300 X37.63672 Y33.99167
G1 F300 X37.69397 Y34.09875
G1 F300 X39.13611 Y35.55489
G1 F300 X39.22602 Y35.62756
G1 F300 X39.41711 Y35.70673
G1 F300 X39.53209 Y35.71892
G1 F300 X51.52917 Y35.71892
G1 F300 X51.64413 Y35.70673
G1 F300 X51.83519 Y35.62756
G1 F300 X51.92514 Y35.55489
G1 F300 X52.23344 Y35.23256
G1 F300 X52.29072 Y35.12547
G1 F300 X52.32145 Y35.02014
G1 F300 X52.33133 Y34.91671
G1 F300 X52.33133 Y23.53840
G1 F300 X52.31914 Y23.42349
G1 F300 X52.24004 Y23.23241
G1 F300 X52.09956 Y23.07505
G1 F300 X52.01401 Y23.00630
G1 F300 X51.91668 Y22.95557
G1 F300 X51.81132 Y22.92481
G1 F300 X51.70784 Y22.91491
G1 F300 X51.06695 Y22.91491
G1 F300 X50.99275 Y22.79992
G1 F300 X50.90390 Y22.74056
G1 F300 X50.83578 Y22.71988
G1 F300 X50.22986 Y22.72217
G1 F300 X50.13113 Y22.76306
G1 F300 X50.07609 Y22.80825
G1 F300 X50.01673 Y22.89710
G1 F300 X49.99606 Y22.96522
G1 F300 X49.98132 Y23.42265
G1 F300 X49.99138 Y23.93705
G1 F300 X50.01673 Y24.05272
G1 F300 X50.08442 Y24.14990
G1 F300 X50.17327 Y24.20926
G1 F300 X50.24139 Y24.22994
G1 F300 X50.83578 Y24.22994
G1 F300 X50.90390 Y24.20926
G1 F300 X50.99275 Y24.14990
G1 F300 X51.06695 Y24.03492
G1 F300 X51.21132 Y24.03492
G1 F300 X51.21132 Y34.59891
G1 F300 X39.76405 Y34.59891
G1 F300 X38.71609 Y33.55095
G1 F300 X38.71609 Y33.29302
G1 F300 X38.88833 Y33.12058
G1 F300 X38.98742 Y32.95095
G1 F300 X39.04619 Y32.77000
G1 F300 X39.06575 Y32.58707
G1 F300 X39.04619 Y32.39162
G1 F300 X38.98742 Y32.21067
G1 F300 X38.88833 Y32.04105
G1 F300 X38.76011 Y31.90059
G1 F300 X38.60550 Y31.78987
G1 F300 X38.44315 Y31.71761
G1 F300 X38.24492 Y31.67547
G1 F300 X38.06725 Y31.67547
G1 F300 X37.88094 Y31.71372
G1 F300 X37.70667 Y31.78987
G1 F300 X37.54719 Y31.90455
G1 F300 X37.41645 Y32.05118
G1 F300 X37.32476 Y32.21067
G1 F300 X37.26761 Y32.38555
G1 F300 X37.24642 Y32.57455
;G04 P0 ; dwell for no time -- G64 should not smooth over this point 
G1 F3000 Z3.00000 ; retract 

G1 F3000 X34.70642 Y32.57455 ; rapid move to begin. 
G1 F300 F300.00000
G1 F300 Z-0.07000
;G04 P0 ; dwell for no time -- G64 should not smooth over this point 
G1 F300 F600.00000
G1 F300 X34.70642 Y32.57455
G1 F300 X34.72598 Y32.39162
G1 F300 X34.78252 Y32.21654
G1 F300 X34.88384 Y32.04105
G1 F300 X35.00719 Y31.90455
G1 F300 X35.15583 Y31.79614
G1 F300 X35.33487 Y31.71535
G1 F300 X35.51475 Y31.67679
G1 F300 X35.70492 Y31.67547
G1 F300 X35.89730 Y31.71535
G1 F300 X36.06550 Y31.78987
G1 F300 X36.22011 Y31.90059
G1 F300 X36.35572 Y32.05118
G1 F300 X36.44742 Y32.21067
G1 F300 X36.50718 Y32.39782
G1 F300 X36.52575 Y32.58707
G1 F300 X36.50718 Y32.76381
G1 F300 X36.44965 Y32.94509
G1 F300 X36.35572 Y33.11044
G1 F300 X36.22499 Y33.25707
G1 F300 X36.06550 Y33.37176
G1 F300 X35.89730 Y33.44628
G1 F300 X35.82608 Y33.46175
G1 F300 X35.82608 Y35.12273
G1 F300 X37.95097 Y37.24762
G1 F300 X51.07388 Y37.24762
G1 F300 X52.41137 Y35.91013
G1 F300 X52.41137 Y20.37419
G1 F300 X52.39468 Y20.35751
G1 F300 X51.76633 Y20.35751
G1 F300 X51.69184 Y20.37262
G1 F300 X39.02712 Y20.37262
G1 F300 X38.98196 Y20.40188
G1 F300 X38.92539 Y20.41263
G1 F300 X37.61538 Y20.41263
G1 F300 X37.52687 Y20.38479
G1 F300 X37.47114 Y20.31417
G1 F300 X37.46154 Y20.05591
G1 F300 X37.50578 Y19.95802
G1 F300 X37.55608 Y19.92441
G1 F300 X37.61538 Y19.91260
G1 F300 X38.92539 Y19.91260
G1 F300 X38.98196 Y19.92334
G1 F300 X39.02714 Y19.95263
G1 F300 X51.63248 Y19.95263
G1 F300 X51.70700 Y19.93752
G1 F300 X52.48170 Y19.93752
G1 F300 X52.60045 Y19.97437
G1 F300 X52.79249 Y20.16581
G1 F300 X52.83138 Y20.28720
G1 F300 X52.83110 Y36.00299
G1 F300 X52.81289 Y36.08280
G1 F300 X52.76989 Y36.14561
G1 F300 X51.28224 Y37.62872
G1 F300 X51.16087 Y37.66761
G1 F300 X37.86400 Y37.66761
G1 F300 X37.78917 Y37.65361
G1 F300 X37.71549 Y37.60611
G1 F300 X35.43845 Y35.32133
G1 F300 X35.40609 Y35.20973
G1 F300 X35.40609 Y33.46175
G1 F300 X35.33487 Y33.44628
G1 F300 X35.15583 Y33.36548
G1 F300 X35.00719 Y33.25707
G1 F300 X34.88384 Y33.12058
G1 F300 X34.78252 Y32.94509
G1 F300 X34.72598 Y32.77000
G1 F300 X34.70642 Y32.57455
;G04 P0 ; dwell for no time -- G64 should not smooth over this point 
G1 F3000 Z3.00000 ; retract 

G1 F3000 X32.16642 Y32.57455 ; rapid move to begin. 
G1 F300 F300.00000
G1 F300 Z-0.07000
;G04 P0 ; dwell for no time -- G64 should not smooth over this point 
G1 F300 F600.00000
G1 F300 X32.16642 Y32.57455
G1 F300 X32.18598 Y32.39162
G1 F300 X32.24476 Y32.21067
G1 F300 X32.34384 Y32.04105
G1 F300 X32.47206 Y31.90059
G1 F300 X32.62667 Y31.78987
G1 F300 X32.78903 Y31.71761
G1 F300 X32.98725 Y31.67547
G1 F300 X33.16492 Y31.67547
G1 F300 X33.35123 Y31.71372
G1 F300 X33.55222 Y31.80767
G1 F300 X34.64209 Y30.71781
G1 F300 X34.74391 Y30.66178
G1 F300 X42.00610 Y30.65632
G1 F300 X42.26409 Y30.39833
G1 F300 X42.26409 Y22.32263
G1 F300 X39.02709 Y22.32263
G1 F300 X38.98196 Y22.35186
G1 F300 X38.92539 Y22.36261
G1 F300 X37.61538 Y22.36261
G1 F300 X37.52455 Y22.33299
G1 F300 X37.47218 Y22.26693
G1 F300 X37.46039 Y22.01760
G1 F300 X37.47218 Y21.95829
G1 F300 X37.50578 Y21.90800
G1 F300 X37.55608 Y21.87442
G1 F300 X37.61538 Y21.86261
G1 F300 X38.92539 Y21.86261
G1 F300 X38.98196 Y21.87335
G1 F300 X39.02714 Y21.90264
G1 F300 X42.40720 Y21.90264
G1 F300 X42.49285 Y21.92113
G1 F300 X42.55662 Y21.96512
G1 F300 X42.65170 Y22.06787
G1 F300 X42.68408 Y22.17950
G1 F300 X42.68408 Y30.48530
G1 F300 X42.66559 Y30.57100
G1 F300 X42.62259 Y30.63381
G1 F300 X42.23722 Y31.01875
G1 F300 X42.17877 Y31.05782
G1 F300 X42.09897 Y31.07603
G1 F300 X34.87757 Y31.07631
G1 F300 X33.84755 Y32.10633
G1 F300 X33.90742 Y32.21067
G1 F300 X33.96457 Y32.38555
G1 F300 X33.98575 Y32.58707
G1 F300 X33.96457 Y32.77608
G1 F300 X33.90742 Y32.95095
G1 F300 X33.81572 Y33.11044
G1 F300 X33.68499 Y33.25707
G1 F300 X33.53635 Y33.36548
G1 F300 X33.35730 Y33.44628
G1 F300 X33.17742 Y33.48484
G1 F300 X32.98725 Y33.48616
G1 F300 X32.79487 Y33.44628
G1 F300 X32.62667 Y33.37176
G1 F300 X32.46719 Y33.25707
G1 F300 X32.33645 Y33.11044
G1 F300 X32.24476 Y32.95095
G1 F300 X32.18598 Y32.77000
G1 F300 X32.16642 Y32.57455
;G04 P0 ; dwell for no time -- G64 should not smooth over this point 
G1 F3000 Z3.00000 ; retract 

G1 F3000 X26.88810 Y32.96035 ; rapid move to begin. 
G1 F300 F300.00000
G1 F300 Z-0.07000
;G04 P0 ; dwell for no time -- G64 should not smooth over this point 
G1 F300 F600.00000
G1 F300 X26.88810 Y32.96035
G1 F300 X26.89788 Y33.46886
G1 F300 X26.91901 Y33.57955
G1 F300 X26.99123 Y33.68760
G1 F300 X27.08007 Y33.74696
G1 F300 X27.14820 Y33.76764
G1 F300 X27.75411 Y33.76535
G1 F300 X27.85284 Y33.72446
G1 F300 X27.89955 Y33.68760
G1 F300 X27.97375 Y33.57262
G1 F300 X30.17369 Y33.56607
G1 F300 X30.17687 Y37.64515
G1 F300 X30.23519 Y37.75851
G1 F300 X30.79399 Y38.31731
G1 F300 X30.89581 Y38.37335
G1 F300 X51.98640 Y38.37881
G1 F300 X52.10779 Y38.33992
G1 F300 X53.31599 Y37.13621
G1 F300 X53.35899 Y37.07340
G1 F300 X53.37718 Y36.99359
G1 F300 X53.37748 Y31.44837
G1 F300 X53.41558 Y31.33181
G1 F300 X53.41558 Y15.05480
G1 F300 X53.37669 Y14.93341
G1 F300 X52.50908 Y14.06133
G1 F300 X52.44624 Y14.01833
G1 F300 X52.36643 Y14.00012
G1 F300 X39.74063 Y14.00301
G1 F300 X39.69008 Y14.01833
G1 F300 X39.62333 Y14.06570
G1 F300 X39.58427 Y14.12414
G1 F300 X39.56605 Y14.20395
G1 F300 X39.56577 Y17.35264
G1 F300 X39.02714 Y17.35264
G1 F300 X38.98196 Y17.32335
G1 F300 X38.92539 Y17.31261
G1 F300 X37.61538 Y17.31261
G1 F300 X37.55608 Y17.32442
G1 F300 X37.50578 Y17.35802
G1 F300 X37.47218 Y17.40829
G1 F300 X37.46039 Y17.46762
G1 F300 X37.46039 Y17.65761
G1 F300 X37.47469 Y17.72226
G1 F300 X37.52687 Y17.78479
G1 F300 X37.61538 Y17.81260
G1 F300 X38.92539 Y17.81260
G1 F300 X38.98196 Y17.80189
G1 F300 X39.02709 Y17.77263
G1 F300 X39.81091 Y17.76945
G1 F300 X39.86146 Y17.75413
G1 F300 X39.92821 Y17.70676
G1 F300 X39.97177 Y17.63745
G1 F300 X39.98576 Y17.56262
G1 F300 X39.98576 Y14.41983
G1 F300 X52.27360 Y14.41983
G1 F300 X52.99559 Y15.14179
G1 F300 X52.99559 Y31.25335
G1 F300 X52.95747 Y31.36993
G1 F300 X52.95747 Y36.90073
G1 F300 X51.89941 Y37.95882
G1 F300 X31.02947 Y37.95882
G1 F300 X30.59368 Y37.52303
G1 F300 X30.59368 Y33.48616
G1 F300 X30.81730 Y33.44628
G1 F300 X30.99635 Y33.36548
G1 F300 X31.14499 Y33.25707
G1 F300 X31.26833 Y33.12058
G1 F300 X31.36742 Y32.95095
G1 F300 X31.42718 Y32.76381
G1 F300 X31.44575 Y32.58707
G1 F300 X31.42718 Y32.39782
G1 F300 X31.36742 Y32.21067
G1 F300 X31.26833 Y32.04105
G1 F300 X31.14499 Y31.90455
G1 F300 X30.98550 Y31.78987
G1 F300 X30.81123 Y31.71372
G1 F300 X30.62492 Y31.67547
G1 F300 X30.44725 Y31.67547
G1 F300 X30.24903 Y31.71761
G1 F300 X30.07583 Y31.79614
G1 F300 X29.92719 Y31.90455
G1 F300 X29.80384 Y32.04105
G1 F300 X29.70760 Y32.20508
G1 F300 X29.63923 Y32.45261
G1 F300 X27.97375 Y32.45261
G1 F300 X27.89955 Y32.33762
G1 F300 X27.85284 Y32.30076
G1 F300 X27.75411 Y32.25987
G1 F300 X27.13667 Y32.25987
G1 F300 X27.03794 Y32.30076
G1 F300 X26.99123 Y32.33762
G1 F300 X26.91901 Y32.44567
G1 F300 X26.89819 Y32.55047
G1 F300 X26.88810 Y32.96035
;G04 P0 ; dwell for no time -- G64 should not smooth over this point 
G1 F3000 Z3.00000 ; retract 

G1 F3000 X24.51071 Y35.45745 ; rapid move to begin. 
G1 F300 F300.00000
G1 F300 Z-0.07000
;G04 P0 ; dwell for no time -- G64 should not smooth over this point 
G1 F300 F600.00000
G1 F300 X24.51071 Y35.45745
G1 F300 X24.53355 Y35.24333
G1 F300 X24.60487 Y35.02697
G1 F300 X24.71678 Y34.83579
G1 F300 X24.86110 Y34.67597
G1 F300 X25.01038 Y34.56711
G1 F300 X25.01038 Y33.01260
G1 F300 X25.02318 Y32.55047
G1 F300 X25.04853 Y32.43480
G1 F300 X25.10789 Y32.34595
G1 F300 X25.15315 Y32.30732
G1 F300 X25.27319 Y32.25758
G1 F300 X25.81411 Y32.25261
G1 F300 X25.93568 Y32.27826
G1 F300 X26.02453 Y32.33762
G1 F300 X26.06319 Y32.38288
G1 F300 X26.09671 Y32.44567
G1 F300 X26.11759 Y32.55047
G1 F300 X26.13037 Y34.56711
G1 F300 X26.27967 Y34.67597
G1 F300 X26.43133 Y34.84592
G1 F300 X26.53875 Y35.03256
G1 F300 X26.60560 Y35.23726
G1 F300 X26.63006 Y35.46997
G1 F300 X26.60723 Y35.68410
G1 F300 X26.53875 Y35.89486
G1 F300 X26.43133 Y36.08150
G1 F300 X26.28411 Y36.24701
G1 F300 X26.09478 Y36.38455
G1 F300 X25.89793 Y36.47183
G1 F300 X25.68119 Y36.51790
G1 F300 X25.45958 Y36.51790
G1 F300 X25.24889 Y36.47345
G1 F300 X25.04599 Y36.38455
G1 F300 X24.86598 Y36.25539
G1 F300 X24.70942 Y36.08150
G1 F300 X24.60203 Y35.89486
G1 F300 X24.53517 Y35.69017
G1 F300 X24.51071 Y35.45745
;G04 P0 ; dwell for no time -- G64 should not smooth over this point 
G1 F3000 Z3.00000 ; retract 

G1 F3000 X18.47171 Y30.43473 ; rapid move to begin. 
G1 F300 F300.00000
G1 F300 Z-0.07000
;G04 P0 ; dwell for no time -- G64 should not smooth over this point 
G1 F300 F600.00000
G1 F300 X18.47171 Y30.43473
G1 F300 X18.48395 Y30.59284
G1 F300 X18.47941 Y35.91981
G1 F300 X18.49106 Y36.03398
G1 F300 X18.52624 Y36.10121
G1 F300 X18.58530 Y36.14889
G1 F300 X18.67067 Y36.16954
G1 F300 X18.74499 Y36.15415
G1 F300 X18.80290 Y36.11498
G1 F300 X25.00543 Y29.90831
G1 F300 X25.09682 Y29.83331
G1 F300 X25.20073 Y29.77776
G1 F300 X25.31345 Y29.74357
G1 F300 X25.43113 Y29.73199
G1 F300 X41.04139 Y29.73493
G1 F300 X41.13488 Y29.70895
G1 F300 X41.19686 Y29.65182
G1 F300 X41.22594 Y29.57275
G1 F300 X41.22414 Y25.90736
G1 F300 X41.19686 Y25.84281
G1 F300 X41.15434 Y25.79870
G1 F300 X41.07784 Y25.76331
G1 F300 X41.00550 Y25.76319
G1 F300 X40.89046 Y25.80695
G1 F300 X40.61007 Y25.86273
G1 F300 X40.32488 Y25.86273
G1 F300 X40.04510 Y25.80708
G1 F300 X39.68957 Y25.65249
G1 F300 X39.61340 Y25.65201
G1 F300 X39.54340 Y25.68196
G1 F300 X39.49115 Y25.73738
G1 F300 X39.46420 Y25.81739
G1 F300 X39.47144 Y26.09842
G1 F300 X39.44413 Y26.28472
G1 F300 X39.45920 Y26.37258
G1 F300 X39.19250 Y26.58620
G1 F300 X39.14741 Y26.64690
G1 F300 X39.13080 Y26.70832
G1 F300 X39.14335 Y26.79498
G1 F300 X39.20461 Y26.87497
G1 F300 X39.28142 Y26.90921
G1 F300 X39.41873 Y26.91221
G1 F300 X39.45884 Y26.95231
G1 F300 X39.39092 Y27.10824
G1 F300 X39.33395 Y27.17560
G1 F300 X39.18643 Y27.27106
G1 F300 X39.10161 Y27.29539
G1 F300 X38.63410 Y27.30113
G1 F300 X38.58439 Y27.25142
G1 F300 X38.58439 Y26.91261
G1 F300 X38.95851 Y26.90898
G1 F300 X39.01150 Y26.88650
G1 F300 X39.06608 Y26.82224
G1 F300 X39.08038 Y26.75709
G1 F300 X39.07736 Y26.53712
G1 F300 X39.05427 Y26.48150
G1 F300 X39.00644 Y26.43570
G1 F300 X38.92539 Y26.41261
G1 F300 X37.61538 Y26.41261
G1 F300 X37.55882 Y26.42336
G1 F300 X37.49397 Y26.47240
G1 F300 X37.46878 Y26.51955
G1 F300 X37.46222 Y26.77667
G1 F300 X37.47337 Y26.81962
G1 F300 X37.51488 Y26.87466
G1 F300 X37.60368 Y26.91147
G1 F300 X37.95638 Y26.91261
G1 F300 X37.95638 Y27.25142
G1 F300 X37.90667 Y27.30113
G1 F300 X37.53705 Y27.30357
G1 F300 X37.43913 Y27.29539
G1 F300 X37.27586 Y27.23059
G1 F300 X37.14983 Y27.10827
G1 F300 X37.08191 Y26.95231
G1 F300 X37.12202 Y26.91221
G1 F300 X37.25933 Y26.90921
G1 F300 X37.33614 Y26.87497
G1 F300 X37.39740 Y26.79498
G1 F300 X37.40995 Y26.70832
G1 F300 X37.39334 Y26.64690
G1 F300 X37.34825 Y26.58620
G1 F300 X37.08155 Y26.37258
G1 F300 X37.09662 Y26.28472
G1 F300 X37.06931 Y26.09844
G1 F300 X37.06931 Y25.92681
G1 F300 X37.10893 Y25.67002
G1 F300 X37.05445 Y25.41602
G1 F300 X36.99314 Y25.34503
G1 F300 X36.92047 Y25.31378
G1 F300 X26.61759 Y25.31434
G1 F300 X26.53321 Y25.35552
G1 F300 X26.48749 Y25.41350
G1 F300 X26.43182 Y25.67004
G1 F300 X26.47144 Y25.92684
G1 F300 X26.47144 Y26.09842
G1 F300 X26.44413 Y26.28477
G1 F300 X26.45917 Y26.37258
G1 F300 X26.19255 Y26.58612
G1 F300 X26.13497 Y26.68274
G1 F300 X26.14330 Y26.79493
G1 F300 X26.20456 Y26.87497
G1 F300 X26.28140 Y26.90921
G1 F300 X26.41873 Y26.91221
G1 F300 X26.45884 Y26.95231
G1 F300 X26.39092 Y27.10827
G1 F300 X26.26486 Y27.23059
G1 F300 X26.10164 Y27.29539
G1 F300 X26.00367 Y27.30357
G1 F300 X25.63408 Y27.30113
G1 F300 X25.58437 Y27.25142
G1 F300 X25.58437 Y26.91261
G1 F300 X25.95851 Y26.90898
G1 F300 X26.01150 Y26.88650
G1 F300 X26.06608 Y26.82224
G1 F300 X26.08038 Y26.75762
G1 F300 X26.07677 Y26.53451
G1 F300 X26.05427 Y26.48150
G1 F300 X25.99003 Y26.42694
G1 F300 X25.92539 Y26.41261
G1 F300 X24.61539 Y26.41261
G1 F300 X24.55882 Y26.42336
G1 F300 X24.49397 Y26.47240
G1 F300 X24.46400 Y26.53451
G1 F300 X24.46222 Y26.77667
G1 F300 X24.48097 Y26.83336
G1 F300 X24.52928 Y26.88650
G1 F300 X24.59098 Y26.91050
G1 F300 X24.95636 Y26.91261
G1 F300 X24.95636 Y27.25142
G1 F300 X24.90665 Y27.30113
G1 F300 X24.53705 Y27.30357
G1 F300 X24.35432 Y27.27103
G1 F300 X24.17401 Y27.17360
G1 F300 X24.09679 Y27.17250
G1 F300 X24.02575 Y27.20276
G1 F300 X21.24041 Y29.99028
G1 F300 X21.09581 Y30.10897
G1 F300 X20.93112 Y30.19701
G1 F300 X20.75240 Y30.25121
G1 F300 X20.56622 Y30.26955
G1 F300 X18.62520 Y30.26803
G1 F300 X18.52335 Y30.32236
G1 F300 X18.49317 Y30.36386
G1 F300 X18.47171 Y30.43473
;G04 P0 ; dwell for no time -- G64 should not smooth over this point 
G1 F3000 Z3.00000 ; retract 

G1 F3000 X14.14167 Y30.00847 ; rapid move to begin. 
G1 F300 F300.00000
G1 F300 Z-0.07000
;G04 P0 ; dwell for no time -- G64 should not smooth over this point 
G1 F300 F600.00000
G1 F300 X14.14167 Y30.00847
G1 F300 X14.14266 Y29.87692
G1 F300 X14.55183 Y29.87692
G1 F300 X14.62602 Y29.99190
G1 F300 X14.67273 Y30.02876
G1 F300 X14.76618 Y30.06805
G1 F300 X14.76618 Y30.41573
G1 F300 X14.71581 Y30.46610
G1 F300 X14.60044 Y30.46785
G1 F300 X14.50486 Y30.45845
G1 F300 X14.34256 Y30.39122
G1 F300 X14.27436 Y30.33526
G1 F300 X14.17677 Y30.18919
G1 F300 X14.14167 Y30.00847
;G04 P0 ; dwell for no time -- G64 should not smooth over this point 
G1 F3000 Z3.00000 ; retract 

G1 F3000 X11.80479 Y31.35007 ; rapid move to begin. 
G1 F300 F300.00000
G1 F300 Z-0.07000
;G04 P0 ; dwell for no time -- G64 should not smooth over this point 
G1 F300 F600.00000
G1 F300 X11.80479 Y31.35007
G1 F300 X11.80479 Y31.46764
G1 F300 X11.84721 Y31.42523
G1 F300 X11.82895 Y31.36297
G1 F300 X11.80479 Y31.35007
;G04 P0 ; dwell for no time -- G64 should not smooth over this point 
G1 F3000 Z3.00000 ; retract 

G1 F3000 X10.64234 Y31.42523 ; rapid move to begin. 
G1 F300 F300.00000
G1 F300 Z-0.07000
;G04 P0 ; dwell for no time -- G64 should not smooth over this point 
G1 F300 F600.00000
G1 F300 X10.64234 Y31.42523
G1 F300 X10.65908 Y31.36820
G1 F300 X10.68478 Y31.35604
G1 F300 X10.68478 Y31.46767
G1 F300 X10.64234 Y31.42523
;G04 P0 ; dwell for no time -- G64 should not smooth over this point 
G1 F3000 Z3.00000 ; retract 

G1 F3000 X9.99222 Y32.41039 ; rapid move to begin. 
G1 F300 F300.00000
G1 F300 Z-0.07000
;G04 P0 ; dwell for no time -- G64 should not smooth over this point 
G1 F300 F600.00000
G1 F300 X9.99222 Y32.41039
G1 F300 X10.00434 Y32.65593
G1 F300 X10.06411 Y32.89439
G1 F300 X10.14127 Y33.05743
G1 F300 X10.19829 Y33.07417
G1 F300 X10.45687 Y32.81557
G1 F300 X10.40358 Y32.65052
G1 F300 X10.38511 Y32.47798
G1 F300 X10.40358 Y32.29292
G1 F300 X10.45687 Y32.12787
G1 F300 X10.19829 Y31.86930
G1 F300 X10.13604 Y31.88756
G1 F300 X10.11262 Y31.93142
G1 F300 X10.02827 Y32.16724
G1 F300 X9.99222 Y32.41039
;G04 P0 ; dwell for no time -- G64 should not smooth over this point 
G1 F3000 Z3.00000 ; retract 

G1 F3000 X10.64234 Y33.51821 ; rapid move to begin. 
G1 F300 F300.00000
G1 F300 Z-0.07000
;G04 P0 ; dwell for no time -- G64 should not smooth over this point 
G1 F300 F600.00000
G1 F300 X10.64234 Y33.51821
G1 F300 X10.66060 Y33.58047
G1 F300 X10.70447 Y33.60389
G1 F300 X10.94028 Y33.68824
G1 F300 X11.18343 Y33.72426
G1 F300 X11.42900 Y33.71217
G1 F300 X11.66746 Y33.65240
G1 F300 X11.83047 Y33.57526
G1 F300 X11.84721 Y33.51821
G1 F300 X11.58557 Y33.25657
G1 F300 X11.51053 Y33.28961
G1 F300 X11.32842 Y33.32733
G1 F300 X11.14869 Y33.32601
G1 F300 X10.97904 Y33.28961
G1 F300 X10.90401 Y33.25657
G1 F300 X10.64234 Y33.51821
;G04 P0 ; dwell for no time -- G64 should not smooth over this point 
G1 F3000 Z3.00000 ; retract 

G1 F3000 X12.03271 Y32.12787 ; rapid move to begin. 
G1 F300 F300.00000
G1 F300 Z-0.07000
;G04 P0 ; dwell for no time -- G64 should not smooth over this point 
G1 F300 F600.00000
G1 F300 X12.03271 Y32.12787
G1 F300 X12.29125 Y31.86930
G1 F300 X12.34830 Y31.88603
G1 F300 X12.42544 Y32.04905
G1 F300 X12.48521 Y32.28751
G1 F300 X12.49732 Y32.53305
G1 F300 X12.46128 Y32.77623
G1 F300 X12.35351 Y33.05591
G1 F300 X12.29125 Y33.07417
G1 F300 X12.03271 Y32.81560
G1 F300 X12.08600 Y32.65052
G1 F300 X12.10446 Y32.46543
G1 F300 X12.08600 Y32.29292
G1 F300 X12.03271 Y32.12787
;G04 P0 ; dwell for no time -- G64 should not smooth over this point 
G1 F3000 Z3.00000 ; retract 

G1 F3000 X19.07511 Y25.53875 ; rapid move to begin. 
G1 F300 F300.00000
G1 F300 Z-0.07000
;G04 P0 ; dwell for no time -- G64 should not smooth over this point 
G1 F300 F600.00000
G1 F300 X19.07511 Y25.53875
G1 F300 X19.09795 Y25.32463
G1 F300 X19.16927 Y25.10827
G1 F300 X19.27382 Y24.92722
G1 F300 X19.42106 Y24.76171
G1 F300 X19.59952 Y24.63045
G1 F300 X19.81329 Y24.53527
G1 F300 X20.02398 Y24.49082
G1 F300 X20.23932 Y24.49049
G1 F300 X20.46233 Y24.53690
G1 F300 X20.65918 Y24.62417
G1 F300 X20.71773 Y24.66509
G1 F300 X21.47239 Y23.91041
G1 F300 X21.57422 Y23.85438
G1 F300 X24.51729 Y23.84891
G1 F300 X24.61539 Y23.81262
G1 F300 X25.92539 Y23.81262
G1 F300 X26.02590 Y23.85054
G1 F300 X26.07599 Y23.93167
G1 F300 X26.07401 Y24.19910
G1 F300 X26.03062 Y24.27116
G1 F300 X25.94401 Y24.31079
G1 F300 X24.61546 Y24.31262
G1 F300 X24.53964 Y24.29204
G1 F300 X24.51031 Y24.26890
G1 F300 X21.70787 Y24.26890
G1 F300 X21.01468 Y24.96210
G1 F300 X21.10307 Y25.11371
G1 F300 X21.17000 Y25.31856
G1 F300 X21.19446 Y25.53875
G1 F300 X21.17163 Y25.76540
G1 F300 X21.10030 Y25.98175
G1 F300 X20.98839 Y26.17294
G1 F300 X20.84407 Y26.33276
G1 F300 X20.65918 Y26.46585
G1 F300 X20.45629 Y26.55475
G1 F300 X20.24559 Y26.59920
G1 F300 X20.03025 Y26.59953
G1 F300 X19.81329 Y26.55475
G1 F300 X19.61039 Y26.46585
G1 F300 X19.43038 Y26.33669
G1 F300 X19.28118 Y26.17294
G1 F300 X19.16642 Y25.97616
G1 F300 X19.09795 Y25.76540
G1 F300 X19.07511 Y25.53875
;G04 P0 ; dwell for no time -- G64 should not smooth over this point 
G1 F3000 Z3.00000 ; retract 

G1 F3000 X24.46039 Y25.91813 ; rapid move to begin. 
G1 F300 F300.00000
G1 F300 Z-0.07000
;G04 P0 ; dwell for no time -- G64 should not smooth over this point 
G1 F300 F600.00000
G1 F300 X24.46039 Y25.91813
G1 F300 X24.47218 Y25.85831
G1 F300 X24.50578 Y25.80802
G1 F300 X24.60368 Y25.76377
G1 F300 X25.95275 Y25.76509
G1 F300 X26.03499 Y25.80802
G1 F300 X26.07058 Y25.86385
G1 F300 X26.07792 Y26.13494
G1 F300 X26.03499 Y26.21721
G1 F300 X25.98470 Y26.25082
G1 F300 X25.92531 Y26.26260
G1 F300 X24.58800 Y26.26014
G1 F300 X24.50578 Y26.21721
G1 F300 X24.47020 Y26.16138
G1 F300 X24.46039 Y25.91813
;G04 P0 ; dwell for no time -- G64 should not smooth over this point 
G1 F3000 Z3.00000 ; retract 

G1 F3000 X24.46039 Y25.26814 ; rapid move to begin. 
G1 F300 F300.00000
G1 F300 Z-0.07000
;G04 P0 ; dwell for no time -- G64 should not smooth over this point 
G1 F300 F600.00000
G1 F300 X24.46039 Y25.26814
G1 F300 X24.47218 Y25.20830
G1 F300 X24.50578 Y25.15801
G1 F300 X24.60368 Y25.11376
G1 F300 X25.95275 Y25.11510
G1 F300 X26.03499 Y25.15801
G1 F300 X26.07058 Y25.21383
G1 F300 X26.07738 Y25.48785
G1 F300 X26.02059 Y25.57904
G1 F300 X25.93126 Y25.61234
G1 F300 X24.58511 Y25.60962
G1 F300 X24.51015 Y25.57116
G1 F300 X24.47020 Y25.51140
G1 F300 X24.46039 Y25.26814
;G04 P0 ; dwell for no time -- G64 should not smooth over this point 
G1 F3000 Z3.00000 ; retract 

G1 F3000 X24.46039 Y23.31813 ; rapid move to begin. 
G1 F300 F300.00000
G1 F300 Z-0.07000
;G04 P0 ; dwell for no time -- G64 should not smooth over this point 
G1 F300 F600.00000
G1 F300 X24.46039 Y23.31813
G1 F300 X24.47218 Y23.25829
G1 F300 X24.50578 Y23.20802
G1 F300 X24.60368 Y23.16378
G1 F300 X25.95275 Y23.16510
G1 F300 X26.03499 Y23.20802
G1 F300 X26.07058 Y23.26385
G1 F300 X26.07792 Y23.53495
G1 F300 X26.03499 Y23.61722
G1 F300 X25.98470 Y23.65082
G1 F300 X25.92531 Y23.66261
G1 F300 X24.58800 Y23.66014
G1 F300 X24.50578 Y23.61722
G1 F300 X24.47020 Y23.56139
G1 F300 X24.46039 Y23.31813
;G04 P0 ; dwell for no time -- G64 should not smooth over this point 
G1 F3000 Z3.00000 ; retract 

G1 F3000 X24.46039 Y20.25708 ; rapid move to begin. 
G1 F300 F300.00000
G1 F300 Z-0.07000
;G04 P0 ; dwell for no time -- G64 should not smooth over this point 
G1 F300 F600.00000
G1 F300 X24.46039 Y20.25708
G1 F300 X24.47020 Y20.01385
G1 F300 X24.50578 Y19.95802
G1 F300 X24.56733 Y19.92101
G1 F300 X25.92539 Y19.91260
G1 F300 X25.98196 Y19.92334
G1 F300 X26.02714 Y19.95263
G1 F300 X27.41426 Y19.95263
G1 F300 X27.48909 Y19.96663
G1 F300 X27.56278 Y20.01412
G1 F300 X27.80070 Y20.25979
G1 F300 X27.83278 Y20.36553
G1 F300 X27.83306 Y20.60264
G1 F300 X37.51363 Y20.60264
G1 F300 X37.55882 Y20.57336
G1 F300 X37.61538 Y20.56261
G1 F300 X38.92539 Y20.56261
G1 F300 X38.98196 Y20.57336
G1 F300 X39.02714 Y20.60264
G1 F300 X48.17696 Y20.60810
G1 F300 X48.27879 Y20.66414
G1 F300 X48.81209 Y21.19743
G1 F300 X48.85509 Y21.26025
G1 F300 X48.87358 Y21.34595
G1 F300 X48.87358 Y22.71491
G1 F300 X48.97231 Y22.72217
G1 F300 X49.08082 Y22.76962
G1 F300 X49.16291 Y22.85496
G1 F300 X49.20612 Y22.96522
G1 F300 X49.22359 Y23.47490
G1 F300 X49.22359 Y25.62120
G1 F300 X49.20383 Y26.14243
G1 F300 X49.18544 Y26.19902
G1 F300 X49.12608 Y26.28787
G1 F300 X49.01803 Y26.36009
G1 F300 X48.90734 Y26.38122
G1 F300 X48.41983 Y26.38122
G1 F300 X48.30914 Y26.36009
G1 F300 X48.24635 Y26.32651
G1 F300 X48.17079 Y26.25094
G1 F300 X48.12336 Y26.14243
G1 F300 X48.10358 Y25.62120
G1 F300 X48.10358 Y23.47490
G1 F300 X48.11638 Y23.01277
G1 F300 X48.14173 Y22.89710
G1 F300 X48.20942 Y22.79992
G1 F300 X48.30914 Y22.73604
G1 F300 X48.45359 Y22.71491
G1 F300 X48.45359 Y21.43292
G1 F300 X48.04330 Y21.02263
G1 F300 X39.02709 Y21.02263
G1 F300 X38.98196 Y21.05187
G1 F300 X38.92539 Y21.06261
G1 F300 X37.61538 Y21.06261
G1 F300 X37.55882 Y21.05187
G1 F300 X37.51368 Y21.02263
G1 F300 X27.62305 Y21.02263
G1 F300 X27.51144 Y20.99027
G1 F300 X27.43156 Y20.89832
G1 F300 X27.41307 Y20.81262
G1 F300 X27.41307 Y20.45840
G1 F300 X27.32729 Y20.37262
G1 F300 X26.02712 Y20.37262
G1 F300 X25.98196 Y20.40188
G1 F300 X25.92539 Y20.41263
G1 F300 X24.61539 Y20.41263
G1 F300 X24.55882 Y20.40188
G1 F300 X24.50375 Y20.36508
G1 F300 X24.47218 Y20.31692
G1 F300 X24.46039 Y20.25708
;G04 P0 ; dwell for no time -- G64 should not smooth over this point 
G1 F3000 Z3.00000 ; retract 

G1 F3000 X24.46039 Y19.60709 ; rapid move to begin. 
G1 F300 F300.00000
G1 F300 Z-0.07000
;G04 P0 ; dwell for no time -- G64 should not smooth over this point 
G1 F300 F600.00000
G1 F300 X24.46039 Y19.60709
G1 F300 X24.46222 Y19.39856
G1 F300 X24.48097 Y19.34186
G1 F300 X24.53433 Y19.28570
G1 F300 X24.61539 Y19.26261
G1 F300 X25.92539 Y19.26261
G1 F300 X25.98196 Y19.27336
G1 F300 X26.02712 Y19.30262
G1 F300 X34.88539 Y19.30262
G1 F300 X34.88539 Y9.21280
G1 F300 X34.91775 Y9.10119
G1 F300 X35.74699 Y8.26421
G1 F300 X35.86035 Y8.20589
G1 F300 X40.59308 Y8.20272
G1 F300 X40.59338 Y7.95057
G1 F300 X40.61424 Y7.84577
G1 F300 X40.67809 Y7.74605
G1 F300 X40.78614 Y7.67384
G1 F300 X40.89684 Y7.65271
G1 F300 X41.43778 Y7.65768
G1 F300 X41.54804 Y7.70086
G1 F300 X41.63339 Y7.78298
G1 F300 X41.68312 Y7.90302
G1 F300 X41.70059 Y8.41270
G1 F300 X41.70059 Y10.40660
G1 F300 X41.66478 Y10.59944
G1 F300 X41.65228 Y12.86946
G1 F300 X41.63115 Y12.98015
G1 F300 X41.59760 Y13.04294
G1 F300 X41.51225 Y13.12506
G1 F300 X41.41350 Y13.16595
G1 F300 X40.79607 Y13.16595
G1 F300 X40.69734 Y13.12506
G1 F300 X40.64230 Y13.07987
G1 F300 X40.58292 Y12.99102
G1 F300 X40.56227 Y12.92290
G1 F300 X40.54477 Y12.41320
G1 F300 X40.54477 Y10.44241
G1 F300 X40.56768 Y10.29212
G1 F300 X40.56768 Y9.97577
G1 F300 X40.58058 Y9.89222
G1 F300 X40.58058 Y8.62271
G1 F300 X35.98247 Y8.62271
G1 F300 X35.30538 Y9.29979
G1 F300 X35.30538 Y19.28583
G1 F300 X35.32217 Y19.30262
G1 F300 X37.51366 Y19.30262
G1 F300 X37.55882 Y19.27336
G1 F300 X37.61538 Y19.26261
G1 F300 X38.93710 Y19.26376
G1 F300 X39.03499 Y19.30800
G1 F300 X39.07787 Y19.39002
G1 F300 X39.07924 Y19.61931
G1 F300 X39.06860 Y19.66693
G1 F300 X39.02590 Y19.72467
G1 F300 X38.92539 Y19.76261
G1 F300 X37.61538 Y19.76261
G1 F300 X37.55882 Y19.75187
G1 F300 X37.51366 Y19.72261
G1 F300 X26.02712 Y19.72261
G1 F300 X25.98196 Y19.75187
G1 F300 X25.92539 Y19.76261
G1 F300 X24.61539 Y19.76261
G1 F300 X24.53964 Y19.74204
G1 F300 X24.49397 Y19.70282
G1 F300 X24.46039 Y19.60709
;G04 P0 ; dwell for no time -- G64 should not smooth over this point 
G1 F3000 Z3.00000 ; retract 

G1 F3000 X24.46039 Y18.11814 ; rapid move to begin. 
G1 F300 F300.00000
G1 F300 Z-0.07000
;G04 P0 ; dwell for no time -- G64 should not smooth over this point 
G1 F300 F600.00000
G1 F300 X24.46039 Y18.11814
G1 F300 X24.47020 Y18.36140
G1 F300 X24.51015 Y18.42116
G1 F300 X24.58511 Y18.45962
G1 F300 X25.93126 Y18.46231
G1 F300 X26.02059 Y18.42904
G1 F300 X26.07738 Y18.33785
G1 F300 X26.07058 Y18.06384
G1 F300 X26.03499 Y18.00801
G1 F300 X25.95275 Y17.96508
G1 F300 X24.60368 Y17.96376
G1 F300 X24.50578 Y18.00801
G1 F300 X24.47218 Y18.05830
G1 F300 X24.46039 Y18.11814
;G04 P0 ; dwell for no time -- G64 should not smooth over this point 
G1 F3000 Z3.00000 ; retract 

G1 F3000 X24.46039 Y16.81814 ; rapid move to begin. 
G1 F300 F300.00000
G1 F300 Z-0.07000
;G04 P0 ; dwell for no time -- G64 should not smooth over this point 
G1 F300 F600.00000
G1 F300 X24.46039 Y16.81814
G1 F300 X24.47020 Y17.06137
G1 F300 X24.50578 Y17.11720
G1 F300 X24.58800 Y17.16013
G1 F300 X25.92531 Y17.16262
G1 F300 X25.98470 Y17.15081
G1 F300 X26.03499 Y17.11720
G1 F300 X26.07792 Y17.03496
G1 F300 X26.07058 Y16.76384
G1 F300 X26.03499 Y16.70801
G1 F300 X25.95275 Y16.66508
G1 F300 X24.60368 Y16.66376
G1 F300 X24.50578 Y16.70801
G1 F300 X24.47218 Y16.75830
G1 F300 X24.46039 Y16.81814
;G04 P0 ; dwell for no time -- G64 should not smooth over this point 
G1 F3000 Z3.00000 ; retract 

G1 F3000 X24.46039 Y16.16813 ; rapid move to begin. 
G1 F300 F300.00000
G1 F300 Z-0.07000
;G04 P0 ; dwell for no time -- G64 should not smooth over this point 
G1 F300 F600.00000
G1 F300 X24.46039 Y16.16813
G1 F300 X24.47020 Y16.41139
G1 F300 X24.50578 Y16.46722
G1 F300 X24.58800 Y16.51014
G1 F300 X25.92531 Y16.51261
G1 F300 X25.98470 Y16.50082
G1 F300 X26.03499 Y16.46722
G1 F300 X26.07792 Y16.38495
G1 F300 X26.07058 Y16.11385
G1 F300 X26.03499 Y16.05802
G1 F300 X25.95275 Y16.01510
G1 F300 X24.60368 Y16.01378
G1 F300 X24.50578 Y16.05802
G1 F300 X24.47218 Y16.10829
G1 F300 X24.46039 Y16.16813
;G04 P0 ; dwell for no time -- G64 should not smooth over this point 
